(G-CODE GENERATED BY FLATCAM v8.994 - www.flatcam.org - Version Date: 2020/11/7)

(Name: active_sender-B_Cu.gbr_iso_combined_cnc)
(Type: G-code from Geometry)
(Units: MM)

(Created on Monday, 29 June 2026 at 17:59)

(This preprocessor is the default preprocessor used by FlatCAM.)
(It is made to work with MACH3 compatible motion controllers.)

(TOOL DIAMETER: 0.1497 mm)
(Feedrate_XY: 120.0 mm/min)
(Feedrate_Z: 40.0 mm/min)
(Feedrate rapids 1000.0 mm/min)

(Z_Cut: -0.06 mm)
(Z_Move: 1.5 mm)
(Z Start: None mm)
(Z End: 25.0 mm)
(X,Y End: None mm)
(Steps per circle: 64)
(Preprocessor Geometry: Default_no_M6)

(X range:    0.2310 ...   82.7690  mm)
(Y range:    0.2310 ...   79.7690  mm)

(Spindle Speed: 12000.0 RPM)
G21
G90
G94

G01 F120.00

M5
G00 Z15.0000
G00 X0.0000 Y0.0000
T2
(MSG, Change to Tool Dia = 0.1497)
M0
G00 Z15.0000
        
M03 S12000.0
G01 F120.00
G00 X2.6641 Y4.6031
G01 F40.00
G01 Z-0.0600
G01 F120.00
G01 X2.7232 Y4.3441
G01 X2.8110 Y4.0933
G01 X2.9263 Y3.8539
G01 X3.0675 Y3.6290
G01 X3.2333 Y3.4212
G01 X3.4212 Y3.2333
G01 X3.6289 Y3.0676
G01 X3.8335 Y2.9391
G01 X3.8396 Y2.9348
G01 X3.8442 Y2.9309
G01 X4.0933 Y2.8110
G01 X4.3441 Y2.7232
G01 X4.6031 Y2.6641
G01 X4.8282 Y2.6387
G01 X4.8462 Y2.6358
G01 X4.8526 Y2.6343
G01 X5.1374 Y2.6343
G01 X5.1461 Y2.6358
G01 X5.3969 Y2.6641
G01 X5.6559 Y2.7232
G01 X5.9067 Y2.8110
G01 X6.1461 Y2.9263
G01 X6.3711 Y3.0676
G01 X6.5788 Y3.2333
G01 X6.7667 Y3.4212
G01 X6.9325 Y3.6290
G01 X7.0737 Y3.8539
G01 X7.1890 Y4.0933
G01 X7.2768 Y4.3441
G01 X7.3359 Y4.6031
G01 X7.3657 Y4.8671
G01 X7.3657 Y5.1329
G01 X7.3359 Y5.3969
G01 X7.2768 Y5.6560
G01 X7.1890 Y5.9067
G01 X7.0737 Y6.1461
G01 X6.9325 Y6.3710
G01 X6.7667 Y6.5788
G01 X6.5788 Y6.7667
G01 X6.3710 Y6.9325
G01 X6.1461 Y7.0737
G01 X5.9067 Y7.1890
G01 X5.6559 Y7.2768
G01 X5.3969 Y7.3359
G01 X5.1329 Y7.3657
G01 X4.8671 Y7.3657
G01 X4.6031 Y7.3359
G01 X4.3440 Y7.2768
G01 X4.0933 Y7.1890
G01 X3.8539 Y7.0737
G01 X3.6290 Y6.9325
G01 X3.4212 Y6.7667
G01 X3.2333 Y6.5788
G01 X3.0675 Y6.3710
G01 X2.9263 Y6.1461
G01 X2.8110 Y5.9069
G01 X2.7232 Y5.6559
G01 X2.6641 Y5.3969
G01 X2.6343 Y5.1329
G01 X2.6343 Y4.8671
G01 X2.6641 Y4.6031
G00 Z1.5000
G00 X2.7602 Y4.6194
G01 F40.00
G01 Z-0.0600
G01 F120.00
G01 X2.8169 Y4.3711
G01 X2.9010 Y4.1306
G01 X3.0116 Y3.9010
G01 X3.1471 Y3.6853
G01 X3.3060 Y3.4861
G01 X3.4861 Y3.3060
G01 X3.6853 Y3.1471
G01 X3.8853 Y3.0215
G01 X3.8966 Y3.0137
G01 X4.1306 Y2.9010
G01 X4.3711 Y2.8169
G01 X4.6195 Y2.7602
G01 X4.8391 Y2.7354
G01 X4.8632 Y2.7317
G01 X5.1286 Y2.7317
G01 X5.3806 Y2.7602
G01 X5.6290 Y2.8169
G01 X5.8694 Y2.9010
G01 X6.0990 Y3.0116
G01 X6.3147 Y3.1471
G01 X6.5139 Y3.3060
G01 X6.6941 Y3.4861
G01 X6.8529 Y3.6853
G01 X6.9884 Y3.9010
G01 X7.0990 Y4.1306
G01 X7.1831 Y4.3711
G01 X7.2398 Y4.6195
G01 X7.2683 Y4.8726
G01 X7.2683 Y5.1274
G01 X7.2398 Y5.3806
G01 X7.1831 Y5.6290
G01 X7.0990 Y5.8694
G01 X6.9884 Y6.0990
G01 X6.8529 Y6.3147
G01 X6.6941 Y6.5139
G01 X6.5139 Y6.6941
G01 X6.3147 Y6.8529
G01 X6.0990 Y6.9884
G01 X5.8694 Y7.0990
G01 X5.6290 Y7.1831
G01 X5.3805 Y7.2398
G01 X5.1274 Y7.2683
G01 X4.8726 Y7.2683
G01 X4.6194 Y7.2398
G01 X4.3710 Y7.1831
G01 X4.1306 Y7.0990
G01 X3.9010 Y6.9884
G01 X3.6853 Y6.8529
G01 X3.4861 Y6.6941
G01 X3.3059 Y6.5139
G01 X3.1471 Y6.3147
G01 X3.0116 Y6.0990
G01 X2.9010 Y5.8694
G01 X2.8169 Y5.6289
G01 X2.7602 Y5.3806
G01 X2.7317 Y5.1274
G01 X2.7317 Y4.8726
G01 X2.7602 Y4.6194
G00 Z1.5000
G00 X2.8563 Y4.6358
G01 F40.00
G01 Z-0.0600
G01 F120.00
G01 X2.9105 Y4.3980
G01 X2.9911 Y4.1679
G01 X3.0969 Y3.9482
G01 X3.2266 Y3.7417
G01 X3.3786 Y3.5511
G01 X3.5511 Y3.3786
G01 X3.7417 Y3.2266
G01 X3.9462 Y3.0978
G01 X4.1679 Y2.9911
G01 X4.3980 Y2.9105
G01 X4.6358 Y2.8563
G01 X4.8500 Y2.8321
G01 X4.8714 Y2.8290
G01 X5.1221 Y2.8290
G01 X5.3642 Y2.8563
G01 X5.6020 Y2.9105
G01 X5.8321 Y2.9911
G01 X6.0518 Y3.0969
G01 X6.2583 Y3.2266
G01 X6.4489 Y3.3786
G01 X6.6214 Y3.5511
G01 X6.7734 Y3.7417
G01 X6.9031 Y3.9482
G01 X7.0089 Y4.1679
G01 X7.0895 Y4.3980
G01 X7.1437 Y4.6358
G01 X7.1710 Y4.8781
G01 X7.1710 Y5.1219
G01 X7.1437 Y5.3642
G01 X7.0895 Y5.6020
G01 X7.0089 Y5.8321
G01 X6.9031 Y6.0518
G01 X6.7734 Y6.2583
G01 X6.6214 Y6.4489
G01 X6.4489 Y6.6214
G01 X6.2583 Y6.7734
G01 X6.0518 Y6.9031
G01 X5.8321 Y7.0089
G01 X5.6020 Y7.0895
G01 X5.3642 Y7.1437
G01 X5.1219 Y7.1710
G01 X4.8781 Y7.1710
G01 X4.6358 Y7.1437
G01 X4.3980 Y7.0895
G01 X4.1679 Y7.0089
G01 X3.9482 Y6.9031
G01 X3.7417 Y6.7734
G01 X3.5511 Y6.6214
G01 X3.3786 Y6.4489
G01 X3.2266 Y6.2583
G01 X3.0969 Y6.0518
G01 X2.9911 Y5.8321
G01 X2.9105 Y5.6020
G01 X2.8563 Y5.3642
G01 X2.8290 Y5.1219
G01 X2.8290 Y4.8781
G01 X2.8563 Y4.6358
G00 Z1.5000
G00 X2.9389 Y5.2115
G01 F40.00
G01 Z-0.0600
G01 F120.00
G01 X2.9372 Y5.1947
G01 X2.9278 Y5.0000
G01 X2.9378 Y4.7969
G01 X2.9677 Y4.5957
G01 X3.0171 Y4.3985
G01 X3.0856 Y4.2070
G01 X3.1725 Y4.0232
G01 X3.2771 Y3.8488
G01 X3.3982 Y3.6854
G01 X3.5348 Y3.5348
G01 X3.6854 Y3.3982
G01 X3.8488 Y3.2771
G01 X4.0232 Y3.1725
G01 X4.2070 Y3.0856
G01 X4.3985 Y3.0171
G01 X4.5957 Y2.9677
G01 X4.7969 Y2.9378
G01 X5.0000 Y2.9278
G01 X5.2031 Y2.9378
G01 X5.4043 Y2.9677
G01 X5.6015 Y3.0171
G01 X5.7930 Y3.0856
G01 X5.9768 Y3.1725
G01 X6.1512 Y3.2771
G01 X6.3146 Y3.3982
G01 X6.4652 Y3.5348
G01 X6.6018 Y3.6854
G01 X6.7229 Y3.8488
G01 X6.8275 Y4.0232
G01 X6.9144 Y4.2070
G01 X6.9829 Y4.3985
G01 X7.0323 Y4.5957
G01 X7.0622 Y4.7969
G01 X7.0722 Y5.0000
G01 X7.0622 Y5.2031
G01 X7.0323 Y5.4043
G01 X6.9829 Y5.6015
G01 X6.9144 Y5.7930
G01 X6.8275 Y5.9768
G01 X6.7229 Y6.1512
G01 X6.6018 Y6.3146
G01 X6.4652 Y6.4652
G01 X6.3146 Y6.6018
G01 X6.1512 Y6.7229
G01 X5.9768 Y6.8275
G01 X5.7930 Y6.9144
G01 X5.6015 Y6.9829
G01 X5.4043 Y7.0323
G01 X5.2031 Y7.0622
G01 X5.0000 Y7.0722
G01 X4.7969 Y7.0622
G01 X4.5957 Y7.0323
G01 X4.3985 Y6.9829
G01 X4.2070 Y6.9144
G01 X4.0232 Y6.8275
G01 X3.8488 Y6.7229
G01 X3.6854 Y6.6018
G01 X3.5348 Y6.4652
G01 X3.3982 Y6.3146
G01 X3.2771 Y6.1512
G01 X3.1725 Y5.9768
G01 X3.0856 Y5.7930
G01 X3.0171 Y5.6015
G01 X2.9677 Y5.4043
G01 X2.9389 Y5.2115
G00 Z1.5000
G00 X2.8426 Y5.2258
G01 F40.00
G01 Z-0.0600
G01 F120.00
G01 X2.8410 Y5.2126
G01 X2.8400 Y5.1995
G01 X2.8309 Y5.0132
G01 X2.8305 Y5.0000
G01 X2.8309 Y4.9868
G01 X2.8400 Y4.8005
G01 X2.8410 Y4.7874
G01 X2.8426 Y4.7742
G01 X2.8700 Y4.5898
G01 X2.8722 Y4.5768
G01 X2.8751 Y4.5639
G01 X2.9204 Y4.3830
G01 X2.9240 Y4.3702
G01 X2.9281 Y4.3577
G01 X2.9909 Y4.1821
G01 X2.9957 Y4.1698
G01 X3.0010 Y4.1577
G01 X3.0808 Y3.9891
G01 X3.0867 Y3.9773
G01 X3.0932 Y3.9658
G01 X3.1891 Y3.8059
G01 X3.1962 Y3.7947
G01 X3.2038 Y3.7839
G01 X3.3148 Y3.6341
G01 X3.3230 Y3.6237
G01 X3.3316 Y3.6137
G01 X3.4568 Y3.4755
G01 X3.4660 Y3.4660
G01 X3.4755 Y3.4568
G01 X3.6137 Y3.3316
G01 X3.6237 Y3.3230
G01 X3.6341 Y3.3148
G01 X3.7839 Y3.2038
G01 X3.7947 Y3.1962
G01 X3.8059 Y3.1891
G01 X3.9658 Y3.0932
G01 X3.9773 Y3.0867
G01 X3.9891 Y3.0808
G01 X4.1577 Y3.0010
G01 X4.1698 Y2.9957
G01 X4.1821 Y2.9909
G01 X4.3577 Y2.9281
G01 X4.3702 Y2.9240
G01 X4.3830 Y2.9204
G01 X4.5639 Y2.8751
G01 X4.5768 Y2.8722
G01 X4.5898 Y2.8700
G01 X4.7742 Y2.8426
G01 X4.7874 Y2.8410
G01 X4.8005 Y2.8400
G01 X4.9868 Y2.8309
G01 X5.0000 Y2.8305
G01 X5.0132 Y2.8309
G01 X5.1995 Y2.8400
G01 X5.2126 Y2.8410
G01 X5.2258 Y2.8426
G01 X5.4102 Y2.8700
G01 X5.4232 Y2.8722
G01 X5.4361 Y2.8751
G01 X5.6170 Y2.9204
G01 X5.6298 Y2.9240
G01 X5.6423 Y2.9281
G01 X5.8179 Y2.9909
G01 X5.8302 Y2.9957
G01 X5.8423 Y3.0010
G01 X6.0109 Y3.0808
G01 X6.0227 Y3.0867
G01 X6.0342 Y3.0932
G01 X6.1941 Y3.1891
G01 X6.2053 Y3.1962
G01 X6.2161 Y3.2038
G01 X6.3659 Y3.3148
G01 X6.3763 Y3.3230
G01 X6.3863 Y3.3316
G01 X6.5245 Y3.4568
G01 X6.5340 Y3.4660
G01 X6.5432 Y3.4755
G01 X6.6684 Y3.6137
G01 X6.6770 Y3.6237
G01 X6.6852 Y3.6341
G01 X6.7962 Y3.7839
G01 X6.8038 Y3.7947
G01 X6.8109 Y3.8059
G01 X6.9068 Y3.9658
G01 X6.9133 Y3.9773
G01 X6.9192 Y3.9891
G01 X6.9990 Y4.1577
G01 X7.0043 Y4.1698
G01 X7.0091 Y4.1821
G01 X7.0719 Y4.3577
G01 X7.0760 Y4.3702
G01 X7.0796 Y4.3830
G01 X7.1249 Y4.5639
G01 X7.1278 Y4.5768
G01 X7.1300 Y4.5898
G01 X7.1574 Y4.7742
G01 X7.1590 Y4.7874
G01 X7.1600 Y4.8005
G01 X7.1691 Y4.9868
G01 X7.1695 Y5.0000
G01 X7.1691 Y5.0132
G01 X7.1600 Y5.1995
G01 X7.1590 Y5.2126
G01 X7.1574 Y5.2258
G01 X7.1300 Y5.4102
G01 X7.1278 Y5.4232
G01 X7.1249 Y5.4361
G01 X7.0796 Y5.6170
G01 X7.0760 Y5.6298
G01 X7.0719 Y5.6423
G01 X7.0091 Y5.8179
G01 X7.0043 Y5.8302
G01 X6.9990 Y5.8423
G01 X6.9192 Y6.0109
G01 X6.9133 Y6.0227
G01 X6.9068 Y6.0342
G01 X6.8109 Y6.1941
G01 X6.8038 Y6.2053
G01 X6.7962 Y6.2161
G01 X6.6852 Y6.3659
G01 X6.6770 Y6.3763
G01 X6.6684 Y6.3863
G01 X6.5432 Y6.5245
G01 X6.5340 Y6.5340
G01 X6.5245 Y6.5432
G01 X6.3863 Y6.6684
G01 X6.3763 Y6.6770
G01 X6.3659 Y6.6852
G01 X6.2161 Y6.7962
G01 X6.2053 Y6.8038
G01 X6.1941 Y6.8109
G01 X6.0342 Y6.9068
G01 X6.0227 Y6.9133
G01 X6.0109 Y6.9192
G01 X5.8423 Y6.9990
G01 X5.8302 Y7.0043
G01 X5.8179 Y7.0091
G01 X5.6423 Y7.0719
G01 X5.6298 Y7.0760
G01 X5.6170 Y7.0796
G01 X5.4361 Y7.1249
G01 X5.4232 Y7.1278
G01 X5.4102 Y7.1300
G01 X5.2258 Y7.1574
G01 X5.2126 Y7.1590
G01 X5.1995 Y7.1600
G01 X5.0132 Y7.1691
G01 X5.0000 Y7.1695
G01 X4.9868 Y7.1691
G01 X4.8005 Y7.1600
G01 X4.7874 Y7.1590
G01 X4.7742 Y7.1574
G01 X4.5898 Y7.1300
G01 X4.5768 Y7.1278
G01 X4.5639 Y7.1249
G01 X4.3830 Y7.0796
G01 X4.3702 Y7.0760
G01 X4.3577 Y7.0719
G01 X4.1821 Y7.0091
G01 X4.1698 Y7.0043
G01 X4.1577 Y6.9990
G01 X3.9891 Y6.9192
G01 X3.9773 Y6.9133
G01 X3.9658 Y6.9068
G01 X3.8059 Y6.8109
G01 X3.7947 Y6.8038
G01 X3.7839 Y6.7962
G01 X3.6341 Y6.6852
G01 X3.6237 Y6.6770
G01 X3.6137 Y6.6684
G01 X3.4755 Y6.5432
G01 X3.4660 Y6.5340
G01 X3.4568 Y6.5245
G01 X3.3316 Y6.3863
G01 X3.3230 Y6.3763
G01 X3.3148 Y6.3659
G01 X3.2038 Y6.2161
G01 X3.1962 Y6.2053
G01 X3.1891 Y6.1941
G01 X3.0932 Y6.0342
G01 X3.0867 Y6.0227
G01 X3.0808 Y6.0109
G01 X3.0010 Y5.8423
G01 X2.9957 Y5.8302
G01 X2.9909 Y5.8179
G01 X2.9281 Y5.6423
G01 X2.9240 Y5.6298
G01 X2.9204 Y5.6170
G01 X2.8751 Y5.4361
G01 X2.8722 Y5.4232
G01 X2.8700 Y5.4102
G01 X2.8426 Y5.2258
G00 Z1.5000
G00 X3.0351 Y5.1972
G01 F40.00
G01 Z-0.0600
G01 F120.00
G01 X3.0344 Y5.1899
G01 X3.0252 Y5.0000
G01 X3.0347 Y4.8064
G01 X3.0631 Y4.6147
G01 X3.1102 Y4.4267
G01 X3.1755 Y4.2443
G01 X3.2583 Y4.0691
G01 X3.3580 Y3.9028
G01 X3.4734 Y3.7472
G01 X3.6036 Y3.6036
G01 X3.7472 Y3.4734
G01 X3.9028 Y3.3580
G01 X4.0691 Y3.2583
G01 X4.2443 Y3.1755
G01 X4.4267 Y3.1102
G01 X4.6147 Y3.0631
G01 X4.8064 Y3.0347
G01 X5.0000 Y3.0252
G01 X5.1936 Y3.0347
G01 X5.3853 Y3.0631
G01 X5.5733 Y3.1102
G01 X5.7557 Y3.1755
G01 X5.9309 Y3.2583
G01 X6.0972 Y3.3580
G01 X6.2528 Y3.4734
G01 X6.3964 Y3.6036
G01 X6.5266 Y3.7472
G01 X6.6420 Y3.9028
G01 X6.7417 Y4.0691
G01 X6.8245 Y4.2443
G01 X6.8898 Y4.4267
G01 X6.9369 Y4.6147
G01 X6.9653 Y4.8064
G01 X6.9748 Y5.0000
G01 X6.9653 Y5.1936
G01 X6.9369 Y5.3853
G01 X6.8898 Y5.5733
G01 X6.8245 Y5.7557
G01 X6.7417 Y5.9309
G01 X6.6420 Y6.0972
G01 X6.5266 Y6.2528
G01 X6.3964 Y6.3964
G01 X6.2528 Y6.5266
G01 X6.0972 Y6.6420
G01 X5.9309 Y6.7417
G01 X5.7557 Y6.8245
G01 X5.5733 Y6.8898
G01 X5.3853 Y6.9369
G01 X5.1936 Y6.9653
G01 X5.0000 Y6.9748
G01 X4.8064 Y6.9653
G01 X4.6147 Y6.9369
G01 X4.4267 Y6.8898
G01 X4.2443 Y6.8245
G01 X4.0691 Y6.7417
G01 X3.9028 Y6.6420
G01 X3.7472 Y6.5266
G01 X3.6036 Y6.3964
G01 X3.4734 Y6.2528
G01 X3.3580 Y6.0972
G01 X3.2583 Y5.9309
G01 X3.1755 Y5.7557
G01 X3.1102 Y5.5733
G01 X3.0631 Y5.3853
G01 X3.0351 Y5.1972
G00 Z1.5000
G00 X1.4790 Y12.9487
G01 F40.00
G01 Z-0.0600
G01 F120.00
G01 X1.4790 Y23.0513
G01 X1.4990 Y23.1520
G01 X1.5383 Y23.2468
G01 X1.5953 Y23.3321
G01 X2.9278 Y24.6647
G01 X3.0132 Y24.7217
G01 X3.1080 Y24.7610
G01 X3.2087 Y24.7810
G01 X4.5421 Y24.7811
G01 X4.5545 Y24.7818
G01 X4.5668 Y24.7830
G01 X4.6205 Y24.7909
G01 X4.6393 Y24.7952
G01 X4.6789 Y24.8071
G01 X4.6967 Y24.8140
G01 X4.7139 Y24.8221
G01 X4.7752 Y24.8569
G01 X4.7861 Y24.8635
G01 X4.7966 Y24.8706
G01 X4.8068 Y24.8782
G01 X4.8167 Y24.8862
G01 X4.8261 Y24.8947
G01 X4.8382 Y24.9066
G01 X4.8491 Y24.9184
G01 X4.8632 Y24.9346
G01 X4.8775 Y24.9526
G01 X4.9049 Y24.9903
G01 X5.0297 Y25.1151
G01 X5.1482 Y25.2012
G01 X5.1582 Y25.2088
G01 X5.1681 Y25.2171
G01 X5.1776 Y25.2260
G01 X5.2075 Y25.2551
G01 X5.2163 Y25.2644
G01 X5.2246 Y25.2742
G01 X5.2370 Y25.2903
G01 X5.2446 Y25.3006
G01 X5.2517 Y25.3113
G01 X5.2583 Y25.3223
G01 X5.2643 Y25.3336
G01 X5.2698 Y25.3452
G01 X5.2747 Y25.3570
G01 X5.3024 Y25.4284
G01 X5.3085 Y25.4475
G01 X5.3132 Y25.4670
G01 X5.3155 Y25.4802
G01 X5.3177 Y25.5002
G01 X5.3184 Y25.5202
G01 X5.3181 Y25.5336
G01 X5.3171 Y25.5469
G01 X5.3143 Y25.5668
G01 X5.2979 Y25.6481
G01 X5.2947 Y25.6606
G01 X5.2910 Y25.6729
G01 X5.2867 Y25.6849
G01 X5.2818 Y25.6968
G01 X5.2763 Y25.7084
G01 X5.2669 Y25.7263
G01 X5.2562 Y25.7438
G01 X5.2483 Y25.7550
G01 X5.2399 Y25.7658
G01 X5.1942 Y25.8186
G01 X5.1798 Y25.8332
G01 X5.1696 Y25.8423
G01 X5.1534 Y25.8550
G01 X5.0297 Y25.9449
G01 X4.9049 Y26.0697
G01 X4.8812 Y26.1024
G01 X4.8693 Y26.1175
G01 X4.8564 Y26.1318
G01 X4.8273 Y26.1616
G01 X4.8131 Y26.1746
G01 X4.8031 Y26.1827
G01 X4.7804 Y26.2001
G01 X4.7700 Y26.2074
G01 X4.7593 Y26.2141
G01 X4.7426 Y26.2233
G01 X4.7311 Y26.2288
G01 X4.6783 Y26.2525
G01 X4.6607 Y26.2596
G01 X4.6426 Y26.2655
G01 X4.6303 Y26.2687
G01 X4.6135 Y26.2722
G01 X4.5949 Y26.2750
G01 X4.5637 Y26.2780
G01 X4.5409 Y26.2790
G01 X4.1487 Y26.2790
G01 X4.0480 Y26.2990
G01 X3.9532 Y26.3383
G01 X3.8679 Y26.3953
G01 X1.5953 Y28.6679
G01 X1.5383 Y28.7532
G01 X1.4990 Y28.8480
G01 X1.4790 Y28.9487
G01 X1.4790 Y50.1463
G01 X1.4990 Y50.2470
G01 X1.5383 Y50.3418
G01 X1.5953 Y50.4271
G01 X6.3014 Y55.1332
G01 X6.3156 Y55.1486
G01 X6.3286 Y55.1651
G01 X6.3512 Y55.1961
G01 X6.3591 Y55.2076
G01 X6.3665 Y55.2195
G01 X6.3732 Y55.2317
G01 X6.9355 Y56.3268
G01 X6.9437 Y56.3442
G01 X6.9484 Y56.3560
G01 X6.9526 Y56.3681
G01 X6.9577 Y56.3866
G01 X6.9741 Y56.4557
G01 X6.9771 Y56.4747
G01 X6.9783 Y56.4874
G01 X6.9789 Y56.5001
G01 X6.9790 Y57.4993
G01 X6.9888 Y57.5867
G01 X7.0276 Y57.6975
G01 X7.0901 Y57.7969
G01 X7.1731 Y57.8799
G01 X7.2725 Y57.9424
G01 X7.3833 Y57.9812
G01 X7.4707 Y57.9910
G01 X8.4293 Y57.9910
G01 X8.5167 Y57.9812
G01 X8.6275 Y57.9424
G01 X8.7269 Y57.8799
G01 X8.8099 Y57.7969
G01 X8.8724 Y57.6975
G01 X8.9112 Y57.5867
G01 X8.9210 Y57.4993
G01 X8.9210 Y54.5907
G01 X8.9112 Y54.5033
G01 X8.8724 Y54.3925
G01 X8.8099 Y54.2931
G01 X8.7269 Y54.2101
G01 X8.6275 Y54.1476
G01 X8.5167 Y54.1088
G01 X8.4293 Y54.0990
G01 X7.4707 Y54.0990
G01 X7.3833 Y54.1088
G01 X7.2725 Y54.1476
G01 X7.2456 Y54.1641
G01 X7.2285 Y54.1730
G01 X7.1846 Y54.1925
G01 X7.1666 Y54.1993
G01 X7.1330 Y54.2090
G01 X7.1143 Y54.2131
G01 X7.1016 Y54.2151
G01 X7.0888 Y54.2165
G01 X7.0696 Y54.2174
G01 X6.9934 Y54.2167
G01 X6.9741 Y54.2158
G01 X6.9550 Y54.2136
G01 X6.9424 Y54.2113
G01 X6.9299 Y54.2085
G01 X6.9176 Y54.2050
G01 X6.9036 Y54.2007
G01 X6.8912 Y54.1963
G01 X6.8731 Y54.1884
G01 X6.8613 Y54.1825
G01 X6.8498 Y54.1760
G01 X6.7983 Y54.1451
G01 X6.7871 Y54.1380
G01 X6.7764 Y54.1304
G01 X6.7609 Y54.1180
G01 X6.7464 Y54.1046
G01 X2.6444 Y50.0024
G01 X2.6358 Y49.9930
G01 X2.6276 Y49.9831
G01 X2.6026 Y49.9497
G01 X2.5916 Y49.9339
G01 X2.5849 Y49.9230
G01 X2.5692 Y49.8943
G01 X2.5630 Y49.8823
G01 X2.5575 Y49.8700
G01 X2.5525 Y49.8575
G01 X2.5463 Y49.8383
G01 X2.5278 Y49.7658
G01 X2.5252 Y49.7526
G01 X2.5224 Y49.7326
G01 X2.5214 Y49.7192
G01 X2.5210 Y49.7057
G01 X2.5210 Y29.3966
G01 X2.5214 Y29.3834
G01 X2.5230 Y29.3645
G01 X2.5298 Y29.3170
G01 X2.5322 Y29.3044
G01 X2.5352 Y29.2919
G01 X2.5464 Y29.2541
G01 X2.5533 Y29.2351
G01 X2.5616 Y29.2167
G01 X2.5712 Y29.1990
G01 X2.6025 Y29.1462
G01 X2.6097 Y29.1348
G01 X2.6174 Y29.1238
G01 X2.6256 Y29.1131
G01 X2.6390 Y29.0980
G01 X4.2727 Y27.4642
G01 X4.2820 Y27.4553
G01 X4.2917 Y27.4469
G01 X4.3017 Y27.4390
G01 X4.3352 Y27.4141
G01 X4.3512 Y27.4035
G01 X4.3623 Y27.3971
G01 X4.3859 Y27.3845
G01 X4.3976 Y27.3792
G01 X4.4095 Y27.3744
G01 X4.4277 Y27.3684
G01 X4.4401 Y27.3651
G01 X4.5212 Y27.3474
G01 X4.5410 Y27.3444
G01 X4.5544 Y27.3432
G01 X4.5677 Y27.3426
G01 X4.5811 Y27.3428
G01 X4.5945 Y27.3435
G01 X4.6144 Y27.3460
G01 X4.6276 Y27.3484
G01 X4.6406 Y27.3515
G01 X4.6534 Y27.3552
G01 X4.6661 Y27.3596
G01 X4.7375 Y27.3863
G01 X4.7551 Y27.3941
G01 X4.7665 Y27.4000
G01 X4.7831 Y27.4098
G01 X4.7937 Y27.4170
G01 X4.8146 Y27.4327
G01 X4.8250 Y27.4413
G01 X4.8349 Y27.4504
G01 X4.8704 Y27.4863
G01 X4.8836 Y27.5016
G01 X4.9049 Y27.5303
G01 X5.0297 Y27.6551
G01 X5.1482 Y27.7412
G01 X5.1632 Y27.7529
G01 X5.1776 Y27.7660
G01 X5.2075 Y27.7951
G01 X5.2163 Y27.8044
G01 X5.2285 Y27.8193
G01 X5.2409 Y27.8354
G01 X5.2482 Y27.8459
G01 X5.2583 Y27.8623
G01 X5.2643 Y27.8736
G01 X5.2698 Y27.8852
G01 X5.2747 Y27.8970
G01 X5.3001 Y27.9621
G01 X5.3046 Y27.9747
G01 X5.3085 Y27.9875
G01 X5.3118 Y28.0005
G01 X5.3144 Y28.0136
G01 X5.3164 Y28.0268
G01 X5.3177 Y28.0402
G01 X5.3184 Y28.0535
G01 X5.3183 Y28.0669
G01 X5.3177 Y28.0803
G01 X5.3163 Y28.0936
G01 X5.3131 Y28.1134
G01 X5.2979 Y28.1881
G01 X5.2929 Y28.2067
G01 X5.2867 Y28.2249
G01 X5.2818 Y28.2368
G01 X5.2763 Y28.2484
G01 X5.2635 Y28.2723
G01 X5.2523 Y28.2895
G01 X5.2399 Y28.3058
G01 X5.1987 Y28.3535
G01 X5.1895 Y28.3636
G01 X5.1798 Y28.3732
G01 X5.1643 Y28.3867
G01 X5.1534 Y28.3950
G01 X5.0297 Y28.4849
G01 X4.9049 Y28.6097
G01 X4.8012 Y28.7524
G01 X4.7211 Y28.9097
G01 X4.6666 Y29.0775
G01 X4.6390 Y29.2518
G01 X4.6390 Y29.4282
G01 X4.6666 Y29.6025
G01 X4.7211 Y29.7703
G01 X4.8012 Y29.9276
G01 X4.9049 Y30.0703
G01 X5.0297 Y30.1951
G01 X5.1482 Y30.2812
G01 X5.1632 Y30.2929
G01 X5.1776 Y30.3060
G01 X5.2119 Y30.3397
G01 X5.2246 Y30.3542
G01 X5.2370 Y30.3703
G01 X5.2482 Y30.3859
G01 X5.2550 Y30.3967
G01 X5.2613 Y30.4079
G01 X5.2671 Y30.4194
G01 X5.2747 Y30.4370
G01 X5.3001 Y30.5021
G01 X5.3046 Y30.5147
G01 X5.3103 Y30.5340
G01 X5.3132 Y30.5470
G01 X5.3155 Y30.5602
G01 X5.3171 Y30.5735
G01 X5.3181 Y30.5868
G01 X5.3183 Y30.6069
G01 X5.3171 Y30.6269
G01 X5.3143 Y30.6468
G01 X5.2992 Y30.7219
G01 X5.2964 Y30.7344
G01 X5.2929 Y30.7467
G01 X5.2867 Y30.7649
G01 X5.2818 Y30.7768
G01 X5.2763 Y30.7884
G01 X5.2635 Y30.8123
G01 X5.2523 Y30.8295
G01 X5.2399 Y30.8458
G01 X5.1987 Y30.8935
G01 X5.1895 Y30.9036
G01 X5.1798 Y30.9132
G01 X5.1643 Y30.9267
G01 X5.1534 Y30.9350
G01 X5.0297 Y31.0249
G01 X4.9049 Y31.1497
G01 X4.8012 Y31.2924
G01 X4.7211 Y31.4497
G01 X4.6666 Y31.6175
G01 X4.6390 Y31.7918
G01 X4.6390 Y31.9682
G01 X4.6666 Y32.1425
G01 X4.7211 Y32.3103
G01 X4.8012 Y32.4676
G01 X4.9049 Y32.6103
G01 X5.0297 Y32.7351
G01 X5.1724 Y32.8388
G01 X5.3297 Y32.9189
G01 X5.4975 Y32.9734
G01 X5.6718 Y33.0010
G01 X5.8482 Y33.0010
G01 X6.0225 Y32.9734
G01 X6.1903 Y32.9189
G01 X6.3476 Y32.8388
G01 X6.4903 Y32.7351
G01 X6.6151 Y32.6103
G01 X6.7188 Y32.4676
G01 X6.7989 Y32.3103
G01 X6.8534 Y32.1425
G01 X6.8810 Y31.9682
G01 X6.8810 Y31.7918
G01 X6.8534 Y31.6175
G01 X6.7989 Y31.4497
G01 X6.7188 Y31.2924
G01 X6.6151 Y31.1497
G01 X6.4903 Y31.0249
G01 X6.3718 Y30.9388
G01 X6.3616 Y30.9310
G01 X6.3470 Y30.9184
G01 X6.3170 Y30.8894
G01 X6.3037 Y30.8755
G01 X6.2954 Y30.8658
G01 X6.2830 Y30.8497
G01 X6.2754 Y30.8394
G01 X6.2683 Y30.8287
G01 X6.2617 Y30.8177
G01 X6.2557 Y30.8064
G01 X6.2376 Y30.7663
G01 X6.2329 Y30.7538
G01 X6.2286 Y30.7401
G01 X6.2176 Y30.7116
G01 X6.2115 Y30.6925
G01 X6.2068 Y30.6729
G01 X6.2045 Y30.6598
G01 X6.2029 Y30.6465
G01 X6.2016 Y30.6265
G01 X6.2017 Y30.6131
G01 X6.2023 Y30.5997
G01 X6.2046 Y30.5798
G01 X6.2069 Y30.5666
G01 X6.2222 Y30.4918
G01 X6.2271 Y30.4733
G01 X6.2333 Y30.4551
G01 X6.2382 Y30.4432
G01 X6.2436 Y30.4316
G01 X6.2565 Y30.4078
G01 X6.2677 Y30.3906
G01 X6.2801 Y30.3742
G01 X6.3213 Y30.3265
G01 X6.3305 Y30.3164
G01 X6.3402 Y30.3068
G01 X6.3504 Y30.2977
G01 X6.3666 Y30.2850
G01 X6.4903 Y30.1951
G01 X6.6151 Y30.0703
G01 X6.7188 Y29.9276
G01 X6.7989 Y29.7703
G01 X6.8534 Y29.6025
G01 X6.8810 Y29.4282
G01 X6.8810 Y29.2518
G01 X6.8534 Y29.0775
G01 X6.7989 Y28.9097
G01 X6.7188 Y28.7524
G01 X6.6151 Y28.6097
G01 X6.4903 Y28.4849
G01 X6.3718 Y28.3988
G01 X6.3566 Y28.3869
G01 X6.3423 Y28.3740
G01 X6.3081 Y28.3403
G01 X6.2954 Y28.3258
G01 X6.2830 Y28.3097
G01 X6.2754 Y28.2994
G01 X6.2683 Y28.2887
G01 X6.2586 Y28.2721
G01 X6.2529 Y28.2606
G01 X6.2453 Y28.2430
G01 X6.2199 Y28.1779
G01 X6.2154 Y28.1653
G01 X6.2115 Y28.1525
G01 X6.2082 Y28.1395
G01 X6.2056 Y28.1264
G01 X6.2036 Y28.1131
G01 X6.2023 Y28.0998
G01 X6.2016 Y28.0865
G01 X6.2019 Y28.0664
G01 X6.2037 Y28.0464
G01 X6.2057 Y28.0332
G01 X6.2208 Y27.9581
G01 X6.2237 Y27.9453
G01 X6.2273 Y27.9326
G01 X6.2338 Y27.9140
G01 X6.2388 Y27.9018
G01 X6.2439 Y27.8911
G01 X6.2565 Y27.8678
G01 X6.2677 Y27.8505
G01 X6.2801 Y27.8342
G01 X6.3213 Y27.7865
G01 X6.3305 Y27.7764
G01 X6.3402 Y27.7668
G01 X6.3504 Y27.7577
G01 X6.3666 Y27.7450
G01 X6.4903 Y27.6551
G01 X6.6151 Y27.5303
G01 X6.7188 Y27.3876
G01 X6.7989 Y27.2303
G01 X6.8534 Y27.0625
G01 X6.8810 Y26.8882
G01 X6.8810 Y26.7118
G01 X6.8534 Y26.5375
G01 X6.8204 Y26.4357
G01 X6.7989 Y26.3697
G01 X6.7188 Y26.2124
G01 X6.6151 Y26.0697
G01 X6.4903 Y25.9449
G01 X6.3718 Y25.8588
G01 X6.3568 Y25.8471
G01 X6.3423 Y25.8340
G01 X6.3081 Y25.8003
G01 X6.2954 Y25.7858
G01 X6.2830 Y25.7698
G01 X6.2754 Y25.7594
G01 X6.2650 Y25.7433
G01 X6.2587 Y25.7321
G01 X6.2529 Y25.7206
G01 X6.2376 Y25.6863
G01 X6.2329 Y25.6738
G01 X6.2286 Y25.6601
G01 X6.2154 Y25.6253
G01 X6.2115 Y25.6125
G01 X6.2082 Y25.5995
G01 X6.2045 Y25.5798
G01 X6.2023 Y25.5598
G01 X6.2016 Y25.5465
G01 X6.2017 Y25.5331
G01 X6.2029 Y25.5130
G01 X6.2057 Y25.4932
G01 X6.2208 Y25.4181
G01 X6.2236 Y25.4056
G01 X6.2271 Y25.3933
G01 X6.2311 Y25.3811
G01 X6.2357 Y25.3691
G01 X6.2436 Y25.3516
G01 X6.2565 Y25.3278
G01 X6.2677 Y25.3106
G01 X6.2801 Y25.2942
G01 X6.3213 Y25.2465
G01 X6.3305 Y25.2364
G01 X6.3402 Y25.2268
G01 X6.3504 Y25.2177
G01 X6.3666 Y25.2050
G01 X6.4903 Y25.1151
G01 X6.6151 Y24.9903
G01 X6.7188 Y24.8476
G01 X6.7989 Y24.6903
G01 X6.8534 Y24.5225
G01 X6.8810 Y24.3482
G01 X6.8810 Y24.1718
G01 X6.8534 Y23.9975
G01 X6.8035 Y23.8437
G01 X6.7989 Y23.8297
G01 X6.7188 Y23.6724
G01 X6.6151 Y23.5297
G01 X6.4903 Y23.4049
G01 X6.3718 Y23.3188
G01 X6.3566 Y23.3069
G01 X6.3424 Y23.2940
G01 X6.3081 Y23.2603
G01 X6.2954 Y23.2458
G01 X6.2830 Y23.2297
G01 X6.2754 Y23.2194
G01 X6.2650 Y23.2032
G01 X6.2586 Y23.1921
G01 X6.2529 Y23.1806
G01 X6.2376 Y23.1463
G01 X6.2329 Y23.1338
G01 X6.2286 Y23.1201
G01 X6.2154 Y23.0853
G01 X6.2097 Y23.0660
G01 X6.2068 Y23.0529
G01 X6.2045 Y23.0398
G01 X6.2023 Y23.0198
G01 X6.2016 Y23.0065
G01 X6.2017 Y22.9931
G01 X6.2029 Y22.9730
G01 X6.2057 Y22.9532
G01 X6.2208 Y22.8781
G01 X6.2236 Y22.8656
G01 X6.2271 Y22.8533
G01 X6.2333 Y22.8351
G01 X6.2382 Y22.8232
G01 X6.2436 Y22.8116
G01 X6.2565 Y22.7878
G01 X6.2638 Y22.7762
G01 X6.2717 Y22.7650
G01 X6.2845 Y22.7490
G01 X6.3213 Y22.7065
G01 X6.3353 Y22.6916
G01 X6.3453 Y22.6822
G01 X6.3557 Y22.6733
G01 X6.3666 Y22.6650
G01 X6.4903 Y22.5751
G01 X6.6151 Y22.4503
G01 X6.7188 Y22.3076
G01 X6.7989 Y22.1503
G01 X6.8534 Y21.9825
G01 X6.8636 Y21.9185
G01 X6.8679 Y21.8989
G01 X6.8715 Y21.8861
G01 X6.8839 Y21.8463
G01 X6.8883 Y21.8342
G01 X6.8932 Y21.8224
G01 X6.9042 Y21.7991
G01 X6.9103 Y21.7878
G01 X6.9203 Y21.7714
G01 X6.9315 Y21.7557
G01 X6.9438 Y21.7409
G01 X6.9903 Y21.6888
G01 X6.9995 Y21.6790
G01 X7.0091 Y21.6697
G01 X7.0244 Y21.6567
G01 X7.0351 Y21.6487
G01 X7.0462 Y21.6412
G01 X7.0576 Y21.6342
G01 X7.0694 Y21.6279
G01 X7.0815 Y21.6221
G01 X7.0938 Y21.6170
G01 X7.1064 Y21.6124
G01 X7.1192 Y21.6085
G01 X7.1930 Y21.5881
G01 X7.2062 Y21.5851
G01 X7.2194 Y21.5828
G01 X7.2328 Y21.5812
G01 X7.2462 Y21.5802
G01 X7.2664 Y21.5801
G01 X7.2799 Y21.5808
G01 X7.2933 Y21.5822
G01 X7.3066 Y21.5842
G01 X7.3263 Y21.5886
G01 X7.4013 Y21.6100
G01 X7.4135 Y21.6141
G01 X7.4256 Y21.6189
G01 X7.4432 Y21.6270
G01 X7.4546 Y21.6332
G01 X7.4681 Y21.6413
G01 X7.4845 Y21.6520
G01 X7.4950 Y21.6598
G01 X7.5237 Y21.6824
G01 X7.5336 Y21.6909
G01 X7.5431 Y21.7000
G01 X8.0411 Y22.1980
G01 X8.0500 Y22.2073
G01 X8.0584 Y22.2169
G01 X8.0663 Y22.2270
G01 X8.0912 Y22.2605
G01 X8.1018 Y22.2765
G01 X8.1240 Y22.3167
G01 X8.1298 Y22.3288
G01 X8.1351 Y22.3412
G01 X8.1397 Y22.3538
G01 X8.1437 Y22.3667
G01 X8.1622 Y22.4392
G01 X8.1648 Y22.4524
G01 X8.1669 Y22.4657
G01 X8.1682 Y22.4791
G01 X8.1689 Y22.4925
G01 X8.1690 Y38.2094
G01 X8.1686 Y38.2227
G01 X8.1669 Y38.2425
G01 X8.1650 Y38.2556
G01 X8.1543 Y38.3096
G01 X8.1514 Y38.3225
G01 X8.1479 Y38.3352
G01 X8.1414 Y38.3540
G01 X7.6478 Y39.5446
G01 X7.6395 Y39.5626
G01 X7.6333 Y39.5743
G01 X7.6265 Y39.5856
G01 X7.5960 Y39.6313
G01 X7.5844 Y39.6474
G01 X7.5716 Y39.6625
G01 X7.5625 Y39.6721
G01 X7.3356 Y39.8990
G01 X7.3606 Y39.9689
G01 X7.3666 Y39.9878
G01 X7.3922 Y40.0894
G01 X7.3963 Y40.1088
G01 X7.4117 Y40.2124
G01 X7.4133 Y40.2256
G01 X7.4143 Y40.2388
G01 X7.4191 Y40.3368
G01 X7.4195 Y40.3500
G01 X7.4191 Y40.3632
G01 X7.4143 Y40.4612
G01 X7.4133 Y40.4744
G01 X7.4117 Y40.4876
G01 X7.3963 Y40.5912
G01 X7.3922 Y40.6106
G01 X7.3666 Y40.7122
G01 X7.3606 Y40.7311
G01 X7.3356 Y40.8010
G01 X7.5884 Y41.0539
G01 X7.6016 Y41.0688
G01 X7.6097 Y41.0792
G01 X7.6184 Y41.0917
G01 X7.6262 Y41.1005
G01 X7.6345 Y41.1108
G01 X7.6422 Y41.1215
G01 X7.6528 Y41.1382
G01 X7.6592 Y41.1498
G01 X7.6640 Y41.1595
G01 X8.1578 Y42.1901
G01 X8.1654 Y42.2089
G01 X8.1795 Y42.2511
G01 X8.1847 Y42.2707
G01 X8.1890 Y42.2920
G01 X8.2275 Y42.3850
G01 X8.2856 Y42.4724
G01 X9.4242 Y43.6111
G01 X9.4376 Y43.6255
G01 X9.4499 Y43.6408
G01 X9.4575 Y43.6515
G01 X9.4842 Y43.6913
G01 X9.4912 Y43.7024
G01 X9.5007 Y43.7195
G01 X9.5089 Y43.7374
G01 X9.8234 Y44.4887
G01 X9.8283 Y44.5012
G01 X9.8325 Y44.5138
G01 X9.8377 Y44.5332
G01 X9.8487 Y44.5876
G01 X9.8519 Y44.6074
G01 X9.8532 Y44.6206
G01 X9.8540 Y44.6407
G01 X9.8540 Y44.8793
G01 X9.8638 Y44.9667
G01 X9.9026 Y45.0775
G01 X9.9651 Y45.1769
G01 X10.0481 Y45.2599
G01 X10.1475 Y45.3224
G01 X10.2583 Y45.3612
G01 X10.3457 Y45.3710
G01 X11.6543 Y45.3710
G01 X11.7417 Y45.3612
G01 X11.8525 Y45.3224
G01 X11.9519 Y45.2599
G01 X12.0349 Y45.1769
G01 X12.0974 Y45.0775
G01 X12.1362 Y44.9667
G01 X12.1460 Y44.8793
G01 X12.1460 Y44.0207
G01 X12.1362 Y43.9333
G01 X12.0974 Y43.8225
G01 X12.0349 Y43.7231
G01 X11.9519 Y43.6401
G01 X11.8525 Y43.5776
G01 X11.7417 Y43.5388
G01 X11.6571 Y43.5293
G01 X11.4441 Y43.5290
G01 X11.4311 Y43.5286
G01 X11.4182 Y43.5277
G01 X11.4053 Y43.5261
G01 X11.3861 Y43.5225
G01 X11.3219 Y43.5067
G01 X11.3030 Y43.5013
G01 X11.2846 Y43.4945
G01 X11.2726 Y43.4893
G01 X11.2609 Y43.4835
G01 X10.2746 Y42.9629
G01 X10.2629 Y42.9563
G01 X10.2459 Y42.9454
G01 X10.2053 Y42.9154
G01 X10.1898 Y42.9024
G01 X10.1800 Y42.8932
G01 X9.5017 Y42.2148
G01 X9.4928 Y42.2055
G01 X9.4804 Y42.1908
G01 X9.4691 Y42.1753
G01 X9.4589 Y42.1590
G01 X9.4222 Y42.0921
G01 X9.4161 Y42.0802
G01 X9.4081 Y42.0618
G01 X9.4014 Y42.0429
G01 X9.3962 Y42.0235
G01 X9.3935 Y42.0104
G01 X9.3914 Y41.9972
G01 X9.3901 Y41.9838
G01 X9.3894 Y41.9705
G01 X9.3893 Y41.9571
G01 X9.3900 Y41.9437
G01 X9.3949 Y41.8740
G01 X9.3972 Y41.8536
G01 X9.3995 Y41.8401
G01 X9.4044 Y41.8201
G01 X9.4084 Y41.8070
G01 X9.4157 Y41.7878
G01 X9.4251 Y41.7666
G01 X9.6463 Y41.3050
G01 X9.6521 Y41.2936
G01 X9.6618 Y41.2770
G01 X9.6727 Y41.2611
G01 X9.6806 Y41.2510
G01 X9.6889 Y41.2413
G01 X9.7402 Y41.1844
G01 X9.7496 Y41.1749
G01 X9.7595 Y41.1659
G01 X9.7698 Y41.1574
G01 X9.7806 Y41.1494
G01 X9.7917 Y41.1419
G01 X9.8032 Y41.1351
G01 X9.8150 Y41.1288
G01 X9.8271 Y41.1230
G01 X9.8457 Y41.1156
G01 X9.8649 Y41.1096
G01 X9.9323 Y41.0912
G01 X9.9518 Y41.0866
G01 X9.9650 Y41.0844
G01 X9.9783 Y41.0828
G01 X9.9916 Y41.0819
G01 X10.0117 Y41.0817
G01 X10.0251 Y41.0825
G01 X10.0384 Y41.0839
G01 X10.0582 Y41.0872
G01 X10.0712 Y41.0903
G01 X10.0841 Y41.0940
G01 X10.1569 Y41.1169
G01 X10.1690 Y41.1214
G01 X10.1809 Y41.1264
G01 X10.1925 Y41.1320
G01 X10.2039 Y41.1381
G01 X10.2203 Y41.1483
G01 X10.2360 Y41.1597
G01 X10.2648 Y41.1834
G01 X10.2793 Y41.1968
G01 X10.4020 Y41.3195
G01 X10.5638 Y41.4371
G01 X10.7421 Y41.5279
G01 X10.9324 Y41.5897
G01 X11.1300 Y41.6210
G01 X11.3300 Y41.6210
G01 X11.5276 Y41.5897
G01 X11.7179 Y41.5279
G01 X11.8962 Y41.4371
G01 X12.0580 Y41.3195
G01 X12.2064 Y41.1711
G01 X12.2165 Y41.1615
G01 X12.2470 Y41.1363
G01 X12.2581 Y41.1278
G01 X12.2695 Y41.1199
G01 X12.2959 Y41.1030
G01 X12.3071 Y41.0968
G01 X12.3186 Y41.0911
G01 X12.3303 Y41.0860
G01 X12.3423 Y41.0814
G01 X12.3545 Y41.0774
G01 X12.4214 Y41.0573
G01 X12.4408 Y41.0522
G01 X12.4540 Y41.0496
G01 X12.4672 Y41.0477
G01 X12.4872 Y41.0461
G01 X12.5073 Y41.0459
G01 X12.5206 Y41.0467
G01 X12.5339 Y41.0481
G01 X12.5537 Y41.0514
G01 X12.5668 Y41.0544
G01 X12.6404 Y41.0754
G01 X12.6587 Y41.0813
G01 X12.6765 Y41.0886
G01 X12.6938 Y41.0971
G01 X12.7049 Y41.1034
G01 X12.7247 Y41.1158
G01 X12.7395 Y41.1259
G01 X12.7490 Y41.1331
G01 X12.7750 Y41.1540
G01 X12.7883 Y41.1660
G01 X12.9420 Y41.3195
G01 X13.1038 Y41.4371
G01 X13.2821 Y41.5279
G01 X13.4724 Y41.5897
G01 X13.6700 Y41.6210
G01 X13.8700 Y41.6210
G01 X14.0676 Y41.5897
G01 X14.2579 Y41.5279
G01 X14.4362 Y41.4371
G01 X14.5980 Y41.3195
G01 X14.7464 Y41.1711
G01 X14.7565 Y41.1615
G01 X14.7870 Y41.1363
G01 X14.7981 Y41.1278
G01 X14.8095 Y41.1199
G01 X14.8359 Y41.1030
G01 X14.8471 Y41.0968
G01 X14.8586 Y41.0911
G01 X14.8703 Y41.0860
G01 X14.8823 Y41.0814
G01 X14.8945 Y41.0774
G01 X14.9614 Y41.0573
G01 X14.9743 Y41.0537
G01 X14.9874 Y41.0508
G01 X15.0006 Y41.0486
G01 X15.0205 Y41.0465
G01 X15.0406 Y41.0458
G01 X15.0606 Y41.0467
G01 X15.0806 Y41.0490
G01 X15.1003 Y41.0528
G01 X15.1132 Y41.0562
G01 X15.1866 Y41.0772
G01 X15.2047 Y41.0836
G01 X15.2165 Y41.0886
G01 X15.2338 Y41.0971
G01 X15.2504 Y41.1068
G01 X15.2697 Y41.1191
G01 X15.2843 Y41.1295
G01 X15.3104 Y41.1503
G01 X15.3240 Y41.1619
G01 X15.4820 Y41.3195
G01 X15.6438 Y41.4371
G01 X15.8221 Y41.5279
G01 X16.0124 Y41.5897
G01 X16.2100 Y41.6210
G01 X16.4100 Y41.6210
G01 X16.6076 Y41.5897
G01 X16.7979 Y41.5279
G01 X16.9762 Y41.4371
G01 X17.1380 Y41.3195
G01 X17.2864 Y41.1711
G01 X17.2965 Y41.1615
G01 X17.3270 Y41.1363
G01 X17.3381 Y41.1278
G01 X17.3495 Y41.1199
G01 X17.3704 Y41.1064
G01 X17.3814 Y41.0999
G01 X17.3928 Y41.0939
G01 X17.4044 Y41.0885
G01 X17.4163 Y41.0836
G01 X17.4345 Y41.0774
G01 X17.5078 Y41.0554
G01 X17.5274 Y41.0508
G01 X17.5472 Y41.0477
G01 X17.5605 Y41.0465
G01 X17.5739 Y41.0459
G01 X17.5940 Y41.0462
G01 X17.6139 Y41.0481
G01 X17.6272 Y41.0501
G01 X17.6403 Y41.0528
G01 X17.6532 Y41.0562
G01 X17.7266 Y41.0772
G01 X17.7387 Y41.0813
G01 X17.7565 Y41.0886
G01 X17.7738 Y41.0971
G01 X17.7904 Y41.1068
G01 X17.8097 Y41.1191
G01 X17.8243 Y41.1295
G01 X17.8504 Y41.1503
G01 X17.8640 Y41.1619
G01 X18.0220 Y41.3195
G01 X18.1838 Y41.4371
G01 X18.3621 Y41.5279
G01 X18.5524 Y41.5897
G01 X18.7500 Y41.6210
G01 X18.9500 Y41.6210
G01 X19.1476 Y41.5897
G01 X19.3379 Y41.5279
G01 X19.5162 Y41.4371
G01 X19.6780 Y41.3195
G01 X19.8264 Y41.1711
G01 X19.8365 Y41.1615
G01 X19.8670 Y41.1363
G01 X19.8781 Y41.1278
G01 X19.8895 Y41.1199
G01 X19.9104 Y41.1064
G01 X19.9214 Y41.0999
G01 X19.9328 Y41.0939
G01 X19.9444 Y41.0885
G01 X19.9563 Y41.0836
G01 X19.9745 Y41.0774
G01 X20.0478 Y41.0554
G01 X20.0674 Y41.0508
G01 X20.0806 Y41.0486
G01 X20.0939 Y41.0470
G01 X20.1139 Y41.0459
G01 X20.1340 Y41.0462
G01 X20.1473 Y41.0473
G01 X20.1606 Y41.0490
G01 X20.1803 Y41.0528
G01 X20.1932 Y41.0562
G01 X20.2666 Y41.0772
G01 X20.2847 Y41.0836
G01 X20.3023 Y41.0913
G01 X20.3138 Y41.0971
G01 X20.3304 Y41.1068
G01 X20.3497 Y41.1191
G01 X20.3643 Y41.1295
G01 X20.3904 Y41.1503
G01 X20.4040 Y41.1619
G01 X20.5620 Y41.3195
G01 X20.7238 Y41.4371
G01 X20.9021 Y41.5279
G01 X21.0924 Y41.5897
G01 X21.2900 Y41.6210
G01 X21.4900 Y41.6210
G01 X21.6876 Y41.5897
G01 X21.8779 Y41.5279
G01 X22.0562 Y41.4371
G01 X22.2180 Y41.3195
G01 X22.3595 Y41.1780
G01 X22.3958 Y41.1280
G01 X22.4077 Y41.1129
G01 X22.4206 Y41.0986
G01 X22.4497 Y41.0687
G01 X22.4591 Y41.0600
G01 X22.4689 Y41.0517
G01 X22.4895 Y41.0357
G01 X22.5006 Y41.0276
G01 X22.5180 Y41.0165
G01 X22.5300 Y41.0098
G01 X22.5408 Y41.0045
G01 X22.7444 Y40.8010
G01 X22.7194 Y40.7311
G01 X22.7134 Y40.7122
G01 X22.6878 Y40.6106
G01 X22.6837 Y40.5912
G01 X22.6683 Y40.4876
G01 X22.6667 Y40.4744
G01 X22.6657 Y40.4612
G01 X22.6609 Y40.3632
G01 X22.6605 Y40.3500
G01 X22.6609 Y40.3368
G01 X22.6657 Y40.2388
G01 X22.6667 Y40.2256
G01 X22.6683 Y40.2124
G01 X22.6837 Y40.1088
G01 X22.6878 Y40.0894
G01 X22.7134 Y39.9878
G01 X22.7194 Y39.9689
G01 X22.7444 Y39.8990
G01 X22.5465 Y39.7012
G01 X22.5363 Y39.6956
G01 X22.5247 Y39.6885
G01 X22.4845 Y39.6620
G01 X22.4743 Y39.6543
G01 X22.4644 Y39.6461
G01 X22.4531 Y39.6362
G01 X22.4444 Y39.6278
G01 X22.4172 Y39.5986
G01 X22.4054 Y39.5847
G01 X22.3595 Y39.5220
G01 X22.2180 Y39.3805
G01 X22.0562 Y39.2629
G01 X21.8779 Y39.1721
G01 X21.6876 Y39.1103
G01 X21.4900 Y39.0790
G01 X21.2900 Y39.0790
G01 X21.0924 Y39.1103
G01 X20.9021 Y39.1721
G01 X20.7238 Y39.2629
G01 X20.5620 Y39.3805
G01 X20.4136 Y39.5289
G01 X20.4035 Y39.5385
G01 X20.3929 Y39.5476
G01 X20.3619 Y39.5722
G01 X20.3350 Y39.5902
G01 X20.3186 Y39.6001
G01 X20.3014 Y39.6089
G01 X20.2897 Y39.6140
G01 X20.2777 Y39.6186
G01 X20.2655 Y39.6226
G01 X20.1922 Y39.6446
G01 X20.1726 Y39.6492
G01 X20.1528 Y39.6523
G01 X20.1328 Y39.6539
G01 X20.1127 Y39.6541
G01 X20.0994 Y39.6533
G01 X20.0861 Y39.6519
G01 X20.0728 Y39.6499
G01 X20.0597 Y39.6472
G01 X20.0468 Y39.6438
G01 X19.9735 Y39.6228
G01 X19.9613 Y39.6187
G01 X19.9435 Y39.6114
G01 X19.9262 Y39.6029
G01 X19.9096 Y39.5932
G01 X19.8903 Y39.5809
G01 X19.8757 Y39.5705
G01 X19.8496 Y39.5497
G01 X19.8360 Y39.5381
G01 X19.6780 Y39.3805
G01 X19.5162 Y39.2629
G01 X19.3379 Y39.1721
G01 X19.1476 Y39.1103
G01 X18.9500 Y39.0790
G01 X18.7500 Y39.0790
G01 X18.5524 Y39.1103
G01 X18.3621 Y39.1721
G01 X18.1838 Y39.2629
G01 X18.0220 Y39.3805
G01 X17.9121 Y39.4903
G01 X17.9026 Y39.4989
G01 X17.8876 Y39.5110
G01 X17.8718 Y39.5220
G01 X17.8553 Y39.5318
G01 X17.7880 Y39.5684
G01 X17.7698 Y39.5769
G01 X17.7574 Y39.5818
G01 X17.7447 Y39.5861
G01 X17.7253 Y39.5913
G01 X17.7122 Y39.5940
G01 X17.6990 Y39.5960
G01 X17.6790 Y39.5979
G01 X17.6656 Y39.5982
G01 X17.6456 Y39.5975
G01 X17.5692 Y39.5920
G01 X17.5493 Y39.5893
G01 X17.5362 Y39.5867
G01 X17.5232 Y39.5835
G01 X17.5041 Y39.5774
G01 X17.4855 Y39.5699
G01 X17.4674 Y39.5611
G01 X17.4558 Y39.5544
G01 X17.4390 Y39.5434
G01 X17.3725 Y39.4937
G01 X17.3577 Y39.4811
G01 X17.3483 Y39.4721
G01 X17.3393 Y39.4626
G01 X17.3267 Y39.4477
G01 X17.3153 Y39.4319
G01 X17.3083 Y39.4209
G01 X17.2865 Y39.3826
G01 X17.2805 Y39.3706
G01 X17.2750 Y39.3583
G01 X16.8611 Y38.3602
G01 X16.8541 Y38.3416
G01 X16.8486 Y38.3225
G01 X16.8457 Y38.3096
G01 X16.8350 Y38.2556
G01 X16.8323 Y38.2359
G01 X16.8314 Y38.2227
G01 X16.8310 Y38.2094
G01 X16.8310 Y25.0866
G01 X16.8314 Y25.0734
G01 X16.8330 Y25.0545
G01 X16.8398 Y25.0070
G01 X16.8422 Y24.9944
G01 X16.8452 Y24.9819
G01 X16.8564 Y24.9441
G01 X16.8633 Y24.9251
G01 X16.8716 Y24.9067
G01 X16.8812 Y24.8890
G01 X16.9125 Y24.8362
G01 X16.9197 Y24.8248
G01 X16.9314 Y24.8084
G01 X16.9400 Y24.7980
G01 X16.9490 Y24.7880
G01 X19.3680 Y22.3689
G01 X19.3773 Y22.3600
G01 X19.3919 Y22.3476
G01 X19.4253 Y22.3226
G01 X19.4357 Y22.3151
G01 X19.4520 Y22.3049
G01 X19.4719 Y22.2937
G01 X19.4833 Y22.2878
G01 X19.4950 Y22.2825
G01 X19.5069 Y22.2777
G01 X19.5190 Y22.2735
G01 X19.5922 Y22.2520
G01 X19.6108 Y22.2472
G01 X19.6297 Y22.2438
G01 X19.6489 Y22.2417
G01 X19.6617 Y22.2411
G01 X19.7759 Y22.2410
G01 X19.7945 Y22.2418
G01 X19.8129 Y22.2438
G01 X19.8605 Y22.2509
G01 X19.8793 Y22.2552
G01 X19.9189 Y22.2671
G01 X19.9367 Y22.2740
G01 X19.9539 Y22.2821
G01 X20.0152 Y22.3169
G01 X20.0261 Y22.3235
G01 X20.0366 Y22.3306
G01 X20.0518 Y22.3421
G01 X20.0661 Y22.3547
G01 X20.0782 Y22.3666
G01 X20.0934 Y22.3832
G01 X20.1082 Y22.4005
G01 X20.1175 Y22.4126
G01 X20.1449 Y22.4503
G01 X20.2697 Y22.5751
G01 X20.3882 Y22.6612
G01 X20.3982 Y22.6688
G01 X20.4129 Y22.6815
G01 X20.4429 Y22.7105
G01 X20.4563 Y22.7244
G01 X20.4646 Y22.7342
G01 X20.4809 Y22.7554
G01 X20.4882 Y22.7659
G01 X20.4950 Y22.7767
G01 X20.5013 Y22.7879
G01 X20.5071 Y22.7994
G01 X20.5147 Y22.8170
G01 X20.5424 Y22.8884
G01 X20.5485 Y22.9075
G01 X20.5532 Y22.9270
G01 X20.5555 Y22.9402
G01 X20.5571 Y22.9535
G01 X20.5581 Y22.9668
G01 X20.5584 Y22.9802
G01 X20.5581 Y22.9936
G01 X20.5571 Y23.0069
G01 X20.5554 Y23.0202
G01 X20.5531 Y23.0334
G01 X20.5392 Y23.1019
G01 X20.5347 Y23.1206
G01 X20.5310 Y23.1329
G01 X20.5267 Y23.1449
G01 X20.5218 Y23.1568
G01 X20.5163 Y23.1684
G01 X20.5035 Y23.1923
G01 X20.4962 Y23.2038
G01 X20.4883 Y23.2150
G01 X20.4755 Y23.2310
G01 X20.4387 Y23.2735
G01 X20.4295 Y23.2836
G01 X20.4147 Y23.2978
G01 X20.4043 Y23.3067
G01 X20.3934 Y23.3150
G01 X20.2697 Y23.4049
G01 X20.1449 Y23.5297
G01 X20.0412 Y23.6724
G01 X19.9611 Y23.8297
G01 X19.9066 Y23.9975
G01 X19.8790 Y24.1718
G01 X19.8790 Y24.3482
G01 X19.9066 Y24.5225
G01 X19.9611 Y24.6903
G01 X20.0412 Y24.8476
G01 X20.1449 Y24.9903
G01 X20.2697 Y25.1151
G01 X20.3882 Y25.2012
G01 X20.4032 Y25.2129
G01 X20.4129 Y25.2215
G01 X20.4429 Y25.2505
G01 X20.4519 Y25.2597
G01 X20.4646 Y25.2742
G01 X20.4809 Y25.2954
G01 X20.4882 Y25.3059
G01 X20.4950 Y25.3167
G01 X20.5013 Y25.3279
G01 X20.5071 Y25.3394
G01 X20.5147 Y25.3570
G01 X20.5424 Y25.4284
G01 X20.5485 Y25.4475
G01 X20.5532 Y25.4670
G01 X20.5564 Y25.4868
G01 X20.5577 Y25.5002
G01 X20.5584 Y25.5135
G01 X20.5581 Y25.5336
G01 X20.5571 Y25.5469
G01 X20.5554 Y25.5602
G01 X20.5531 Y25.5734
G01 X20.5392 Y25.6419
G01 X20.5347 Y25.6606
G01 X20.5310 Y25.6729
G01 X20.5267 Y25.6849
G01 X20.5218 Y25.6968
G01 X20.5163 Y25.7084
G01 X20.5035 Y25.7323
G01 X20.4962 Y25.7438
G01 X20.4883 Y25.7550
G01 X20.4755 Y25.7710
G01 X20.4387 Y25.8135
G01 X20.4295 Y25.8236
G01 X20.4147 Y25.8378
G01 X20.4043 Y25.8467
G01 X20.3934 Y25.8550
G01 X20.2697 Y25.9449
G01 X20.1449 Y26.0697
G01 X20.0412 Y26.2124
G01 X19.9611 Y26.3697
G01 X19.9066 Y26.5375
G01 X19.8790 Y26.7118
G01 X19.8790 Y26.8882
G01 X19.9066 Y27.0625
G01 X19.9611 Y27.2303
G01 X20.0412 Y27.3876
G01 X20.1449 Y27.5303
G01 X20.2697 Y27.6551
G01 X20.3882 Y27.7412
G01 X20.4032 Y27.7529
G01 X20.4129 Y27.7615
G01 X20.4429 Y27.7905
G01 X20.4519 Y27.7997
G01 X20.4646 Y27.8142
G01 X20.4809 Y27.8354
G01 X20.4882 Y27.8459
G01 X20.4950 Y27.8567
G01 X20.5013 Y27.8679
G01 X20.5071 Y27.8794
G01 X20.5147 Y27.8970
G01 X20.5424 Y27.9684
G01 X20.5467 Y27.9811
G01 X20.5503 Y27.9940
G01 X20.5544 Y28.0136
G01 X20.5571 Y28.0335
G01 X20.5584 Y28.0535
G01 X20.5581 Y28.0736
G01 X20.5571 Y28.0869
G01 X20.5554 Y28.1002
G01 X20.5531 Y28.1134
G01 X20.5392 Y28.1819
G01 X20.5347 Y28.2006
G01 X20.5310 Y28.2129
G01 X20.5267 Y28.2249
G01 X20.5218 Y28.2368
G01 X20.5163 Y28.2484
G01 X20.5035 Y28.2723
G01 X20.4962 Y28.2838
G01 X20.4883 Y28.2950
G01 X20.4755 Y28.3110
G01 X20.4387 Y28.3535
G01 X20.4295 Y28.3636
G01 X20.4147 Y28.3778
G01 X20.4043 Y28.3867
G01 X20.3934 Y28.3950
G01 X20.2697 Y28.4849
G01 X20.1449 Y28.6097
G01 X20.0412 Y28.7524
G01 X19.9611 Y28.9097
G01 X19.9066 Y29.0775
G01 X19.8790 Y29.2518
G01 X19.8790 Y29.4282
G01 X19.9066 Y29.6025
G01 X19.9611 Y29.7703
G01 X20.0412 Y29.9276
G01 X20.1449 Y30.0703
G01 X20.2697 Y30.1951
G01 X20.3882 Y30.2812
G01 X20.4032 Y30.2929
G01 X20.4129 Y30.3015
G01 X20.4429 Y30.3305
G01 X20.4519 Y30.3397
G01 X20.4646 Y30.3542
G01 X20.4809 Y30.3754
G01 X20.4882 Y30.3859
G01 X20.4950 Y30.3967
G01 X20.5013 Y30.4079
G01 X20.5071 Y30.4194
G01 X20.5147 Y30.4370
G01 X20.5424 Y30.5084
G01 X20.5485 Y30.5275
G01 X20.5532 Y30.5470
G01 X20.5564 Y30.5668
G01 X20.5581 Y30.5868
G01 X20.5584 Y30.6002
G01 X20.5581 Y30.6136
G01 X20.5571 Y30.6269
G01 X20.5554 Y30.6402
G01 X20.5531 Y30.6534
G01 X20.5392 Y30.7219
G01 X20.5364 Y30.7344
G01 X20.5329 Y30.7467
G01 X20.5289 Y30.7589
G01 X20.5218 Y30.7768
G01 X20.5163 Y30.7884
G01 X20.5102 Y30.8003
G01 X20.4999 Y30.8181
G01 X20.4923 Y30.8295
G01 X20.4799 Y30.8458
G01 X20.4342 Y30.8986
G01 X20.4198 Y30.9132
G01 X20.4096 Y30.9223
G01 X20.3934 Y30.9350
G01 X20.2697 Y31.0249
G01 X20.1449 Y31.1497
G01 X20.0412 Y31.2924
G01 X19.9611 Y31.4497
G01 X19.9066 Y31.6175
G01 X19.8790 Y31.7918
G01 X19.8790 Y31.9682
G01 X19.9066 Y32.1425
G01 X19.9611 Y32.3103
G01 X20.0412 Y32.4676
G01 X20.1449 Y32.6103
G01 X20.2697 Y32.7351
G01 X20.4124 Y32.8388
G01 X20.5697 Y32.9189
G01 X20.7375 Y32.9734
G01 X20.9118 Y33.0010
G01 X21.0882 Y33.0010
G01 X21.1281 Y32.9947
G01 X21.1472 Y32.9924
G01 X21.1600 Y32.9916
G01 X21.2017 Y32.9909
G01 X21.2209 Y32.9913
G01 X21.2337 Y32.9924
G01 X21.2747 Y32.9979
G01 X21.2933 Y33.0019
G01 X21.3116 Y33.0072
G01 X21.3236 Y33.0114
G01 X21.3894 Y33.0368
G01 X21.4066 Y33.0451
G01 X21.4232 Y33.0545
G01 X21.4375 Y33.0639
G01 X21.4526 Y33.0750
G01 X21.4768 Y33.0950
G01 X21.4936 Y33.1105
G01 X23.7878 Y35.4047
G01 X23.8732 Y35.4617
G01 X23.9672 Y35.5007
G01 X24.0687 Y35.5210
G01 X26.3456 Y35.5210
G01 X26.3648 Y35.5217
G01 X26.3839 Y35.5238
G01 X26.4029 Y35.5272
G01 X26.4153 Y35.5302
G01 X26.4885 Y35.5516
G01 X26.5016 Y35.5558
G01 X26.5208 Y35.5634
G01 X26.5393 Y35.5724
G01 X26.5584 Y35.5835
G01 X26.8036 Y35.7413
G01 X26.8141 Y35.7487
G01 X26.8290 Y35.7608
G01 X26.8431 Y35.7739
G01 X26.8520 Y35.7832
G01 X26.9063 Y35.8459
G01 X26.9186 Y35.8620
G01 X26.9260 Y35.8732
G01 X26.9362 Y35.8907
G01 X26.9422 Y35.9027
G01 X26.9501 Y35.9213
G01 X26.9566 Y35.9404
G01 X26.9616 Y35.9600
G01 X26.9728 Y36.0115
G01 X26.9752 Y36.0241
G01 X26.9777 Y36.0431
G01 X26.9787 Y36.0559
G01 X26.9790 Y36.0687
G01 X26.9790 Y36.4543
G01 X26.9888 Y36.5417
G01 X27.0276 Y36.6525
G01 X27.0901 Y36.7519
G01 X27.1731 Y36.8349
G01 X27.2725 Y36.8974
G01 X27.3833 Y36.9362
G01 X27.4707 Y36.9460
G01 X28.4293 Y36.9460
G01 X28.5167 Y36.9362
G01 X28.6275 Y36.8974
G01 X28.7269 Y36.8349
G01 X28.7947 Y36.7672
G01 X28.8037 Y36.7586
G01 X28.8135 Y36.7500
G01 X28.8237 Y36.7420
G01 X28.8624 Y36.7134
G01 X28.8787 Y36.7032
G01 X28.9057 Y36.6888
G01 X28.9173 Y36.6835
G01 X28.9292 Y36.6787
G01 X28.9413 Y36.6745
G01 X28.9537 Y36.6709
G01 X28.9661 Y36.6679
G01 X29.0344 Y36.6530
G01 X29.0541 Y36.6495
G01 X29.0674 Y36.6479
G01 X29.0808 Y36.6471
G01 X29.1009 Y36.6470
G01 X29.1142 Y36.6478
G01 X29.1275 Y36.6492
G01 X29.1473 Y36.6526
G01 X29.1603 Y36.6557
G01 X29.1795 Y36.6616
G01 X29.2513 Y36.6882
G01 X29.2698 Y36.6960
G01 X29.2818 Y36.7019
G01 X29.2935 Y36.7083
G01 X29.3105 Y36.7191
G01 X29.3265 Y36.7312
G01 X29.3367 Y36.7398
G01 X29.3465 Y36.7490
G01 X29.3558 Y36.7586
G01 X29.3646 Y36.7687
G01 X29.3728 Y36.7792
G01 X29.4147 Y36.8352
G01 X29.4265 Y36.8522
G01 X29.4335 Y36.8640
G01 X29.4400 Y36.8761
G01 X29.4489 Y36.8958
G01 X29.4586 Y36.9227
G01 X29.4624 Y36.9359
G01 X29.4656 Y36.9493
G01 X29.4747 Y36.9993
G01 X29.4768 Y37.0129
G01 X29.4786 Y37.0334
G01 X29.4790 Y37.0472
G01 X29.4789 Y52.0132
G01 X29.4783 Y52.0260
G01 X29.4771 Y52.0387
G01 X29.4702 Y52.0864
G01 X29.4663 Y52.1052
G01 X29.4598 Y52.1284
G01 X29.4538 Y52.1467
G01 X29.4464 Y52.1645
G01 X29.4386 Y52.1802
G01 X29.4338 Y52.1920
G01 X29.4281 Y52.2042
G01 X29.4219 Y52.2160
G01 X29.4151 Y52.2275
G01 X29.4038 Y52.2441
G01 X29.3914 Y52.2598
G01 X29.3783 Y52.2740
G01 X29.3704 Y52.2839
G01 X29.3616 Y52.2940
G01 X29.3523 Y52.3036
G01 X29.3425 Y52.3127
G01 X29.3270 Y52.3255
G01 X29.3162 Y52.3334
G01 X29.3050 Y52.3407
G01 X29.2940 Y52.3470
G01 X29.2781 Y52.3580
G01 X29.2607 Y52.3681
G01 X29.2427 Y52.3769
G01 X29.2303 Y52.3820
G01 X29.2177 Y52.3865
G01 X29.2049 Y52.3903
G01 X29.1927 Y52.3934
G01 X29.1807 Y52.3974
G01 X29.1678 Y52.4011
G01 X29.1482 Y52.4054
G01 X29.1284 Y52.4083
G01 X29.1083 Y52.4097
G01 X29.0950 Y52.4098
G01 X29.0823 Y52.4092
G01 X29.0624 Y52.4098
G01 X29.0488 Y52.4093
G01 X29.0353 Y52.4082
G01 X29.0218 Y52.4064
G01 X29.0019 Y52.4024
G01 X28.9887 Y52.3989
G01 X28.9440 Y52.3855
G01 X28.9251 Y52.3782
G01 X28.9025 Y52.3677
G01 X28.8858 Y52.3583
G01 X28.8750 Y52.3514
G01 X28.8653 Y52.3446
G01 X28.8799 Y52.3762
G01 X28.8929 Y52.4116
G01 X28.8989 Y52.4306
G01 X28.9066 Y52.4608
G01 X28.9107 Y52.4802
G01 X28.9162 Y52.5175
G01 X28.9175 Y52.5307
G01 X28.9194 Y52.5684
G01 X28.9195 Y55.4250
G01 X28.9191 Y55.4382
G01 X28.9170 Y55.4759
G01 X28.9117 Y55.5133
G01 X28.9081 Y55.5328
G01 X28.8989 Y55.5694
G01 X28.8929 Y55.5884
G01 X28.8799 Y55.6238
G01 X28.8652 Y55.6558
G01 X28.8781 Y55.6478
G01 X28.8894 Y55.6417
G01 X28.9009 Y55.6362
G01 X28.9127 Y55.6312
G01 X28.9468 Y55.6188
G01 X28.9924 Y55.6036
G01 X29.0114 Y55.5979
G01 X29.0308 Y55.5937
G01 X29.0505 Y55.5910
G01 X29.0637 Y55.5899
G01 X29.0769 Y55.5895
G01 X29.0902 Y55.5898
G01 X29.1100 Y55.5914
G01 X29.1231 Y55.5933
G01 X29.1599 Y55.6004
G01 X29.1729 Y55.6036
G01 X29.1905 Y55.6091
G01 X29.2168 Y55.6157
G01 X29.2297 Y55.6195
G01 X29.2423 Y55.6240
G01 X29.2547 Y55.6291
G01 X29.2727 Y55.6379
G01 X29.2901 Y55.6480
G01 X29.3066 Y55.6593
G01 X29.3370 Y55.6839
G01 X29.3520 Y55.6972
G01 X29.3614 Y55.7067
G01 X29.3704 Y55.7167
G01 X29.3788 Y55.7270
G01 X29.3871 Y55.7383
G01 X29.4024 Y55.7555
G01 X29.4140 Y55.7708
G01 X29.4246 Y55.7869
G01 X29.4340 Y55.8037
G01 X29.4439 Y55.8246
G01 X29.4563 Y55.8552
G01 X29.4626 Y55.8743
G01 X29.4675 Y55.8937
G01 X29.4700 Y55.9069
G01 X29.4726 Y55.9284
G01 X29.4753 Y55.9421
G01 X29.4771 Y55.9547
G01 X29.4787 Y55.9737
G01 X29.4790 Y55.9865
G01 X29.4790 Y67.6034
G01 X29.4787 Y67.6162
G01 X29.4777 Y67.6290
G01 X29.4762 Y67.6417
G01 X29.4702 Y67.6830
G01 X29.4678 Y67.6956
G01 X29.4648 Y67.7080
G01 X29.4556 Y67.7395
G01 X29.4515 Y67.7523
G01 X29.4467 Y67.7649
G01 X29.4414 Y67.7772
G01 X29.4322 Y67.7952
G01 X29.3940 Y67.8595
G01 X29.3826 Y67.8762
G01 X29.3744 Y67.8869
G01 X29.3656 Y67.8971
G01 X29.3563 Y67.9068
G01 X27.9120 Y69.3511
G01 X27.8979 Y69.3642
G01 X27.8880 Y69.3724
G01 X27.8495 Y69.4012
G01 X27.8389 Y69.4084
G01 X27.8280 Y69.4151
G01 X27.7933 Y69.4340
G01 X27.7750 Y69.4425
G01 X27.7625 Y69.4475
G01 X27.7497 Y69.4518
G01 X27.7368 Y69.4554
G01 X27.6774 Y69.4706
G01 X27.6576 Y69.4748
G01 X27.6443 Y69.4769
G01 X27.6309 Y69.4782
G01 X27.6107 Y69.4790
G01 X15.3966 Y69.4790
G01 X15.3838 Y69.4787
G01 X15.3710 Y69.4777
G01 X15.3583 Y69.4762
G01 X15.3170 Y69.4702
G01 X15.3044 Y69.4678
G01 X15.2920 Y69.4648
G01 X15.2605 Y69.4556
G01 X15.2414 Y69.4492
G01 X15.2228 Y69.4414
G01 X15.2107 Y69.4354
G01 X15.1990 Y69.4288
G01 X15.1405 Y69.3940
G01 X15.1292 Y69.3866
G01 X15.1131 Y69.3744
G01 X15.1029 Y69.3656
G01 X15.0932 Y69.3563
G01 X14.4189 Y68.6820
G01 X14.4100 Y68.6727
G01 X14.3976 Y68.6581
G01 X14.3688 Y68.6195
G01 X14.3582 Y68.6035
G01 X14.3360 Y68.5633
G01 X14.3275 Y68.5450
G01 X14.3203 Y68.5262
G01 X14.3163 Y68.5133
G01 X14.2994 Y68.4474
G01 X14.2952 Y68.4276
G01 X14.2924 Y68.4076
G01 X14.2914 Y68.3942
G01 X14.2910 Y68.3807
G01 X14.2911 Y67.7839
G01 X14.2923 Y67.7641
G01 X14.2950 Y67.7444
G01 X14.3057 Y67.6904
G01 X14.3103 Y67.6711
G01 X14.3141 Y67.6584
G01 X14.3211 Y67.6398
G01 X14.7350 Y66.6417
G01 X14.7430 Y66.6242
G01 X14.7490 Y66.6129
G01 X14.7590 Y66.5964
G01 X14.7702 Y66.5808
G01 X14.8223 Y66.5162
G01 X14.8312 Y66.5062
G01 X14.8406 Y66.4967
G01 X14.8555 Y66.4833
G01 X14.8660 Y66.4750
G01 X14.8769 Y66.4672
G01 X14.8940 Y66.4566
G01 X14.9118 Y66.4473
G01 X14.9240 Y66.4418
G01 X14.9428 Y66.4348
G01 X15.0155 Y66.4107
G01 X15.0284 Y66.4072
G01 X15.0414 Y66.4042
G01 X15.0546 Y66.4019
G01 X15.0679 Y66.4003
G01 X15.0812 Y66.3993
G01 X15.0946 Y66.3990
G01 X15.1147 Y66.3998
G01 X15.1280 Y66.4012
G01 X15.1412 Y66.4032
G01 X15.1543 Y66.4058
G01 X15.2348 Y66.4264
G01 X15.2472 Y66.4302
G01 X15.2595 Y66.4347
G01 X15.2715 Y66.4397
G01 X15.2832 Y66.4452
G01 X15.3003 Y66.4547
G01 X15.3167 Y66.4653
G01 X15.3515 Y66.4920
G01 X15.3619 Y66.5005
G01 X15.3767 Y66.5142
G01 X15.4820 Y66.6195
G01 X15.6438 Y66.7371
G01 X15.8221 Y66.8279
G01 X16.0124 Y66.8897
G01 X16.2100 Y66.9210
G01 X16.4100 Y66.9210
G01 X16.6076 Y66.8897
G01 X16.7979 Y66.8279
G01 X16.9762 Y66.7371
G01 X17.1380 Y66.6195
G01 X17.2864 Y66.4711
G01 X17.2965 Y66.4615
G01 X17.3270 Y66.4363
G01 X17.3381 Y66.4278
G01 X17.3495 Y66.4199
G01 X17.3759 Y66.4030
G01 X17.3871 Y66.3968
G01 X17.3986 Y66.3911
G01 X17.4103 Y66.3860
G01 X17.4223 Y66.3814
G01 X17.4345 Y66.3774
G01 X17.5014 Y66.3573
G01 X17.5208 Y66.3522
G01 X17.5406 Y66.3486
G01 X17.5539 Y66.3470
G01 X17.5672 Y66.3461
G01 X17.5806 Y66.3458
G01 X17.5940 Y66.3462
G01 X17.6139 Y66.3481
G01 X17.6272 Y66.3501
G01 X17.6468 Y66.3544
G01 X17.7204 Y66.3754
G01 X17.7387 Y66.3813
G01 X17.7565 Y66.3886
G01 X17.7738 Y66.3971
G01 X17.7849 Y66.4034
G01 X17.8047 Y66.4158
G01 X17.8147 Y66.4224
G01 X17.8290 Y66.4331
G01 X17.8550 Y66.4540
G01 X17.8683 Y66.4660
G01 X18.0220 Y66.6195
G01 X18.1838 Y66.7371
G01 X18.3621 Y66.8279
G01 X18.5524 Y66.8897
G01 X18.7500 Y66.9210
G01 X18.9500 Y66.9210
G01 X19.1476 Y66.8897
G01 X19.3379 Y66.8279
G01 X19.5162 Y66.7371
G01 X19.6780 Y66.6195
G01 X19.8264 Y66.4711
G01 X19.8365 Y66.4615
G01 X19.8670 Y66.4363
G01 X19.8781 Y66.4278
G01 X19.8895 Y66.4199
G01 X19.9159 Y66.4030
G01 X19.9271 Y66.3968
G01 X19.9386 Y66.3911
G01 X19.9503 Y66.3860
G01 X19.9623 Y66.3814
G01 X19.9745 Y66.3774
G01 X20.0414 Y66.3573
G01 X20.0543 Y66.3537
G01 X20.0740 Y66.3496
G01 X20.0872 Y66.3477
G01 X20.1005 Y66.3465
G01 X20.1206 Y66.3458
G01 X20.1406 Y66.3467
G01 X20.1606 Y66.3490
G01 X20.1803 Y66.3528
G01 X20.1932 Y66.3562
G01 X20.2666 Y66.3772
G01 X20.2847 Y66.3836
G01 X20.2965 Y66.3886
G01 X20.3138 Y66.3971
G01 X20.3304 Y66.4068
G01 X20.3497 Y66.4191
G01 X20.3643 Y66.4295
G01 X20.3904 Y66.4502
G01 X20.4040 Y66.4619
G01 X20.5620 Y66.6195
G01 X20.7238 Y66.7371
G01 X20.9021 Y66.8279
G01 X21.0924 Y66.8897
G01 X21.2900 Y66.9210
G01 X21.4900 Y66.9210
G01 X21.6876 Y66.8897
G01 X21.8779 Y66.8279
G01 X22.0562 Y66.7371
G01 X22.2180 Y66.6195
G01 X22.3664 Y66.4711
G01 X22.3765 Y66.4615
G01 X22.4070 Y66.4363
G01 X22.4181 Y66.4278
G01 X22.4295 Y66.4199
G01 X22.4504 Y66.4064
G01 X22.4614 Y66.3999
G01 X22.4728 Y66.3939
G01 X22.4844 Y66.3885
G01 X22.4963 Y66.3836
G01 X22.5145 Y66.3774
G01 X22.5878 Y66.3554
G01 X22.6074 Y66.3508
G01 X22.6272 Y66.3477
G01 X22.6472 Y66.3461
G01 X22.6606 Y66.3458
G01 X22.6740 Y66.3462
G01 X22.6939 Y66.3481
G01 X22.7072 Y66.3501
G01 X22.7203 Y66.3528
G01 X22.7332 Y66.3562
G01 X22.8066 Y66.3772
G01 X22.8247 Y66.3836
G01 X22.8365 Y66.3886
G01 X22.8538 Y66.3971
G01 X22.8704 Y66.4068
G01 X22.8897 Y66.4191
G01 X22.9043 Y66.4295
G01 X22.9304 Y66.4502
G01 X22.9440 Y66.4619
G01 X23.1020 Y66.6195
G01 X23.2638 Y66.7371
G01 X23.4421 Y66.8279
G01 X23.6324 Y66.8897
G01 X23.8300 Y66.9210
G01 X24.0300 Y66.9210
G01 X24.2276 Y66.8897
G01 X24.4179 Y66.8279
G01 X24.5962 Y66.7371
G01 X24.7580 Y66.6195
G01 X24.8995 Y66.4780
G01 X25.0171 Y66.3162
G01 X25.1079 Y66.1379
G01 X25.1697 Y65.9476
G01 X25.2010 Y65.7500
G01 X25.2010 Y65.5500
G01 X25.1697 Y65.3524
G01 X25.1079 Y65.1621
G01 X25.0171 Y64.9838
G01 X24.8995 Y64.8220
G01 X24.7580 Y64.6805
G01 X24.5962 Y64.5629
G01 X24.4179 Y64.4721
G01 X24.2276 Y64.4103
G01 X24.0300 Y64.3790
G01 X23.8300 Y64.3790
G01 X23.6324 Y64.4103
G01 X23.4421 Y64.4721
G01 X23.2638 Y64.5629
G01 X23.1037 Y64.6793
G01 X22.9533 Y64.8292
G01 X22.9433 Y64.8386
G01 X22.9130 Y64.8637
G01 X22.9019 Y64.8722
G01 X22.8904 Y64.8801
G01 X22.8696 Y64.8936
G01 X22.8529 Y64.9032
G01 X22.8414 Y64.9089
G01 X22.8297 Y64.9140
G01 X22.8116 Y64.9206
G01 X22.7386 Y64.9427
G01 X22.7257 Y64.9463
G01 X22.7126 Y64.9492
G01 X22.6994 Y64.9514
G01 X22.6795 Y64.9535
G01 X22.6594 Y64.9542
G01 X22.6394 Y64.9533
G01 X22.6261 Y64.9519
G01 X22.6128 Y64.9499
G01 X22.5932 Y64.9456
G01 X22.5196 Y64.9246
G01 X22.5013 Y64.9187
G01 X22.4894 Y64.9140
G01 X22.4777 Y64.9087
G01 X22.4662 Y64.9029
G01 X22.4551 Y64.8966
G01 X22.4303 Y64.8809
G01 X22.4205 Y64.8741
G01 X22.3896 Y64.8497
G01 X22.3760 Y64.8381
G01 X22.2180 Y64.6805
G01 X22.0562 Y64.5629
G01 X21.8779 Y64.4721
G01 X21.6876 Y64.4103
G01 X21.4900 Y64.3790
G01 X21.2900 Y64.3790
G01 X21.0924 Y64.4103
G01 X20.9021 Y64.4721
G01 X20.7238 Y64.5629
G01 X20.5637 Y64.6793
G01 X20.4133 Y64.8292
G01 X20.4033 Y64.8386
G01 X20.3929 Y64.8476
G01 X20.3675 Y64.8680
G01 X20.3562 Y64.8763
G01 X20.3350 Y64.8902
G01 X20.3186 Y64.9001
G01 X20.3072 Y64.9061
G01 X20.2897 Y64.9140
G01 X20.2716 Y64.9206
G01 X20.1986 Y64.9427
G01 X20.1857 Y64.9463
G01 X20.1660 Y64.9504
G01 X20.1461 Y64.9530
G01 X20.1328 Y64.9539
G01 X20.1194 Y64.9542
G01 X20.0994 Y64.9533
G01 X20.0794 Y64.9510
G01 X20.0597 Y64.9472
G01 X20.0468 Y64.9438
G01 X19.9796 Y64.9246
G01 X19.9674 Y64.9208
G01 X19.9553 Y64.9164
G01 X19.9435 Y64.9114
G01 X19.9262 Y64.9029
G01 X19.9151 Y64.8966
G01 X19.8903 Y64.8809
G01 X19.8805 Y64.8741
G01 X19.8496 Y64.8497
G01 X19.8360 Y64.8381
G01 X19.6780 Y64.6805
G01 X19.5162 Y64.5629
G01 X19.3379 Y64.4721
G01 X19.1476 Y64.4103
G01 X18.9500 Y64.3790
G01 X18.7500 Y64.3790
G01 X18.5524 Y64.4103
G01 X18.3621 Y64.4721
G01 X18.1838 Y64.5629
G01 X18.0236 Y64.6793
G01 X17.9117 Y64.7907
G01 X17.9023 Y64.7992
G01 X17.8924 Y64.8073
G01 X17.8822 Y64.8149
G01 X17.8717 Y64.8220
G01 X17.8553 Y64.8318
G01 X17.7939 Y64.8653
G01 X17.7820 Y64.8714
G01 X17.7698 Y64.8769
G01 X17.7574 Y64.8818
G01 X17.7447 Y64.8861
G01 X17.7253 Y64.8913
G01 X17.7056 Y64.8951
G01 X17.6857 Y64.8974
G01 X17.6656 Y64.8982
G01 X17.6523 Y64.8979
G01 X17.5759 Y64.8926
G01 X17.5626 Y64.8913
G01 X17.5493 Y64.8893
G01 X17.5362 Y64.8867
G01 X17.5232 Y64.8835
G01 X17.5104 Y64.8796
G01 X17.4916 Y64.8726
G01 X17.4734 Y64.8642
G01 X17.4616 Y64.8578
G01 X17.4445 Y64.8472
G01 X17.4336 Y64.8395
G01 X17.3725 Y64.7937
G01 X17.3577 Y64.7811
G01 X17.3437 Y64.7674
G01 X17.3350 Y64.7577
G01 X17.3267 Y64.7477
G01 X17.3190 Y64.7372
G01 X17.3118 Y64.7264
G01 X17.3050 Y64.7153
G01 X17.2865 Y64.6826
G01 X17.2776 Y64.6645
G01 X16.8611 Y63.6602
G01 X16.8563 Y63.6478
G01 X16.8521 Y63.6352
G01 X16.8471 Y63.6160
G01 X16.8350 Y63.5556
G01 X16.8331 Y63.5425
G01 X16.8318 Y63.5293
G01 X16.8310 Y63.5094
G01 X16.8310 Y58.2537
G01 X16.8110 Y58.1530
G01 X16.7717 Y58.0582
G01 X16.7147 Y57.9729
G01 X15.6986 Y56.9568
G01 X15.6844 Y56.9414
G01 X15.6714 Y56.9250
G01 X15.6447 Y56.8882
G01 X15.6371 Y56.8765
G01 X15.6301 Y56.8644
G01 X15.0645 Y55.7632
G01 X15.0589 Y55.7517
G01 X15.0539 Y55.7399
G01 X15.0495 Y55.7280
G01 X15.0439 Y55.7096
G01 X15.0286 Y55.6468
G01 X15.0259 Y55.6343
G01 X15.0238 Y55.6217
G01 X15.0223 Y55.6090
G01 X15.0211 Y55.5899
G01 X15.0210 Y54.5907
G01 X15.0112 Y54.5033
G01 X14.9724 Y54.3925
G01 X14.9099 Y54.2931
G01 X14.8269 Y54.2101
G01 X14.7275 Y54.1476
G01 X14.6167 Y54.1088
G01 X14.5293 Y54.0990
G01 X13.5707 Y54.0990
G01 X13.4833 Y54.1088
G01 X13.3725 Y54.1476
G01 X13.2731 Y54.2101
G01 X13.1901 Y54.2931
G01 X13.1276 Y54.3925
G01 X13.0888 Y54.5033
G01 X13.0790 Y54.5907
G01 X13.0790 Y57.4993
G01 X13.0888 Y57.5867
G01 X13.1276 Y57.6975
G01 X13.1901 Y57.7969
G01 X13.2731 Y57.8799
G01 X13.3725 Y57.9424
G01 X13.4833 Y57.9812
G01 X13.5707 Y57.9910
G01 X14.5293 Y57.9910
G01 X14.6167 Y57.9812
G01 X14.7275 Y57.9424
G01 X14.7488 Y57.9291
G01 X14.7657 Y57.9198
G01 X14.7773 Y57.9144
G01 X14.8214 Y57.8951
G01 X14.8335 Y57.8907
G01 X14.8457 Y57.8870
G01 X14.8670 Y57.8810
G01 X14.8857 Y57.8769
G01 X14.9048 Y57.8741
G01 X14.9176 Y57.8731
G01 X14.9304 Y57.8726
G01 X15.0066 Y57.8733
G01 X15.0195 Y57.8737
G01 X15.0386 Y57.8755
G01 X15.0576 Y57.8787
G01 X15.0763 Y57.8832
G01 X15.1026 Y57.8914
G01 X15.1209 Y57.8988
G01 X15.1387 Y57.9075
G01 X15.1502 Y57.9140
G01 X15.2073 Y57.9484
G01 X15.2236 Y57.9596
G01 X15.2340 Y57.9677
G01 X15.2440 Y57.9763
G01 X15.2536 Y57.9854
G01 X15.6611 Y58.3930
G01 X15.6700 Y58.4023
G01 X15.6784 Y58.4119
G01 X15.6863 Y58.4220
G01 X15.7112 Y58.4555
G01 X15.7184 Y58.4661
G01 X15.7251 Y58.4770
G01 X15.7408 Y58.5057
G01 X15.7498 Y58.5238
G01 X15.7575 Y58.5425
G01 X15.7637 Y58.5617
G01 X15.7822 Y58.6342
G01 X15.7848 Y58.6474
G01 X15.7869 Y58.6607
G01 X15.7886 Y58.6808
G01 X15.7890 Y58.6943
G01 X15.7890 Y63.5094
G01 X15.7882 Y63.5293
G01 X15.7860 Y63.5490
G01 X15.7838 Y63.5621
G01 X15.7729 Y63.6160
G01 X15.7697 Y63.6289
G01 X15.7659 Y63.6416
G01 X15.7589 Y63.6602
G01 X15.3450 Y64.6583
G01 X15.3398 Y64.6701
G01 X15.3310 Y64.6871
G01 X15.3210 Y64.7036
G01 X15.3137 Y64.7141
G01 X15.2936 Y64.7395
G01 X15.2787 Y64.7611
G01 X15.2664 Y64.7769
G01 X15.2575 Y64.7869
G01 X15.2482 Y64.7965
G01 X15.2333 Y64.8100
G01 X15.2229 Y64.8183
G01 X15.2085 Y64.8290
G01 X15.1975 Y64.8365
G01 X15.1860 Y64.8434
G01 X15.1682 Y64.8527
G01 X15.1498 Y64.8607
G01 X15.1187 Y64.8714
G01 X15.0883 Y64.8839
G01 X15.0692 Y64.8900
G01 X15.0562 Y64.8934
G01 X15.0431 Y64.8961
G01 X15.0299 Y64.8981
G01 X15.0166 Y64.8994
G01 X14.9988 Y64.9007
G01 X14.9854 Y64.9010
G01 X14.9720 Y64.9006
G01 X14.9587 Y64.8996
G01 X14.9454 Y64.8979
G01 X14.9322 Y64.8956
G01 X14.9003 Y64.8877
G01 X14.8678 Y64.8818
G01 X14.8548 Y64.8785
G01 X14.8419 Y64.8746
G01 X14.8229 Y64.8675
G01 X14.8046 Y64.8590
G01 X14.7793 Y64.8451
G01 X14.7628 Y64.8343
G01 X14.7315 Y64.8111
G01 X14.7208 Y64.8022
G01 X14.7094 Y64.7918
G01 X14.5980 Y64.6805
G01 X14.4362 Y64.5629
G01 X14.2579 Y64.4721
G01 X14.0676 Y64.4103
G01 X13.8700 Y64.3790
G01 X13.6700 Y64.3790
G01 X13.4724 Y64.4103
G01 X13.2821 Y64.4721
G01 X13.1038 Y64.5629
G01 X12.9437 Y64.6793
G01 X12.7933 Y64.8292
G01 X12.7833 Y64.8386
G01 X12.7729 Y64.8476
G01 X12.7475 Y64.8680
G01 X12.7362 Y64.8763
G01 X12.7150 Y64.8902
G01 X12.6986 Y64.9001
G01 X12.6872 Y64.9061
G01 X12.6756 Y64.9115
G01 X12.6577 Y64.9186
G01 X12.6455 Y64.9226
G01 X12.5722 Y64.9446
G01 X12.5592 Y64.9478
G01 X12.5394 Y64.9514
G01 X12.5261 Y64.9530
G01 X12.5128 Y64.9539
G01 X12.4994 Y64.9542
G01 X12.4860 Y64.9538
G01 X12.4661 Y64.9519
G01 X12.4528 Y64.9499
G01 X12.4397 Y64.9472
G01 X12.4268 Y64.9438
G01 X12.3596 Y64.9246
G01 X12.3474 Y64.9208
G01 X12.3294 Y64.9140
G01 X12.3177 Y64.9087
G01 X12.3062 Y64.9029
G01 X12.2951 Y64.8966
G01 X12.2703 Y64.8809
G01 X12.2605 Y64.8741
G01 X12.2296 Y64.8497
G01 X12.2160 Y64.8381
G01 X12.0411 Y64.6638
G01 X12.0324 Y64.6547
G01 X12.0241 Y64.6453
G01 X11.9842 Y64.5952
G01 X11.9764 Y64.5849
G01 X11.9691 Y64.5742
G01 X11.9623 Y64.5632
G01 X11.9531 Y64.5462
G01 X11.5572 Y63.6881
G01 X11.5521 Y63.6762
G01 X11.5455 Y63.6580
G01 X11.5418 Y63.6455
G01 X11.5387 Y63.6330
G01 X11.5248 Y63.5683
G01 X11.5223 Y63.5491
G01 X11.5211 Y63.5297
G01 X11.5210 Y49.0465
G01 X11.5214 Y49.0330
G01 X11.5231 Y49.0130
G01 X11.5251 Y48.9997
G01 X11.5294 Y48.9800
G01 X11.5512 Y48.9024
G01 X11.5578 Y48.8834
G01 X11.5659 Y48.8650
G01 X11.5720 Y48.8530
G01 X11.5787 Y48.8414
G01 X11.7752 Y48.5196
G01 X11.7867 Y48.5023
G01 X11.7951 Y48.4913
G01 X11.8040 Y48.4808
G01 X11.8135 Y48.4707
G01 X11.8533 Y48.4303
G01 X11.8633 Y48.4208
G01 X11.8791 Y48.4074
G01 X11.8902 Y48.3992
G01 X11.9017 Y48.3915
G01 X11.9519 Y48.3599
G01 X12.0349 Y48.2769
G01 X12.0974 Y48.1775
G01 X12.1362 Y48.0667
G01 X12.1460 Y47.9793
G01 X12.1460 Y47.1207
G01 X12.1362 Y47.0333
G01 X12.0974 Y46.9225
G01 X12.0349 Y46.8231
G01 X11.9519 Y46.7401
G01 X11.8525 Y46.6776
G01 X11.7417 Y46.6388
G01 X11.6572 Y46.6293
G01 X10.3455 Y46.6290
G01 X10.2583 Y46.6388
G01 X10.1475 Y46.6776
G01 X10.0481 Y46.7401
G01 X9.9651 Y46.8231
G01 X9.9026 Y46.9225
G01 X9.8638 Y47.0333
G01 X9.8540 Y47.1207
G01 X9.8540 Y47.9793
G01 X9.8638 Y48.0667
G01 X9.9026 Y48.1775
G01 X9.9651 Y48.2769
G01 X10.0481 Y48.3599
G01 X10.0983 Y48.3915
G01 X10.1098 Y48.3992
G01 X10.1209 Y48.4074
G01 X10.1367 Y48.4208
G01 X10.1467 Y48.4303
G01 X10.1865 Y48.4707
G01 X10.1960 Y48.4808
G01 X10.2092 Y48.4968
G01 X10.2211 Y48.5137
G01 X10.4213 Y48.8414
G01 X10.4280 Y48.8530
G01 X10.4341 Y48.8650
G01 X10.4422 Y48.8834
G01 X10.4488 Y48.9024
G01 X10.4706 Y48.9800
G01 X10.4749 Y48.9997
G01 X10.4769 Y49.0130
G01 X10.4782 Y49.0263
G01 X10.4789 Y49.0397
G01 X10.4789 Y63.5822
G01 X10.4775 Y63.6030
G01 X10.4726 Y63.6416
G01 X10.4705 Y63.6553
G01 X10.4659 Y63.6757
G01 X10.1582 Y64.8409
G01 X10.1546 Y64.8533
G01 X10.1504 Y64.8655
G01 X10.1456 Y64.8775
G01 X10.1403 Y64.8893
G01 X10.1313 Y64.9064
G01 X10.0958 Y64.9680
G01 X10.0851 Y64.9842
G01 X10.0733 Y64.9995
G01 X10.0649 Y65.0093
G01 X10.0560 Y65.0186
G01 X9.8756 Y65.1990
G01 X9.9006 Y65.2689
G01 X9.9066 Y65.2878
G01 X9.9322 Y65.3894
G01 X9.9363 Y65.4088
G01 X9.9517 Y65.5124
G01 X9.9533 Y65.5256
G01 X9.9543 Y65.5388
G01 X9.9591 Y65.6368
G01 X9.9595 Y65.6500
G01 X9.9591 Y65.6632
G01 X9.9543 Y65.7612
G01 X9.9533 Y65.7744
G01 X9.9517 Y65.7876
G01 X9.9363 Y65.8912
G01 X9.9322 Y65.9106
G01 X9.9066 Y66.0122
G01 X9.9006 Y66.0311
G01 X9.8756 Y66.1010
G01 X10.0125 Y66.2378
G01 X10.0256 Y66.2519
G01 X10.0337 Y66.2618
G01 X10.0414 Y66.2721
G01 X10.0520 Y66.2881
G01 X10.0905 Y66.3548
G01 X10.0991 Y66.3720
G01 X10.1042 Y66.3838
G01 X10.1087 Y66.3958
G01 X10.1143 Y66.4142
G01 X10.4455 Y67.6501
G01 X10.4488 Y67.6639
G01 X10.4514 Y67.6777
G01 X10.4575 Y67.7238
G01 X10.4586 Y67.7379
G01 X10.4590 Y67.7520
G01 X10.4590 Y71.3059
G01 X10.4886 Y71.4549
G01 X10.5467 Y71.5952
G01 X10.6311 Y71.7215
G01 X14.4470 Y75.5374
G01 X14.5733 Y75.6218
G01 X14.7136 Y75.6799
G01 X14.8626 Y75.7095
G01 X33.5889 Y75.7096
G01 X33.6097 Y75.7110
G01 X33.6303 Y75.7139
G01 X33.6439 Y75.7167
G01 X33.6994 Y75.7298
G01 X33.7128 Y75.7334
G01 X33.7260 Y75.7376
G01 X33.7390 Y75.7425
G01 X33.7517 Y75.7481
G01 X34.2672 Y76.0058
G01 X34.2784 Y76.0121
G01 X34.2946 Y76.0225
G01 X34.3049 Y76.0300
G01 X34.3198 Y76.0423
G01 X34.3804 Y76.0986
G01 X34.3894 Y76.1079
G01 X34.4022 Y76.1226
G01 X34.4101 Y76.1329
G01 X34.4174 Y76.1436
G01 X34.4275 Y76.1602
G01 X34.4336 Y76.1717
G01 X34.4390 Y76.1835
G01 X34.4462 Y76.2015
G01 X34.4520 Y76.2201
G01 X34.4711 Y76.2898
G01 X34.4751 Y76.3090
G01 X34.4770 Y76.3220
G01 X34.4783 Y76.3351
G01 X34.4789 Y76.3482
G01 X34.4790 Y76.4647
G01 X34.4834 Y76.5011
G01 X34.5116 Y76.5726
G01 X34.5566 Y76.6320
G01 X34.6160 Y76.6770
G01 X34.6875 Y76.7052
G01 X34.7238 Y76.7095
G01 X40.7762 Y76.7095
G01 X40.8127 Y76.7052
G01 X40.8841 Y76.6770
G01 X40.9435 Y76.6320
G01 X40.9885 Y76.5726
G01 X41.0167 Y76.5011
G01 X41.0211 Y76.4647
G01 X41.0211 Y70.8723
G01 X41.0167 Y70.8359
G01 X40.9885 Y70.7644
G01 X40.9435 Y70.7050
G01 X40.8841 Y70.6600
G01 X40.8126 Y70.6318
G01 X40.7762 Y70.6275
G01 X35.6509 Y70.6275
G01 X35.6317 Y70.6268
G01 X35.6189 Y70.6256
G01 X35.5776 Y70.6197
G01 X35.5650 Y70.6176
G01 X35.5524 Y70.6148
G01 X35.5400 Y70.6115
G01 X35.5084 Y70.6021
G01 X35.4957 Y70.5977
G01 X35.4770 Y70.5899
G01 X35.4591 Y70.5807
G01 X35.3947 Y70.5425
G01 X35.3835 Y70.5351
G01 X35.3674 Y70.5229
G01 X35.3572 Y70.5141
G01 X35.3474 Y70.5048
G01 X32.6489 Y67.8063
G01 X32.6358 Y67.7922
G01 X32.6276 Y67.7823
G01 X32.6026 Y67.7489
G01 X32.5951 Y67.7385
G01 X32.5849 Y67.7222
G01 X32.5692 Y67.6935
G01 X32.5630 Y67.6815
G01 X32.5549 Y67.6630
G01 X32.5482 Y67.6440
G01 X32.5446 Y67.6310
G01 X32.5294 Y67.5716
G01 X32.5264 Y67.5585
G01 X32.5241 Y67.5452
G01 X32.5224 Y67.5318
G01 X32.5214 Y67.5184
G01 X32.5210 Y67.5049
G01 X32.5210 Y55.9932
G01 X32.5214 Y55.9801
G01 X32.5230 Y55.9612
G01 X32.5288 Y55.9200
G01 X32.5309 Y55.9073
G01 X32.5352 Y55.8886
G01 X32.5420 Y55.8654
G01 X32.5486 Y55.8473
G01 X32.5563 Y55.8297
G01 X32.5654 Y55.8127
G01 X32.5720 Y55.8018
G01 X32.6135 Y55.7374
G01 X32.6254 Y55.7212
G01 X32.6384 Y55.7060
G01 X32.6477 Y55.6964
G01 X32.6575 Y55.6872
G01 X32.6730 Y55.6745
G01 X32.6838 Y55.6666
G01 X32.6951 Y55.6593
G01 X32.7125 Y55.6494
G01 X32.7246 Y55.6436
G01 X32.7942 Y55.6118
G01 X32.8067 Y55.6069
G01 X32.8193 Y55.6026
G01 X32.8387 Y55.5973
G01 X32.8584 Y55.5934
G01 X32.8717 Y55.5917
G01 X32.8850 Y55.5906
G01 X32.9051 Y55.5902
G01 X32.9184 Y55.5908
G01 X32.9317 Y55.5921
G01 X33.0075 Y55.6029
G01 X33.0265 Y55.6063
G01 X33.0451 Y55.6111
G01 X33.0573 Y55.6150
G01 X33.0693 Y55.6194
G01 X33.0918 Y55.6294
G01 X33.1031 Y55.6353
G01 X33.1142 Y55.6417
G01 X33.1249 Y55.6486
G01 X33.1347 Y55.6554
G01 X33.1201 Y55.6238
G01 X33.1071 Y55.5884
G01 X33.1011 Y55.5694
G01 X33.0934 Y55.5392
G01 X33.0893 Y55.5198
G01 X33.0838 Y55.4825
G01 X33.0825 Y55.4693
G01 X33.0806 Y55.4316
G01 X33.0805 Y52.5750
G01 X33.0809 Y52.5618
G01 X33.0830 Y52.5241
G01 X33.0883 Y52.4867
G01 X33.0919 Y52.4672
G01 X33.1011 Y52.4306
G01 X33.1071 Y52.4116
G01 X33.1201 Y52.3762
G01 X33.1348 Y52.3442
G01 X33.1222 Y52.3520
G01 X33.1110 Y52.3581
G01 X33.0994 Y52.3637
G01 X33.0876 Y52.3687
G01 X33.0538 Y52.3809
G01 X33.0080 Y52.3963
G01 X32.9890 Y52.4020
G01 X32.9696 Y52.4062
G01 X32.9499 Y52.4090
G01 X32.9367 Y52.4101
G01 X32.9168 Y52.4104
G01 X32.9036 Y52.4098
G01 X32.8904 Y52.4086
G01 X32.8773 Y52.4067
G01 X32.8414 Y52.3998
G01 X32.8284 Y52.3967
G01 X32.8102 Y52.3911
G01 X32.7835 Y52.3844
G01 X32.7707 Y52.3806
G01 X32.7518 Y52.3737
G01 X32.7396 Y52.3683
G01 X32.7276 Y52.3623
G01 X32.7103 Y52.3522
G01 X32.6937 Y52.3409
G01 X32.6831 Y52.3327
G01 X32.6737 Y52.3246
G01 X32.6588 Y52.3126
G01 X32.6441 Y52.2990
G01 X32.6305 Y52.2843
G01 X32.6220 Y52.2739
G01 X32.6135 Y52.2623
G01 X32.6020 Y52.2497
G01 X32.5938 Y52.2398
G01 X32.5825 Y52.2243
G01 X32.5756 Y52.2135
G01 X32.5662 Y52.1967
G01 X32.5563 Y52.1758
G01 X32.5442 Y52.1460
G01 X32.5377 Y52.1269
G01 X32.5327 Y52.1075
G01 X32.5302 Y52.0943
G01 X32.5275 Y52.0722
G01 X32.5247 Y52.0581
G01 X32.5229 Y52.0454
G01 X32.5213 Y52.0263
G01 X32.5210 Y52.0136
G01 X32.5211 Y37.0442
G01 X32.5217 Y37.0314
G01 X32.5229 Y37.0186
G01 X32.5288 Y36.9773
G01 X32.5322 Y36.9584
G01 X32.5352 Y36.9459
G01 X32.5420 Y36.9228
G01 X32.5462 Y36.9107
G01 X32.5510 Y36.8988
G01 X32.5592 Y36.8814
G01 X32.5686 Y36.8646
G01 X32.6098 Y36.8004
G01 X32.6213 Y36.7839
G01 X32.6296 Y36.7734
G01 X32.6384 Y36.7634
G01 X32.6477 Y36.7538
G01 X32.6575 Y36.7446
G01 X32.6677 Y36.7360
G01 X32.6784 Y36.7279
G01 X32.6894 Y36.7203
G01 X32.7008 Y36.7133
G01 X32.7125 Y36.7068
G01 X32.7246 Y36.7009
G01 X32.7942 Y36.6692
G01 X32.8130 Y36.6620
G01 X32.8322 Y36.6563
G01 X32.8518 Y36.6519
G01 X32.8717 Y36.6491
G01 X32.8850 Y36.6480
G01 X32.9051 Y36.6476
G01 X32.9184 Y36.6482
G01 X32.9318 Y36.6495
G01 X33.0075 Y36.6603
G01 X33.0202 Y36.6624
G01 X33.0389 Y36.6667
G01 X33.0573 Y36.6723
G01 X33.0753 Y36.6793
G01 X33.0943 Y36.6880
G01 X33.1125 Y36.6977
G01 X33.1242 Y36.7050
G01 X33.1660 Y36.7339
G01 X33.1825 Y36.7463
G01 X33.1929 Y36.7553
G01 X33.2029 Y36.7647
G01 X33.2731 Y36.8349
G01 X33.3725 Y36.8974
G01 X33.4833 Y36.9362
G01 X33.5707 Y36.9460
G01 X34.5293 Y36.9460
G01 X34.6167 Y36.9362
G01 X34.7275 Y36.8974
G01 X34.8269 Y36.8349
G01 X34.9099 Y36.7519
G01 X34.9724 Y36.6525
G01 X35.0112 Y36.5417
G01 X35.0210 Y36.4543
G01 X35.0210 Y36.0687
G01 X35.0213 Y36.0559
G01 X35.0223 Y36.0431
G01 X35.0248 Y36.0240
G01 X35.0286 Y36.0052
G01 X35.0320 Y35.9928
G01 X35.0536 Y35.9193
G01 X35.0605 Y35.9004
G01 X35.0659 Y35.8880
G01 X35.0719 Y35.8759
G01 X35.0819 Y35.8585
G01 X35.0894 Y35.8472
G01 X35.0974 Y35.8364
G01 X35.1059 Y35.8260
G01 X35.1149 Y35.8160
G01 X35.1615 Y35.7694
G01 X35.1710 Y35.7608
G01 X35.1859 Y35.7487
G01 X35.2017 Y35.7378
G01 X35.4416 Y35.5835
G01 X35.4582 Y35.5737
G01 X35.4696 Y35.5678
G01 X35.4812 Y35.5625
G01 X35.4992 Y35.5556
G01 X35.5114 Y35.5517
G01 X35.5784 Y35.5320
G01 X35.5908 Y35.5286
G01 X35.6034 Y35.5259
G01 X35.6160 Y35.5238
G01 X35.6288 Y35.5223
G01 X35.6416 Y35.5213
G01 X35.6544 Y35.5210
G01 X41.0513 Y35.5210
G01 X41.1520 Y35.5010
G01 X41.2468 Y35.4617
G01 X41.3322 Y35.4047
G01 X41.5852 Y35.1517
G01 X41.5945 Y35.1428
G01 X41.6041 Y35.1344
G01 X41.6142 Y35.1265
G01 X41.6476 Y35.1016
G01 X41.6583 Y35.0944
G01 X41.6748 Y35.0846
G01 X41.6961 Y35.0733
G01 X41.7137 Y35.0655
G01 X41.7318 Y35.0590
G01 X41.7503 Y35.0538
G01 X41.8249 Y35.0375
G01 X41.8446 Y35.0340
G01 X41.8579 Y35.0324
G01 X41.8780 Y35.0314
G01 X41.8913 Y35.0315
G01 X41.9047 Y35.0323
G01 X41.9180 Y35.0337
G01 X41.9312 Y35.0358
G01 X41.9443 Y35.0386
G01 X41.9573 Y35.0420
G01 X41.9763 Y35.0483
G01 X42.0480 Y35.0752
G01 X42.0603 Y35.0804
G01 X42.0723 Y35.0863
G01 X42.0840 Y35.0928
G01 X42.0954 Y35.0999
G01 X42.1064 Y35.1075
G01 X42.1170 Y35.1157
G01 X42.1272 Y35.1243
G01 X42.1370 Y35.1335
G01 X42.1462 Y35.1431
G01 X42.1592 Y35.1584
G01 X42.2052 Y35.2196
G01 X42.2126 Y35.2301
G01 X42.2196 Y35.2409
G01 X42.2290 Y35.2577
G01 X42.2372 Y35.2751
G01 X42.2470 Y35.3007
G01 X42.2529 Y35.3204
G01 X42.2574 Y35.3405
G01 X42.2663 Y35.3906
G01 X42.2687 Y35.4111
G01 X42.2695 Y35.4317
G01 X42.2695 Y79.3577
G01 X42.2692 Y79.3705
G01 X42.2676 Y79.3897
G01 X42.2617 Y79.4310
G01 X42.2583 Y79.4499
G01 X42.2535 Y79.4685
G01 X42.2452 Y79.4957
G01 X42.2383 Y79.5137
G01 X42.2301 Y79.5311
G01 X42.2207 Y79.5478
G01 X42.1795 Y79.6120
G01 X42.1719 Y79.6233
G01 X42.1593 Y79.6394
G01 X42.1456 Y79.6546
G01 X42.1359 Y79.6641
G01 X42.1279 Y79.6712
G01 X42.1175 Y79.6797
G01 X42.1067 Y79.6878
G01 X42.0898 Y79.6988
G01 X42.0721 Y79.7085
G01 X42.0112 Y79.7389
G01 X41.9926 Y79.7468
G01 X41.9734 Y79.7533
G01 X41.9604 Y79.7568
G01 X41.9463 Y79.7600
G01 X41.9250 Y79.7637
G01 X41.8843 Y79.7681
G01 X41.8627 Y79.7690
G01 X5.0040 Y79.7690
G01 X4.9842 Y79.7685
G01 X4.5983 Y79.7516
G01 X4.5816 Y79.7503
G01 X4.5647 Y79.7485
G01 X4.1915 Y79.6994
G01 X4.1746 Y79.6967
G01 X4.1524 Y79.6925
G01 X3.7850 Y79.6110
G01 X3.7683 Y79.6069
G01 X3.7467 Y79.6007
G01 X3.3878 Y79.4876
G01 X3.3715 Y79.4821
G01 X3.3505 Y79.4740
G01 X3.0028 Y79.3300
G01 X2.9871 Y79.3231
G01 X2.9668 Y79.3132
G01 X2.6330 Y79.1394
G01 X2.6133 Y79.1285
G01 X2.5986 Y79.1196
G01 X2.2812 Y78.9174
G01 X2.2670 Y78.9078
G01 X2.2487 Y78.8946
G01 X1.9502 Y78.6655
G01 X1.9326 Y78.6513
G01 X1.9197 Y78.6400
G01 X1.6423 Y78.3858
G01 X1.6261 Y78.3701
G01 X1.6142 Y78.3577
G01 X1.3600 Y78.0803
G01 X1.3487 Y78.0674
G01 X1.3345 Y78.0498
G01 X1.1054 Y77.7513
G01 X1.0922 Y77.7331
G01 X1.0826 Y77.7188
G01 X0.8804 Y77.4014
G01 X0.8659 Y77.3769
G01 X0.6868 Y77.0332
G01 X0.6792 Y77.0178
G01 X0.6700 Y76.9972
G01 X0.5260 Y76.6495
G01 X0.5179 Y76.6284
G01 X0.5124 Y76.6122
G01 X0.3993 Y76.2533
G01 X0.3931 Y76.2316
G01 X0.3890 Y76.2150
G01 X0.3075 Y75.8476
G01 X0.3042 Y75.8307
G01 X0.3006 Y75.8085
G01 X0.2515 Y75.4354
G01 X0.2492 Y75.4129
G01 X0.2481 Y75.3958
G01 X0.2315 Y75.0158
G01 X0.2311 Y74.9989
G01 X0.2310 Y5.0041
G01 X0.2315 Y4.9842
G01 X0.2481 Y4.6042
G01 X0.2492 Y4.5871
G01 X0.2515 Y4.5646
G01 X0.3006 Y4.1916
G01 X0.3033 Y4.1746
G01 X0.3075 Y4.1524
G01 X0.3890 Y3.7850
G01 X0.3945 Y3.7632
G01 X0.3993 Y3.7467
G01 X0.5124 Y3.3878
G01 X0.5198 Y3.3665
G01 X0.5260 Y3.3505
G01 X0.6700 Y3.0028
G01 X0.6792 Y2.9822
G01 X0.6868 Y2.9668
G01 X0.8606 Y2.6330
G01 X0.8715 Y2.6133
G01 X0.8804 Y2.5986
G01 X1.0826 Y2.2812
G01 X1.0953 Y2.2625
G01 X1.1054 Y2.2487
G01 X1.3345 Y1.9502
G01 X1.3452 Y1.9368
G01 X1.3600 Y1.9197
G01 X1.6142 Y1.6423
G01 X1.6299 Y1.6261
G01 X1.6423 Y1.6142
G01 X1.9197 Y1.3600
G01 X1.9368 Y1.3452
G01 X1.9502 Y1.3345
G01 X2.2487 Y1.1054
G01 X2.2669 Y1.0922
G01 X2.2812 Y1.0826
G01 X2.5986 Y0.8804
G01 X2.6133 Y0.8715
G01 X2.6330 Y0.8606
G01 X2.9668 Y0.6868
G01 X2.9822 Y0.6792
G01 X3.0028 Y0.6700
G01 X3.3505 Y0.5260
G01 X3.3664 Y0.5198
G01 X3.3878 Y0.5124
G01 X3.7467 Y0.3993
G01 X3.7632 Y0.3945
G01 X3.7850 Y0.3890
G01 X4.1524 Y0.3075
G01 X4.1693 Y0.3042
G01 X4.1916 Y0.3006
G01 X4.5758 Y0.2502
G01 X4.6042 Y0.2481
G01 X4.9842 Y0.2315
G01 X5.0041 Y0.2310
G01 X41.8582 Y0.2310
G01 X41.8774 Y0.2317
G01 X41.8902 Y0.2329
G01 X41.9315 Y0.2388
G01 X41.9504 Y0.2422
G01 X41.9690 Y0.2470
G01 X41.9962 Y0.2553
G01 X42.0142 Y0.2622
G01 X42.0316 Y0.2704
G01 X42.0483 Y0.2798
G01 X42.1125 Y0.3210
G01 X42.1283 Y0.3319
G01 X42.1384 Y0.3399
G01 X42.1481 Y0.3482
G01 X42.1573 Y0.3571
G01 X42.1716 Y0.3725
G01 X42.1802 Y0.3829
G01 X42.1882 Y0.3937
G01 X42.1993 Y0.4107
G01 X42.2090 Y0.4284
G01 X42.2394 Y0.4893
G01 X42.2473 Y0.5079
G01 X42.2538 Y0.5271
G01 X42.2573 Y0.5401
G01 X42.2605 Y0.5542
G01 X42.2642 Y0.5755
G01 X42.2686 Y0.6162
G01 X42.2695 Y0.6378
G01 X42.2695 Y22.8129
G01 X42.2692 Y22.8257
G01 X42.2676 Y22.8449
G01 X42.2607 Y22.8925
G01 X42.2568 Y22.9113
G01 X42.2441 Y22.9554
G01 X42.2397 Y22.9681
G01 X42.2346 Y22.9806
G01 X42.2290 Y22.9928
G01 X42.2227 Y23.0047
G01 X42.1845 Y23.0690
G01 X42.1771 Y23.0803
G01 X42.1691 Y23.0911
G01 X42.1605 Y23.1015
G01 X42.1515 Y23.1115
G01 X39.5953 Y25.6679
G01 X39.5383 Y25.7532
G01 X39.4990 Y25.8480
G01 X39.4790 Y25.9487
G01 X39.4790 Y26.3139
G01 X39.4786 Y26.3271
G01 X39.4769 Y26.3469
G01 X39.4738 Y26.3665
G01 X39.4605 Y26.4261
G01 X39.4554 Y26.4453
G01 X39.4489 Y26.4641
G01 X39.4411 Y26.4823
G01 X39.1266 Y27.1463
G01 X39.1160 Y27.1723
G01 X39.1092 Y27.1981
G01 X39.1055 Y27.2103
G01 X39.0888 Y27.2583
G01 X39.0790 Y27.3457
G01 X39.0790 Y28.6543
G01 X39.0888 Y28.7417
G01 X39.1276 Y28.8525
G01 X39.1901 Y28.9519
G01 X39.2731 Y29.0349
G01 X39.3725 Y29.0974
G01 X39.4833 Y29.1362
G01 X39.5707 Y29.1460
G01 X40.4293 Y29.1460
G01 X40.5167 Y29.1362
G01 X40.6275 Y29.0974
G01 X40.7269 Y29.0349
G01 X40.8099 Y28.9519
G01 X40.8724 Y28.8525
G01 X40.9112 Y28.7417
G01 X40.9210 Y28.6543
G01 X40.9210 Y27.3457
G01 X40.9112 Y27.2583
G01 X40.9012 Y27.2296
G01 X40.8961 Y27.2115
G01 X40.8703 Y27.1396
G01 X40.5798 Y26.5264
G01 X40.5746 Y26.5146
G01 X40.5678 Y26.4966
G01 X40.5623 Y26.4782
G01 X40.5594 Y26.4657
G01 X40.5571 Y26.4531
G01 X40.5453 Y26.3774
G01 X40.5438 Y26.3641
G01 X40.5431 Y26.3508
G01 X40.5430 Y26.3374
G01 X40.5435 Y26.3240
G01 X40.5448 Y26.3107
G01 X40.5466 Y26.2975
G01 X40.5492 Y26.2843
G01 X40.5524 Y26.2713
G01 X40.5562 Y26.2585
G01 X40.5607 Y26.2459
G01 X40.5657 Y26.2335
G01 X40.5939 Y26.1695
G01 X40.5997 Y26.1572
G01 X40.6061 Y26.1452
G01 X40.6131 Y26.1336
G01 X40.6247 Y26.1168
G01 X40.6375 Y26.1009
G01 X40.6531 Y26.0838
G01 X41.5852 Y25.1517
G01 X41.5993 Y25.1386
G01 X41.6091 Y25.1304
G01 X41.6476 Y25.1016
G01 X41.6637 Y25.0910
G01 X41.6847 Y25.0792
G01 X41.7019 Y25.0705
G01 X41.7137 Y25.0655
G01 X41.7318 Y25.0590
G01 X41.7441 Y25.0554
G01 X41.7566 Y25.0524
G01 X41.8249 Y25.0375
G01 X41.8380 Y25.0350
G01 X41.8513 Y25.0331
G01 X41.8713 Y25.0316
G01 X41.8847 Y25.0314
G01 X41.8980 Y25.0318
G01 X41.9114 Y25.0329
G01 X41.9246 Y25.0347
G01 X41.9378 Y25.0371
G01 X41.9508 Y25.0402
G01 X41.9637 Y25.0440
G01 X41.9763 Y25.0483
G01 X42.0418 Y25.0727
G01 X42.0542 Y25.0777
G01 X42.0664 Y25.0833
G01 X42.0840 Y25.0928
G01 X42.0954 Y25.0999
G01 X42.1064 Y25.1075
G01 X42.1170 Y25.1157
G01 X42.1272 Y25.1243
G01 X42.1417 Y25.1383
G01 X42.1507 Y25.1481
G01 X42.1633 Y25.1637
G01 X42.2052 Y25.2197
G01 X42.2127 Y25.2301
G01 X42.2229 Y25.2464
G01 X42.2290 Y25.2577
G01 X42.2346 Y25.2692
G01 X42.2397 Y25.2810
G01 X42.2447 Y25.2942
G01 X42.2511 Y25.3138
G01 X42.2561 Y25.3338
G01 X42.2663 Y25.3906
G01 X42.2681 Y25.4042
G01 X42.2694 Y25.4248
G01 X42.2694 Y27.9318
G01 X42.2688 Y27.9446
G01 X42.2676 Y27.9574
G01 X42.2617 Y27.9986
G01 X42.2583 Y28.0176
G01 X42.2535 Y28.0362
G01 X42.2441 Y28.0679
G01 X42.2397 Y28.0806
G01 X42.2319 Y28.0992
G01 X42.2259 Y28.1113
G01 X42.2193 Y28.1231
G01 X42.1845 Y28.1815
G01 X42.1731 Y28.1982
G01 X42.1605 Y28.2140
G01 X42.1515 Y28.2240
G01 X42.0953 Y28.2804
G01 X42.0383 Y28.3657
G01 X41.9990 Y28.4605
G01 X41.9790 Y28.5612
G01 X41.9790 Y33.1034
G01 X41.9787 Y33.1162
G01 X41.9771 Y33.1354
G01 X41.9702 Y33.1830
G01 X41.9678 Y33.1956
G01 X41.9648 Y33.2080
G01 X41.9536 Y33.2459
G01 X41.9467 Y33.2649
G01 X41.9385 Y33.2833
G01 X41.9288 Y33.3011
G01 X41.8975 Y33.3538
G01 X41.8904 Y33.3652
G01 X41.8826 Y33.3762
G01 X41.8744 Y33.3869
G01 X41.8610 Y33.4020
G01 X40.9074 Y34.3556
G01 X40.8931 Y34.3684
G01 X40.8830 Y34.3763
G01 X40.8495 Y34.4012
G01 X40.8335 Y34.4118
G01 X40.7993 Y34.4308
G01 X40.7873 Y34.4370
G01 X40.7688 Y34.4451
G01 X40.7497 Y34.4518
G01 X40.7368 Y34.4554
G01 X40.6774 Y34.4706
G01 X40.6642 Y34.4736
G01 X40.6510 Y34.4759
G01 X40.6376 Y34.4776
G01 X40.6242 Y34.4786
G01 X40.6107 Y34.4790
G01 X35.6544 Y34.4790
G01 X35.6352 Y34.4783
G01 X35.6161 Y34.4762
G01 X35.6034 Y34.4741
G01 X35.5847 Y34.4698
G01 X35.5053 Y34.4465
G01 X35.4872 Y34.4400
G01 X35.4754 Y34.4349
G01 X35.4639 Y34.4293
G01 X35.4526 Y34.4232
G01 X35.4417 Y34.4165
G01 X35.2017 Y34.2622
G01 X35.1911 Y34.2551
G01 X35.1759 Y34.2433
G01 X35.1662 Y34.2349
G01 X35.1524 Y34.2215
G01 X35.1438 Y34.2120
G01 X35.0937 Y34.1541
G01 X35.0814 Y34.1380
G01 X35.0740 Y34.1268
G01 X35.0638 Y34.1093
G01 X35.0578 Y34.0973
G01 X35.0499 Y34.0787
G01 X35.0434 Y34.0596
G01 X35.0384 Y34.0400
G01 X35.0272 Y33.9885
G01 X35.0248 Y33.9759
G01 X35.0223 Y33.9569
G01 X35.0213 Y33.9441
G01 X35.0210 Y33.9313
G01 X35.0210 Y33.5457
G01 X35.0112 Y33.4583
G01 X34.9724 Y33.3475
G01 X34.9107 Y33.2493
G01 X34.8267 Y33.1649
G01 X34.7275 Y33.1026
G01 X34.6167 Y33.0638
G01 X34.5293 Y33.0540
G01 X33.5707 Y33.0540
G01 X33.4833 Y33.0638
G01 X33.3725 Y33.1026
G01 X33.2731 Y33.1651
G01 X33.2053 Y33.2328
G01 X33.1960 Y33.2417
G01 X33.1814 Y33.2541
G01 X33.1428 Y33.2829
G01 X33.1268 Y33.2935
G01 X33.1001 Y33.3084
G01 X33.0885 Y33.3140
G01 X33.0768 Y33.3190
G01 X33.0587 Y33.3255
G01 X33.0464 Y33.3291
G01 X33.0339 Y33.3321
G01 X32.9656 Y33.3470
G01 X32.9525 Y33.3495
G01 X32.9326 Y33.3521
G01 X32.9192 Y33.3529
G01 X32.9058 Y33.3531
G01 X32.8925 Y33.3527
G01 X32.8791 Y33.3516
G01 X32.8593 Y33.3487
G01 X32.8462 Y33.3459
G01 X32.8332 Y33.3425
G01 X32.8142 Y33.3362
G01 X32.7425 Y33.3093
G01 X32.7302 Y33.3041
G01 X32.7182 Y33.2982
G01 X32.7065 Y33.2917
G01 X32.6951 Y33.2846
G01 X32.6841 Y33.2770
G01 X32.6735 Y33.2688
G01 X32.6583 Y33.2557
G01 X32.6442 Y33.2414
G01 X32.6312 Y33.2261
G01 X32.5853 Y33.1648
G01 X32.5773 Y33.1536
G01 X32.5665 Y33.1360
G01 X32.5569 Y33.1174
G01 X32.5485 Y33.0975
G01 X32.5414 Y33.0773
G01 X32.5376 Y33.0641
G01 X32.5344 Y33.0507
G01 X32.5253 Y33.0007
G01 X32.5224 Y32.9803
G01 X32.5214 Y32.9666
G01 X32.5210 Y32.9528
G01 X32.5211 Y31.0442
G01 X32.5217 Y31.0314
G01 X32.5229 Y31.0186
G01 X32.5288 Y30.9773
G01 X32.5322 Y30.9584
G01 X32.5352 Y30.9459
G01 X32.5420 Y30.9228
G01 X32.5462 Y30.9107
G01 X32.5510 Y30.8988
G01 X32.5563 Y30.8871
G01 X32.5614 Y30.8771
G01 X32.5662 Y30.8654
G01 X32.5718 Y30.8533
G01 X32.5781 Y30.8414
G01 X32.5885 Y30.8243
G01 X32.5962 Y30.8133
G01 X32.6043 Y30.8027
G01 X32.6130 Y30.7925
G01 X32.6217 Y30.7833
G01 X32.6296 Y30.7734
G01 X32.6384 Y30.7634
G01 X32.6477 Y30.7538
G01 X32.6575 Y30.7446
G01 X32.6677 Y30.7360
G01 X32.6784 Y30.7279
G01 X32.6894 Y30.7203
G01 X32.7060 Y30.7103
G01 X32.7163 Y30.7031
G01 X32.7276 Y30.6959
G01 X32.7392 Y30.6893
G01 X32.7512 Y30.6833
G01 X32.7634 Y30.6779
G01 X32.7823 Y30.6709
G01 X32.7951 Y30.6671
G01 X32.8074 Y30.6640
G01 X32.8193 Y30.6600
G01 X32.8322 Y30.6563
G01 X32.8452 Y30.6532
G01 X32.8584 Y30.6508
G01 X32.8717 Y30.6491
G01 X32.8850 Y30.6480
G01 X32.8984 Y30.6476
G01 X32.9177 Y30.6482
G01 X32.9308 Y30.6476
G01 X32.9444 Y30.6477
G01 X32.9647 Y30.6492
G01 X32.9848 Y30.6522
G01 X33.0047 Y30.6567
G01 X33.0512 Y30.6703
G01 X33.0693 Y30.6768
G01 X33.0943 Y30.6880
G01 X33.1065 Y30.6943
G01 X33.1242 Y30.7050
G01 X33.1660 Y30.7339
G01 X33.1825 Y30.7463
G01 X33.1929 Y30.7553
G01 X33.2029 Y30.7647
G01 X33.2731 Y30.8349
G01 X33.3725 Y30.8974
G01 X33.4833 Y30.9362
G01 X33.5707 Y30.9460
G01 X34.5293 Y30.9460
G01 X34.6167 Y30.9362
G01 X34.7275 Y30.8974
G01 X34.8269 Y30.8349
G01 X34.9099 Y30.7519
G01 X34.9724 Y30.6525
G01 X35.0112 Y30.5417
G01 X35.0210 Y30.4543
G01 X35.0211 Y30.0623
G01 X35.0217 Y30.0495
G01 X35.0229 Y30.0367
G01 X35.0248 Y30.0240
G01 X35.0286 Y30.0052
G01 X35.0320 Y29.9928
G01 X35.0516 Y29.9258
G01 X35.0581 Y29.9066
G01 X35.0631 Y29.8941
G01 X35.0688 Y29.8819
G01 X35.0784 Y29.8642
G01 X35.0856 Y29.8528
G01 X35.0974 Y29.8364
G01 X35.1104 Y29.8209
G01 X35.1196 Y29.8112
G01 X35.1569 Y29.7739
G01 X35.1662 Y29.7651
G01 X35.1759 Y29.7567
G01 X35.1911 Y29.7449
G01 X35.2017 Y29.7378
G01 X35.4416 Y29.5835
G01 X35.4582 Y29.5737
G01 X35.4696 Y29.5678
G01 X35.4812 Y29.5625
G01 X35.4992 Y29.5556
G01 X35.5114 Y29.5517
G01 X35.5784 Y29.5320
G01 X35.5908 Y29.5286
G01 X35.6034 Y29.5259
G01 X35.6160 Y29.5238
G01 X35.6288 Y29.5223
G01 X35.6480 Y29.5211
G01 X36.0513 Y29.5210
G01 X36.1520 Y29.5010
G01 X36.2468 Y29.4617
G01 X36.3321 Y29.4047
G01 X36.4049 Y29.3320
G01 X36.4136 Y29.3201
G01 X36.4217 Y29.3102
G01 X36.4495 Y29.2791
G01 X36.4583 Y29.2698
G01 X36.4723 Y29.2566
G01 X36.4984 Y29.2348
G01 X36.5089 Y29.2268
G01 X36.5199 Y29.2194
G01 X36.5311 Y29.2125
G01 X36.5427 Y29.2061
G01 X36.6089 Y29.1741
G01 X36.6210 Y29.1690
G01 X36.6397 Y29.1623
G01 X36.6589 Y29.1571
G01 X36.6855 Y29.1518
G01 X36.7245 Y29.1475
G01 X36.7452 Y29.1461
G01 X37.3293 Y29.1460
G01 X37.4167 Y29.1362
G01 X37.5275 Y29.0974
G01 X37.6269 Y29.0349
G01 X37.7099 Y28.9519
G01 X37.7724 Y28.8525
G01 X37.8112 Y28.7417
G01 X37.8210 Y28.6543
G01 X37.8210 Y27.3457
G01 X37.8112 Y27.2583
G01 X37.7737 Y27.1511
G01 X37.7692 Y27.1375
G01 X37.4561 Y26.4763
G01 X37.4511 Y26.4641
G01 X37.4466 Y26.4516
G01 X37.4411 Y26.4325
G01 X37.4262 Y26.3665
G01 X37.4240 Y26.3535
G01 X37.4223 Y26.3404
G01 X37.4214 Y26.3271
G01 X37.4210 Y26.3139
G01 X37.4210 Y24.0461
G01 X37.4214 Y24.0334
G01 X37.4230 Y24.0145
G01 X37.4288 Y23.9733
G01 X37.4309 Y23.9607
G01 X37.4352 Y23.9419
G01 X37.4444 Y23.9105
G01 X37.4485 Y23.8977
G01 X37.4559 Y23.8789
G01 X37.4646 Y23.8607
G01 X37.4712 Y23.8490
G01 X37.5025 Y23.7962
G01 X37.5134 Y23.7792
G01 X37.5214 Y23.7684
G01 X37.5300 Y23.7580
G01 X37.5390 Y23.7480
G01 X39.1800 Y22.1068
G01 X39.1898 Y22.0976
G01 X39.2000 Y22.0888
G01 X39.2404 Y22.0585
G01 X39.2571 Y22.0472
G01 X39.2746 Y22.0371
G01 X40.2609 Y21.5165
G01 X40.2786 Y21.5080
G01 X40.2968 Y21.5008
G01 X40.3093 Y21.4967
G01 X40.3219 Y21.4933
G01 X40.3861 Y21.4774
G01 X40.3990 Y21.4749
G01 X40.4184 Y21.4723
G01 X40.4315 Y21.4714
G01 X40.4445 Y21.4710
G01 X40.6543 Y21.4710
G01 X40.7417 Y21.4612
G01 X40.8525 Y21.4224
G01 X40.9519 Y21.3599
G01 X41.0349 Y21.2769
G01 X41.0974 Y21.1775
G01 X41.1362 Y21.0667
G01 X41.1460 Y20.9793
G01 X41.1460 Y20.1207
G01 X41.1362 Y20.0333
G01 X41.0974 Y19.9225
G01 X41.0349 Y19.8231
G01 X40.9519 Y19.7401
G01 X40.8525 Y19.6776
G01 X40.7417 Y19.6388
G01 X40.6572 Y19.6293
G01 X39.3455 Y19.6290
G01 X39.2583 Y19.6388
G01 X39.1475 Y19.6776
G01 X39.0481 Y19.7401
G01 X38.9651 Y19.8231
G01 X38.9026 Y19.9225
G01 X38.8638 Y20.0333
G01 X38.8540 Y20.1207
G01 X38.8540 Y20.3594
G01 X38.8536 Y20.3727
G01 X38.8524 Y20.3939
G01 X38.8510 Y20.4074
G01 X38.8477 Y20.4274
G01 X38.8446 Y20.4407
G01 X38.8322 Y20.4872
G01 X38.8281 Y20.4993
G01 X38.8234 Y20.5113
G01 X38.5063 Y21.2686
G01 X38.4977 Y21.2863
G01 X38.4912 Y21.2976
G01 X38.4842 Y21.3087
G01 X38.4537 Y21.3539
G01 X38.4459 Y21.3644
G01 X38.4376 Y21.3745
G01 X38.4242 Y21.3889
G01 X36.4953 Y23.3179
G01 X36.4383 Y23.4032
G01 X36.3990 Y23.4980
G01 X36.3790 Y23.5987
G01 X36.3790 Y26.3139
G01 X36.3782 Y26.3338
G01 X36.3769 Y26.3469
G01 X36.3750 Y26.3600
G01 X36.3724 Y26.3730
G01 X36.3605 Y26.4261
G01 X36.3572 Y26.4389
G01 X36.3512 Y26.4579
G01 X36.3439 Y26.4763
G01 X36.0283 Y27.1428
G01 X36.0025 Y27.2137
G01 X35.9959 Y27.2372
G01 X35.9888 Y27.2583
G01 X35.9790 Y27.3457
G01 X35.9790 Y28.0034
G01 X35.9786 Y28.0175
G01 X35.9766 Y28.0387
G01 X35.9714 Y28.0779
G01 X35.9688 Y28.0918
G01 X35.9655 Y28.1056
G01 X35.9571 Y28.1363
G01 X35.9510 Y28.1545
G01 X35.9462 Y28.1664
G01 X35.9409 Y28.1781
G01 X35.9350 Y28.1894
G01 X35.9153 Y28.2222
G01 X35.9000 Y28.2502
G01 X35.8898 Y28.2665
G01 X35.8784 Y28.2820
G01 X35.8703 Y28.2919
G01 X35.8616 Y28.3014
G01 X35.8470 Y28.3161
G01 X35.8375 Y28.3247
G01 X35.8276 Y28.3329
G01 X35.8173 Y28.3406
G01 X35.8067 Y28.3477
G01 X35.7957 Y28.3544
G01 X35.7288 Y28.3910
G01 X35.7109 Y28.4000
G01 X35.6985 Y28.4052
G01 X35.6796 Y28.4119
G01 X35.6667 Y28.4155
G01 X35.6537 Y28.4185
G01 X35.6405 Y28.4209
G01 X35.6272 Y28.4226
G01 X35.6139 Y28.4236
G01 X35.6005 Y28.4240
G01 X35.5805 Y28.4233
G01 X35.5042 Y28.4178
G01 X35.4910 Y28.4162
G01 X35.4780 Y28.4140
G01 X35.4587 Y28.4094
G01 X35.4460 Y28.4056
G01 X35.4336 Y28.4012
G01 X35.4213 Y28.3961
G01 X35.3856 Y28.3786
G01 X35.3729 Y28.3718
G01 X35.3606 Y28.3643
G01 X35.1964 Y28.2587
G01 X35.1808 Y28.2474
G01 X35.1710 Y28.2392
G01 X35.1569 Y28.2261
G01 X35.1480 Y28.2168
G01 X35.0937 Y28.1541
G01 X35.0814 Y28.1380
G01 X35.0704 Y28.1211
G01 X35.0638 Y28.1093
G01 X35.0550 Y28.0912
G01 X35.0499 Y28.0787
G01 X35.0434 Y28.0596
G01 X35.0384 Y28.0400
G01 X35.0272 Y27.9885
G01 X35.0238 Y27.9696
G01 X35.0223 Y27.9569
G01 X35.0213 Y27.9441
G01 X35.0210 Y27.9313
G01 X35.0210 Y27.5457
G01 X35.0112 Y27.4583
G01 X34.9724 Y27.3475
G01 X34.9099 Y27.2481
G01 X34.8269 Y27.1651
G01 X34.7275 Y27.1026
G01 X34.6167 Y27.0638
G01 X34.5293 Y27.0540
G01 X33.5707 Y27.0540
G01 X33.4833 Y27.0638
G01 X33.3725 Y27.1026
G01 X33.2731 Y27.1651
G01 X33.2053 Y27.2328
G01 X33.1960 Y27.2417
G01 X33.1863 Y27.2501
G01 X33.1480 Y27.2791
G01 X33.1376 Y27.2866
G01 X33.1213 Y27.2968
G01 X33.1001 Y27.3084
G01 X33.0827 Y27.3166
G01 X33.0708 Y27.3213
G01 X33.0587 Y27.3255
G01 X33.0401 Y27.3307
G01 X32.9656 Y27.3470
G01 X32.9525 Y27.3495
G01 X32.9392 Y27.3514
G01 X32.9259 Y27.3526
G01 X32.9058 Y27.3531
G01 X32.8858 Y27.3522
G01 X32.8725 Y27.3508
G01 X32.8593 Y27.3487
G01 X32.8397 Y27.3443
G01 X32.8205 Y27.3384
G01 X32.7487 Y27.3118
G01 X32.7302 Y27.3041
G01 X32.7182 Y27.2982
G01 X32.7007 Y27.2882
G01 X32.6895 Y27.2809
G01 X32.6787 Y27.2730
G01 X32.6633 Y27.2602
G01 X32.6535 Y27.2510
G01 X32.6442 Y27.2414
G01 X32.6354 Y27.2313
G01 X32.6272 Y27.2208
G01 X32.5853 Y27.1648
G01 X32.5773 Y27.1536
G01 X32.5665 Y27.1360
G01 X32.5569 Y27.1174
G01 X32.5485 Y27.0975
G01 X32.5435 Y27.0839
G01 X32.5394 Y27.0708
G01 X32.5344 Y27.0507
G01 X32.5242 Y26.9939
G01 X32.5218 Y26.9734
G01 X32.5210 Y26.9528
G01 X32.5210 Y22.0465
G01 X32.5214 Y22.0330
G01 X32.5224 Y22.0196
G01 X32.5240 Y22.0063
G01 X32.5264 Y21.9931
G01 X32.5294 Y21.9800
G01 X32.5512 Y21.9024
G01 X32.5578 Y21.8834
G01 X32.5659 Y21.8650
G01 X32.5720 Y21.8530
G01 X32.5787 Y21.8414
G01 X32.7789 Y21.5137
G01 X32.7908 Y21.4968
G01 X32.8040 Y21.4808
G01 X32.8135 Y21.4707
G01 X32.8533 Y21.4303
G01 X32.8633 Y21.4208
G01 X32.8791 Y21.4074
G01 X32.8902 Y21.3992
G01 X32.9017 Y21.3915
G01 X32.9519 Y21.3599
G01 X33.0349 Y21.2769
G01 X33.0974 Y21.1775
G01 X33.1362 Y21.0667
G01 X33.1460 Y20.9793
G01 X33.1460 Y20.1207
G01 X33.1362 Y20.0333
G01 X33.0974 Y19.9225
G01 X33.0349 Y19.8231
G01 X32.9519 Y19.7401
G01 X32.8525 Y19.6776
G01 X32.7417 Y19.6388
G01 X32.6572 Y19.6293
G01 X31.3455 Y19.6290
G01 X31.2583 Y19.6388
G01 X31.1475 Y19.6776
G01 X31.0481 Y19.7401
G01 X30.9651 Y19.8231
G01 X30.9026 Y19.9225
G01 X30.8638 Y20.0333
G01 X30.8540 Y20.1207
G01 X30.8540 Y20.9793
G01 X30.8638 Y21.0667
G01 X30.9026 Y21.1775
G01 X30.9651 Y21.2769
G01 X31.0481 Y21.3599
G01 X31.0983 Y21.3915
G01 X31.1098 Y21.3992
G01 X31.1209 Y21.4074
G01 X31.1367 Y21.4208
G01 X31.1467 Y21.4303
G01 X31.1865 Y21.4707
G01 X31.1960 Y21.4808
G01 X31.2092 Y21.4968
G01 X31.2211 Y21.5137
G01 X31.4213 Y21.8414
G01 X31.4280 Y21.8530
G01 X31.4341 Y21.8650
G01 X31.4422 Y21.8834
G01 X31.4488 Y21.9024
G01 X31.4706 Y21.9800
G01 X31.4736 Y21.9931
G01 X31.4760 Y22.0063
G01 X31.4776 Y22.0196
G01 X31.4789 Y22.0397
G01 X31.4789 Y22.7808
G01 X31.4783 Y22.7936
G01 X31.4771 Y22.8064
G01 X31.4712 Y22.8476
G01 X31.4691 Y22.8603
G01 X31.4648 Y22.8790
G01 X31.4598 Y22.8961
G01 X31.4559 Y22.9083
G01 X31.4515 Y22.9203
G01 X31.4464 Y22.9321
G01 X31.4386 Y22.9478
G01 X31.4310 Y22.9657
G01 X31.4219 Y22.9836
G01 X31.4151 Y22.9951
G01 X31.4077 Y23.0063
G01 X31.3998 Y23.0171
G01 X31.3914 Y23.0274
G01 X31.3783 Y23.0417
G01 X31.3704 Y23.0516
G01 X31.3616 Y23.0616
G01 X31.3523 Y23.0712
G01 X31.3375 Y23.0847
G01 X31.3270 Y23.0931
G01 X31.3162 Y23.1010
G01 X31.3050 Y23.1083
G01 X31.2940 Y23.1147
G01 X31.2837 Y23.1219
G01 X31.2724 Y23.1291
G01 X31.2608 Y23.1357
G01 X31.2488 Y23.1417
G01 X31.2366 Y23.1471
G01 X31.2241 Y23.1519
G01 X31.2114 Y23.1561
G01 X31.1927 Y23.1610
G01 X31.1743 Y23.1670
G01 X31.1613 Y23.1703
G01 X31.1482 Y23.1731
G01 X31.1350 Y23.1751
G01 X31.1217 Y23.1765
G01 X31.1017 Y23.1774
G01 X31.0824 Y23.1768
G01 X31.0692 Y23.1774
G01 X31.0556 Y23.1773
G01 X31.0353 Y23.1758
G01 X31.0219 Y23.1740
G01 X31.0085 Y23.1715
G01 X30.9953 Y23.1683
G01 X30.9488 Y23.1547
G01 X30.9307 Y23.1482
G01 X30.9057 Y23.1370
G01 X30.8875 Y23.1273
G01 X30.8758 Y23.1200
G01 X30.8340 Y23.0911
G01 X30.8175 Y23.0787
G01 X30.8020 Y23.0651
G01 X26.5122 Y18.7753
G01 X26.4268 Y18.7183
G01 X26.3320 Y18.6790
G01 X26.2313 Y18.6590
G01 X22.2254 Y18.6590
G01 X22.2062 Y18.6583
G01 X22.1934 Y18.6571
G01 X22.1458 Y18.6502
G01 X22.1332 Y18.6478
G01 X22.1208 Y18.6448
G01 X22.0932 Y18.6367
G01 X22.0751 Y18.6307
G01 X22.0575 Y18.6235
G01 X22.0405 Y18.6150
G01 X21.9793 Y18.5798
G01 X21.9686 Y18.5730
G01 X21.9532 Y18.5618
G01 X21.9386 Y18.5496
G01 X21.9262 Y18.5379
G01 X21.9175 Y18.5288
G01 X21.9066 Y18.5167
G01 X21.8871 Y18.4935
G01 X21.8551 Y18.4497
G01 X21.7303 Y18.3249
G01 X21.5812 Y18.2166
G01 X21.5701 Y18.2081
G01 X21.5595 Y18.1990
G01 X21.5303 Y18.1723
G01 X21.5207 Y18.1622
G01 X21.5037 Y18.1434
G01 X21.4956 Y18.1335
G01 X21.4843 Y18.1179
G01 X21.4774 Y18.1071
G01 X21.4680 Y18.0903
G01 X21.4348 Y18.0216
G01 X21.4292 Y18.0094
G01 X21.4221 Y17.9907
G01 X21.4182 Y17.9779
G01 X21.4148 Y17.9649
G01 X21.4111 Y17.9452
G01 X21.4094 Y17.9320
G01 X21.4081 Y17.9119
G01 X21.4080 Y17.8985
G01 X21.4087 Y17.8852
G01 X21.4099 Y17.8719
G01 X21.4196 Y17.7942
G01 X21.3338 Y17.7084
G01 X21.3122 Y17.7148
G01 X21.2313 Y17.7351
G01 X21.2184 Y17.7379
G01 X21.2054 Y17.7402
G01 X21.1229 Y17.7525
G01 X21.1097 Y17.7541
G01 X21.0965 Y17.7550
G01 X21.0132 Y17.7591
G01 X21.0000 Y17.7595
G01 X20.9868 Y17.7591
G01 X20.9035 Y17.7550
G01 X20.8903 Y17.7541
G01 X20.8771 Y17.7525
G01 X20.7946 Y17.7402
G01 X20.7816 Y17.7379
G01 X20.7687 Y17.7351
G01 X20.6878 Y17.7148
G01 X20.6662 Y17.7084
G01 X20.5807 Y17.7940
G01 X20.5850 Y17.8092
G01 X20.5880 Y17.8222
G01 X20.5912 Y17.8420
G01 X20.5925 Y17.8554
G01 X20.5932 Y17.8754
G01 X20.5928 Y17.8888
G01 X20.5911 Y17.9088
G01 X20.5891 Y17.9220
G01 X20.5726 Y18.0033
G01 X20.5695 Y18.0158
G01 X20.5657 Y18.0280
G01 X20.5591 Y18.0461
G01 X20.5511 Y18.0636
G01 X20.5387 Y18.0866
G01 X20.5274 Y18.1040
G01 X20.5148 Y18.1205
G01 X20.4781 Y18.1647
G01 X20.4687 Y18.1749
G01 X20.4537 Y18.1893
G01 X20.4410 Y18.2000
G01 X20.4265 Y18.2110
G01 X20.2697 Y18.3249
G01 X20.1449 Y18.4497
G01 X20.0412 Y18.5924
G01 X19.9611 Y18.7497
G01 X19.9066 Y18.9175
G01 X19.8790 Y19.0918
G01 X19.8790 Y19.2682
G01 X19.9066 Y19.4425
G01 X19.9611 Y19.6103
G01 X20.0412 Y19.7676
G01 X20.1449 Y19.9103
G01 X20.2697 Y20.0351
G01 X20.3882 Y20.1212
G01 X20.3982 Y20.1288
G01 X20.4081 Y20.1371
G01 X20.4176 Y20.1460
G01 X20.4475 Y20.1751
G01 X20.4605 Y20.1893
G01 X20.4685 Y20.1993
G01 X20.4846 Y20.2206
G01 X20.4950 Y20.2367
G01 X20.5013 Y20.2479
G01 X20.5071 Y20.2594
G01 X20.5123 Y20.2711
G01 X20.5401 Y20.3421
G01 X20.5446 Y20.3547
G01 X20.5503 Y20.3740
G01 X20.5544 Y20.3936
G01 X20.5571 Y20.4135
G01 X20.5584 Y20.4335
G01 X20.5583 Y20.4469
G01 X20.5577 Y20.4603
G01 X20.5554 Y20.4802
G01 X20.5531 Y20.4934
G01 X20.5379 Y20.5681
G01 X20.5347 Y20.5806
G01 X20.5310 Y20.5929
G01 X20.5243 Y20.6109
G01 X20.5163 Y20.6284
G01 X20.5035 Y20.6523
G01 X20.4923 Y20.6695
G01 X20.4799 Y20.6858
G01 X20.4387 Y20.7335
G01 X20.4295 Y20.7436
G01 X20.4147 Y20.7578
G01 X20.4043 Y20.7667
G01 X20.3934 Y20.7750
G01 X20.2697 Y20.8649
G01 X20.1449 Y20.9897
G01 X20.1174 Y21.0275
G01 X20.1051 Y21.0424
G01 X20.0718 Y21.0771
G01 X20.0579 Y21.0904
G01 X20.0482 Y21.0987
G01 X20.0204 Y21.1201
G01 X20.0100 Y21.1274
G01 X19.9938 Y21.1373
G01 X19.9769 Y21.1461
G01 X19.9125 Y21.1750
G01 X19.9007 Y21.1796
G01 X19.8886 Y21.1837
G01 X19.8703 Y21.1887
G01 X19.8579 Y21.1914
G01 X19.8411 Y21.1942
G01 X19.8251 Y21.1961
G01 X19.8037 Y21.1980
G01 X19.7885 Y21.1989
G01 X19.2287 Y21.1990
G01 X19.1280 Y21.2190
G01 X19.0332 Y21.2583
G01 X18.9479 Y21.3153
G01 X15.9053 Y24.3579
G01 X15.8483 Y24.4432
G01 X15.8090 Y24.5380
G01 X15.7890 Y24.6387
G01 X15.7890 Y38.2094
G01 X15.7882 Y38.2293
G01 X15.7869 Y38.2425
G01 X15.7850 Y38.2556
G01 X15.7729 Y38.3160
G01 X15.7679 Y38.3352
G01 X15.7637 Y38.3478
G01 X15.7589 Y38.3602
G01 X15.4034 Y39.2174
G01 X15.3954 Y39.2349
G01 X15.3862 Y39.2518
G01 X15.3758 Y39.2680
G01 X15.3643 Y39.2833
G01 X15.3204 Y39.3377
G01 X15.3072 Y39.3529
G01 X15.2930 Y39.3670
G01 X15.2829 Y39.3758
G01 X15.2724 Y39.3841
G01 X15.2615 Y39.3919
G01 X15.2502 Y39.3991
G01 X15.2327 Y39.4088
G01 X15.2206 Y39.4146
G01 X15.2083 Y39.4197
G01 X15.1957 Y39.4243
G01 X15.1294 Y39.4463
G01 X15.1101 Y39.4519
G01 X15.0970 Y39.4549
G01 X15.0839 Y39.4572
G01 X15.0706 Y39.4588
G01 X15.0572 Y39.4598
G01 X15.0438 Y39.4601
G01 X15.0305 Y39.4597
G01 X15.0171 Y39.4587
G01 X15.0038 Y39.4570
G01 X14.9907 Y39.4547
G01 X14.9776 Y39.4517
G01 X14.9099 Y39.4344
G01 X14.8971 Y39.4307
G01 X14.8844 Y39.4265
G01 X14.8719 Y39.4216
G01 X14.8597 Y39.4160
G01 X14.8478 Y39.4099
G01 X14.8362 Y39.4033
G01 X14.8250 Y39.3960
G01 X14.8088 Y39.3841
G01 X14.7936 Y39.3710
G01 X14.7794 Y39.3568
G01 X14.7273 Y39.3007
G01 X14.7147 Y39.2853
G01 X14.7032 Y39.2690
G01 X14.6962 Y39.2577
G01 X14.6898 Y39.2460
G01 X14.6840 Y39.2341
G01 X14.6766 Y39.2174
G01 X14.3186 Y38.3540
G01 X14.3141 Y38.3416
G01 X14.3086 Y38.3225
G01 X14.3057 Y38.3096
G01 X14.2962 Y38.2621
G01 X14.2940 Y38.2490
G01 X14.2923 Y38.2359
G01 X14.2911 Y38.2161
G01 X14.2910 Y18.7187
G01 X14.2710 Y18.6180
G01 X14.2317 Y18.5232
G01 X14.1747 Y18.4379
G01 X9.4322 Y13.6953
G01 X9.3468 Y13.6383
G01 X9.2520 Y13.5990
G01 X9.1513 Y13.5790
G01 X6.9854 Y13.5790
G01 X6.9662 Y13.5783
G01 X6.9534 Y13.5771
G01 X6.9122 Y13.5712
G01 X6.8995 Y13.5691
G01 X6.8808 Y13.5648
G01 X6.8411 Y13.5529
G01 X6.8233 Y13.5460
G01 X6.8061 Y13.5379
G01 X6.7949 Y13.5319
G01 X6.7393 Y13.4998
G01 X6.7233 Y13.4894
G01 X6.7132 Y13.4818
G01 X6.6986 Y13.4696
G01 X6.6862 Y13.4579
G01 X6.6708 Y13.4415
G01 X6.6518 Y13.4195
G01 X6.6425 Y13.4074
G01 X6.6151 Y13.3697
G01 X6.4903 Y13.2449
G01 X6.4772 Y13.2349
G01 X6.4617 Y13.2214
G01 X6.4478 Y13.2073
G01 X6.4310 Y13.1919
G01 X6.4177 Y13.1775
G01 X6.4094 Y13.1674
G01 X6.3970 Y13.1512
G01 X6.3897 Y13.1406
G01 X6.3828 Y13.1298
G01 X6.3736 Y13.1129
G01 X6.3569 Y13.0779
G01 X6.3455 Y13.0491
G01 X6.3391 Y13.0277
G01 X6.3312 Y13.0054
G01 X6.3276 Y12.9925
G01 X6.3247 Y12.9795
G01 X6.3215 Y12.9597
G01 X6.3197 Y12.9397
G01 X6.3194 Y12.9263
G01 X6.3198 Y12.9129
G01 X6.3216 Y12.8929
G01 X6.3244 Y12.8754
G01 X6.3261 Y12.8570
G01 X6.3281 Y12.8437
G01 X6.3324 Y12.8241
G01 X6.3360 Y12.8112
G01 X6.3395 Y12.8009
G01 X6.3453 Y12.7787
G01 X6.3519 Y12.7598
G01 X6.3571 Y12.7474
G01 X6.3629 Y12.7354
G01 X6.3693 Y12.7236
G01 X6.3763 Y12.7122
G01 X6.3877 Y12.6958
G01 X6.4014 Y12.6791
G01 X6.4106 Y12.6662
G01 X6.4189 Y12.6558
G01 X6.4278 Y12.6457
G01 X6.4371 Y12.6361
G01 X6.4470 Y12.6270
G01 X6.4572 Y12.6184
G01 X6.4701 Y12.6088
G01 X6.4869 Y12.5947
G01 X6.4972 Y12.5871
G01 X6.5133 Y12.5767
G01 X6.5278 Y12.5686
G01 X6.5401 Y12.5624
G01 X6.5528 Y12.5569
G01 X6.5711 Y12.5502
G01 X6.5869 Y12.5434
G01 X6.5995 Y12.5388
G01 X6.6123 Y12.5348
G01 X6.6252 Y12.5315
G01 X6.6449 Y12.5277
G01 X6.6582 Y12.5260
G01 X6.6683 Y12.5252
G01 X6.6875 Y12.5225
G01 X6.7013 Y12.5214
G01 X6.7151 Y12.5210
G01 X20.0372 Y12.5210
G01 X20.0501 Y12.5213
G01 X20.0692 Y12.5229
G01 X20.1105 Y12.5288
G01 X20.1232 Y12.5309
G01 X20.1357 Y12.5337
G01 X20.1481 Y12.5370
G01 X20.1651 Y12.5420
G01 X20.1772 Y12.5462
G01 X20.1891 Y12.5510
G01 X20.2008 Y12.5563
G01 X20.2122 Y12.5622
G01 X20.2233 Y12.5686
G01 X20.2875 Y12.6098
G01 X20.3040 Y12.6213
G01 X20.3145 Y12.6296
G01 X20.3294 Y12.6430
G01 X20.3433 Y12.6575
G01 X20.3519 Y12.6677
G01 X20.3600 Y12.6784
G01 X20.3676 Y12.6894
G01 X20.3746 Y12.7008
G01 X20.3811 Y12.7125
G01 X20.3869 Y12.7245
G01 X20.4160 Y12.7881
G01 X20.4212 Y12.8004
G01 X20.4258 Y12.8130
G01 X20.4299 Y12.8257
G01 X20.4332 Y12.8387
G01 X20.4359 Y12.8518
G01 X20.4380 Y12.8650
G01 X20.4394 Y12.8783
G01 X20.4402 Y12.8917
G01 X20.4400 Y12.9117
G01 X20.4391 Y12.9251
G01 X20.4376 Y12.9384
G01 X20.4266 Y13.0139
G01 X20.4242 Y13.0265
G01 X20.4212 Y13.0390
G01 X20.4155 Y13.0574
G01 X20.4086 Y13.0753
G01 X20.4017 Y13.0903
G01 X20.3919 Y13.1086
G01 X20.3807 Y13.1260
G01 X20.3725 Y13.1372
G01 X20.3283 Y13.1914
G01 X20.3145 Y13.2070
G01 X20.3047 Y13.2167
G01 X20.2944 Y13.2260
G01 X20.2836 Y13.2347
G01 X20.2697 Y13.2449
G01 X20.1449 Y13.3697
G01 X20.0412 Y13.5124
G01 X19.9611 Y13.6697
G01 X19.9066 Y13.8375
G01 X19.8790 Y14.0118
G01 X19.8790 Y14.1882
G01 X19.9066 Y14.3625
G01 X19.9611 Y14.5303
G01 X20.0412 Y14.6876
G01 X20.1449 Y14.8303
G01 X20.2697 Y14.9551
G01 X20.4188 Y15.0634
G01 X20.4299 Y15.0719
G01 X20.4405 Y15.0810
G01 X20.4647 Y15.1028
G01 X20.4793 Y15.1178
G01 X20.5004 Y15.1416
G01 X20.5083 Y15.1517
G01 X20.5157 Y15.1621
G01 X20.5259 Y15.1785
G01 X20.5320 Y15.1897
G01 X20.5681 Y15.2645
G01 X20.5733 Y15.2768
G01 X20.5779 Y15.2893
G01 X20.5836 Y15.3086
G01 X20.5866 Y15.3216
G01 X20.5899 Y15.3414
G01 X20.5912 Y15.3547
G01 X20.5919 Y15.3681
G01 X20.5917 Y15.3882
G01 X20.5901 Y15.4082
G01 X20.5804 Y15.4858
G01 X20.6662 Y15.5716
G01 X20.6878 Y15.5652
G01 X20.7687 Y15.5449
G01 X20.7816 Y15.5421
G01 X20.7946 Y15.5398
G01 X20.8771 Y15.5275
G01 X20.8903 Y15.5259
G01 X20.9035 Y15.5250
G01 X20.9868 Y15.5209
G01 X21.0000 Y15.5205
G01 X21.0132 Y15.5209
G01 X21.0965 Y15.5250
G01 X21.1097 Y15.5259
G01 X21.1229 Y15.5275
G01 X21.2054 Y15.5398
G01 X21.2184 Y15.5421
G01 X21.2313 Y15.5449
G01 X21.3122 Y15.5652
G01 X21.3338 Y15.5716
G01 X21.4193 Y15.4860
G01 X21.4150 Y15.4708
G01 X21.4120 Y15.4578
G01 X21.4097 Y15.4446
G01 X21.4075 Y15.4246
G01 X21.4068 Y15.4046
G01 X21.4072 Y15.3912
G01 X21.4082 Y15.3779
G01 X21.4109 Y15.3580
G01 X21.4274 Y15.2767
G01 X21.4305 Y15.2642
G01 X21.4343 Y15.2519
G01 X21.4409 Y15.2339
G01 X21.4489 Y15.2164
G01 X21.4613 Y15.1934
G01 X21.4726 Y15.1760
G01 X21.4852 Y15.1595
G01 X21.5219 Y15.1153
G01 X21.5312 Y15.1051
G01 X21.5462 Y15.0908
G01 X21.5589 Y15.0801
G01 X21.5735 Y15.0690
G01 X21.7303 Y14.9551
G01 X21.8551 Y14.8303
G01 X21.9588 Y14.6876
G01 X22.0389 Y14.5303
G01 X22.0934 Y14.3625
G01 X22.1210 Y14.1882
G01 X22.1210 Y14.0118
G01 X22.0934 Y13.8375
G01 X22.0389 Y13.6697
G01 X21.9588 Y13.5125
G01 X21.8551 Y13.3697
G01 X21.7303 Y13.2449
G01 X21.7172 Y13.2349
G01 X21.7067 Y13.2260
G01 X21.6967 Y13.2166
G01 X21.6878 Y13.2073
G01 X21.6710 Y13.1919
G01 X21.6620 Y13.1824
G01 X21.6535 Y13.1725
G01 X21.6333 Y13.1459
G01 X21.6228 Y13.1298
G01 X21.6165 Y13.1186
G01 X21.5969 Y13.0779
G01 X21.5855 Y13.0491
G01 X21.5791 Y13.0277
G01 X21.5712 Y13.0054
G01 X21.5661 Y12.9860
G01 X21.5624 Y12.9663
G01 X21.5602 Y12.9463
G01 X21.5594 Y12.9263
G01 X21.5598 Y12.9129
G01 X21.5608 Y12.8996
G01 X21.5625 Y12.8863
G01 X21.5644 Y12.8754
G01 X21.5661 Y12.8570
G01 X21.5694 Y12.8372
G01 X21.5724 Y12.8241
G01 X21.5760 Y12.8112
G01 X21.5795 Y12.8009
G01 X21.5834 Y12.7851
G01 X21.5873 Y12.7724
G01 X21.5944 Y12.7536
G01 X21.6029 Y12.7354
G01 X21.6127 Y12.7179
G01 X21.6238 Y12.7011
G01 X21.6318 Y12.6905
G01 X21.6414 Y12.6791
G01 X21.6547 Y12.6609
G01 X21.6633 Y12.6507
G01 X21.6771 Y12.6361
G01 X21.6870 Y12.6270
G01 X21.6972 Y12.6184
G01 X21.7101 Y12.6088
G01 X21.7269 Y12.5947
G01 X21.7372 Y12.5871
G01 X21.7533 Y12.5767
G01 X21.7678 Y12.5686
G01 X21.7801 Y12.5624
G01 X21.7928 Y12.5569
G01 X21.8111 Y12.5502
G01 X21.8207 Y12.5459
G01 X21.8332 Y12.5410
G01 X21.8458 Y12.5367
G01 X21.8587 Y12.5330
G01 X21.8718 Y12.5300
G01 X21.8849 Y12.5277
G01 X21.8982 Y12.5260
G01 X21.9083 Y12.5252
G01 X21.9275 Y12.5225
G01 X21.9413 Y12.5214
G01 X21.9551 Y12.5210
G01 X23.9535 Y12.5210
G01 X23.9737 Y12.5218
G01 X23.9937 Y12.5240
G01 X24.0069 Y12.5264
G01 X24.0200 Y12.5294
G01 X24.0972 Y12.5511
G01 X24.1093 Y12.5551
G01 X24.1213 Y12.5597
G01 X24.1329 Y12.5649
G01 X24.1454 Y12.5712
G01 X24.1586 Y12.5787
G01 X24.4747 Y12.7718
G01 X24.4856 Y12.7793
G01 X24.4962 Y12.7873
G01 X24.5064 Y12.7958
G01 X24.5208 Y12.8094
G01 X24.5707 Y12.8626
G01 X24.5795 Y12.8725
G01 X24.5878 Y12.8828
G01 X24.5956 Y12.8936
G01 X24.6029 Y12.9046
G01 X24.6096 Y12.9161
G01 X24.9157 Y13.5023
G01 X24.9240 Y13.5218
G01 X24.9402 Y13.5677
G01 X24.9455 Y13.5862
G01 X24.9490 Y13.6020
G01 X24.9883 Y13.6968
G01 X25.0454 Y13.7823
G01 X25.0633 Y13.8017
G01 X25.0890 Y13.8330
G01 X25.1171 Y13.8610
G01 X25.1752 Y13.9124
G01 X25.1842 Y13.9210
G01 X29.1178 Y17.8547
G01 X29.2032 Y17.9117
G01 X29.2972 Y17.9507
G01 X29.3987 Y17.9710
G01 X30.3139 Y17.9710
G01 X30.3271 Y17.9714
G01 X30.3404 Y17.9723
G01 X30.3535 Y17.9740
G01 X30.3665 Y17.9762
G01 X30.4261 Y17.9895
G01 X30.4389 Y17.9928
G01 X30.4579 Y17.9988
G01 X30.4763 Y18.0061
G01 X31.1428 Y18.3217
G01 X31.2137 Y18.3475
G01 X31.2371 Y18.3541
G01 X31.2583 Y18.3612
G01 X31.3457 Y18.3710
G01 X32.6543 Y18.3710
G01 X32.7417 Y18.3612
G01 X32.8525 Y18.3224
G01 X32.9519 Y18.2599
G01 X33.0349 Y18.1769
G01 X33.0974 Y18.0775
G01 X33.1362 Y17.9667
G01 X33.1460 Y17.8793
G01 X33.1460 Y17.6407
G01 X33.1468 Y17.6206
G01 X33.1481 Y17.6074
G01 X33.1513 Y17.5876
G01 X33.1623 Y17.5332
G01 X33.1656 Y17.5202
G01 X33.1695 Y17.5075
G01 X33.1766 Y17.4887
G01 X33.4805 Y16.7626
G01 X33.4857 Y16.7509
G01 X33.4946 Y16.7338
G01 X33.5012 Y16.7228
G01 X33.5083 Y16.7121
G01 X33.5159 Y16.7018
G01 X33.5682 Y16.6374
G01 X33.5772 Y16.6274
G01 X33.5866 Y16.6179
G01 X33.5965 Y16.6089
G01 X33.6068 Y16.6004
G01 X33.6175 Y16.5924
G01 X33.6286 Y16.5849
G01 X33.6460 Y16.5748
G01 X33.6579 Y16.5688
G01 X33.6701 Y16.5634
G01 X33.6890 Y16.5564
G01 X33.7553 Y16.5346
G01 X33.7683 Y16.5307
G01 X33.7815 Y16.5274
G01 X33.7948 Y16.5248
G01 X33.8149 Y16.5222
G01 X33.8284 Y16.5213
G01 X33.8435 Y16.5210
G01 X34.6034 Y16.5210
G01 X34.6175 Y16.5214
G01 X34.6317 Y16.5225
G01 X34.6710 Y16.5276
G01 X34.6849 Y16.5299
G01 X34.7057 Y16.5346
G01 X34.7423 Y16.5448
G01 X34.7604 Y16.5513
G01 X34.7780 Y16.5591
G01 X34.7950 Y16.5681
G01 X34.8222 Y16.5847
G01 X34.8502 Y16.6000
G01 X34.8611 Y16.6067
G01 X34.8769 Y16.6177
G01 X34.8870 Y16.6256
G01 X34.8967 Y16.6340
G01 X34.9060 Y16.6429
G01 X35.0527 Y16.7896
G01 X35.0616 Y16.7989
G01 X35.0740 Y16.8136
G01 X35.0991 Y16.8469
