(G-CODE GENERATED BY FLATCAM v8.994 - www.flatcam.org - Version Date: 2020/11/7)

(Name: active_sender-B_Cu.gbr_iso_combined_ncc_cnc)
(Type: G-code from Geometry)
(Units: MM)

(Created on Monday, 29 June 2026 at 18:12)

(This preprocessor is the default preprocessor used by FlatCAM.)
(It is made to work with MACH3 compatible motion controllers.)

(TOOL DIAMETER: 0.8 mm)
(Feedrate_XY: 200.0 mm/min)
(Feedrate_Z: 60.0 mm/min)
(Feedrate rapids 1500.0 mm/min)

(Z_Cut: -0.06 mm)
(Z_Move: 2.0 mm)
(Z Start: None mm)
(Z End: 25.0 mm)
(X,Y End: 0.0000, 0.0000 mm)
(Steps per circle: 64)
(Preprocessor Geometry: Default_no_M6)

(X range:    2.9196 ...   74.8310  mm)
(Y range:    0.6310 ...   79.3690  mm)

(Spindle Speed: 12000.0 RPM)
G21
G90
G94

G01 F200.00

M5
G00 Z15.0000
G00 X0.0000 Y0.0000
T3
(MSG, Change to Tool Dia = 0.8000)
M0
G00 Z15.0000
        
M03 S12000.0
G4 P1.0
G01 F200.00
G00 X3.4109 Y12.9196
G01 F60.00
G01 Z-0.0600
G01 F200.00
G01 X3.4015 Y12.9302
G01 X2.9312 Y13.4891
G01 X2.9196 Y13.5036
G00 Z2.0000
G00 X2.9196 Y14.5317
G01 F60.00
G01 Z-0.0600
G01 F200.00
G01 X2.9794 Y14.4531
G01 X3.4260 Y13.8951
G01 X3.8861 Y13.3482
G01 X4.2651 Y12.9196
G01 X4.2539 Y13.9052
G01 X3.9207 Y14.3011
G01 X3.4839 Y14.8468
G01 X3.0607 Y15.4031
G01 X2.9196 Y15.5983
G00 Z2.0000
G00 X2.9196 Y16.7096
G01 F60.00
G01 Z-0.0600
G01 F200.00
G01 X3.1745 Y16.3381
G01 X3.5747 Y15.7843
G01 X3.9885 Y15.2406
G01 X4.3853 Y14.7448
G00 Z2.0000
G00 X4.7870 Y15.2670
G01 F60.00
G01 Z-0.0600
G01 F200.00
G01 X4.4930 Y15.6343
G01 X4.0888 Y16.1656
G01 X3.6977 Y16.7066
G01 X3.3201 Y17.2571
G01 X2.9560 Y17.8167
G01 X2.9196 Y17.8758
G00 Z2.0000
G00 X2.9196 Y19.1176
G01 F60.00
G01 Z-0.0600
G01 F200.00
G01 X3.1548 Y18.7140
G01 X3.4967 Y18.1591
G01 X3.8522 Y17.6127
G01 X4.2210 Y17.0751
G01 X4.2824 Y16.9902
G00 Z2.0000
G00 X4.6128 Y17.6353
G01 F60.00
G01 Z-0.0600
G01 F200.00
G01 X4.3843 Y17.9682
G01 X4.0374 Y18.5015
G01 X3.7037 Y19.0431
G01 X3.3834 Y19.5927
G01 X3.0766 Y20.1500
G01 X2.9196 Y20.4527
G00 Z2.0000
G00 X2.9196 Y21.9172
G01 F60.00
G01 Z-0.0600
G01 F200.00
G01 X3.0832 Y21.5600
G01 X3.3553 Y21.0024
G01 X3.6411 Y20.4517
G01 X3.9402 Y19.9081
G01 X4.2533 Y19.3711
G00 Z2.0000
G00 X4.5615 Y20.1130
G01 F60.00
G01 Z-0.0600
G01 F200.00
G01 X4.4971 Y20.2236
G01 X4.2055 Y20.7534
G01 X3.9270 Y21.2902
G01 X3.6617 Y21.8336
G01 X3.4099 Y22.3835
G01 X3.1921 Y22.8916
G01 X3.7005 Y23.3404
G01 X3.7629 Y23.1842
G01 X3.9950 Y22.6428
G01 X4.2403 Y22.1073
G01 X4.2743 Y22.0376
G00 Z2.0000
G00 X4.6479 Y22.7541
G01 F60.00
G01 Z-0.0600
G01 F200.00
G01 X4.5801 Y22.9022
G01 X4.3922 Y23.3404
G00 Z2.0000
G00 X7.7429 Y19.8601
G01 F60.00
G01 Z-0.0600
G01 F200.00
G01 X7.8838 Y19.6548
G01 X8.2012 Y19.2156
G01 X8.5097 Y18.8102
G00 Z2.0000
G00 X8.0538 Y18.3543
G01 F60.00
G01 Z-0.0600
G01 F200.00
G01 X8.0248 Y18.3905
G01 X7.6872 Y18.8343
G01 X7.3605 Y19.2862
G01 X7.2829 Y19.3994
G00 Z2.0000
G00 X7.1264 Y18.5176
G01 F60.00
G01 Z-0.0600
G01 F200.00
G01 X7.1731 Y18.4531
G01 X7.5203 Y17.9968
G01 X7.5985 Y17.8990
G01 X7.0505 Y17.5596
G01 X7.0157 Y17.6030
G01 X6.7150 Y17.9983
G00 Z2.0000
G00 X4.9260 Y17.9100
G01 F60.00
G01 Z-0.0600
G01 F200.00
G01 X4.9063 Y17.8969
G01 X4.8890 Y17.8845
G01 X4.8180 Y17.8318
G01 X4.7923 Y17.8114
G01 X4.7712 Y17.7931
G01 X4.7009 Y17.7293
G01 X4.6821 Y17.7109
G01 X4.6629 Y17.6906
G01 X4.6036 Y17.6252
G01 X4.5824 Y17.6001
G01 X4.5652 Y17.5780
G01 X4.5126 Y17.5071
G01 X4.4994 Y17.4882
G01 X4.4851 Y17.4662
G01 X4.4362 Y17.3849
G01 X4.4223 Y17.3606
G01 X4.4146 Y17.3461
G01 X4.4052 Y17.3269
G01 X4.3674 Y17.2471
G01 X4.3544 Y17.2169
G01 X4.3444 Y17.1908
G01 X4.3125 Y17.1014
G01 X4.3046 Y17.0764
G01 X4.2984 Y17.0542
G01 X4.2769 Y16.9685
G01 X4.2707 Y16.9412
G01 X4.2649 Y16.9089
G01 X4.2519 Y16.8215
G01 X4.2484 Y16.7938
G01 X4.2461 Y16.7677
G01 X4.2409 Y16.6613
G01 X4.2406 Y16.6351
G01 X4.2411 Y16.6121
G01 X4.2457 Y16.5189
G01 X4.2484 Y16.4862
G01 X4.2519 Y16.4585
G01 X4.2659 Y16.3646
G01 X4.2707 Y16.3388
G01 X4.2758 Y16.3163
G01 X4.2972 Y16.2306
G01 X4.3046 Y16.2036
G01 X4.3146 Y16.1724
G01 X4.3461 Y16.0846
G01 X4.3544 Y16.0631
G01 X4.3647 Y16.0390
G01 X4.4052 Y15.9531
G01 X4.4177 Y15.9281
G01 X4.4337 Y15.8994
G01 X4.4816 Y15.8194
G01 X4.4994 Y15.7918
G01 X4.5126 Y15.7729
G01 X4.5652 Y15.7020
G01 X4.5824 Y15.6799
G01 X4.6036 Y15.6548
G01 X4.6629 Y15.5894
G01 X4.6821 Y15.5691
G01 X4.7009 Y15.5507
G01 X4.7712 Y15.4869
G01 X4.7923 Y15.4686
G01 X4.8180 Y15.4482
G01 X4.8890 Y15.3955
G01 X4.9063 Y15.3831
G01 X4.9260 Y15.3700
G01 X4.9063 Y15.3569
G01 X4.8890 Y15.3445
G01 X4.8180 Y15.2918
G01 X4.7923 Y15.2714
G01 X4.7712 Y15.2531
G01 X4.7058 Y15.1938
G01 X4.6891 Y15.1779
G01 X4.6707 Y15.1591
G01 X4.5992 Y15.0802
G01 X4.5824 Y15.0601
G01 X4.5652 Y15.0380
G01 X4.5126 Y14.9671
G01 X4.4939 Y14.9401
G01 X4.4790 Y14.9164
G01 X4.4337 Y14.8406
G01 X4.4223 Y14.8206
G01 X4.4102 Y14.7973
G01 X4.3695 Y14.7115
G01 X4.3581 Y14.6860
G01 X4.3461 Y14.6554
G01 X4.3163 Y14.5723
G01 X4.3094 Y14.5521
G01 X4.3046 Y14.5364
G01 X4.2972 Y14.5094
G01 X4.2769 Y14.4285
G01 X4.2721 Y14.4077
G01 X4.2676 Y14.3851
G01 X4.2641 Y14.3641
G01 X4.2503 Y14.2701
G01 X4.2474 Y14.2440
G01 X4.2454 Y14.2162
G01 X4.2413 Y14.1328
G01 X4.2406 Y14.1049
G01 X4.2411 Y14.0721
G01 X4.2454 Y13.9838
G01 X4.2474 Y13.9560
G01 X4.2503 Y13.9299
G01 X4.2659 Y13.8246
G01 X4.2707 Y13.7988
G01 X4.2758 Y13.7763
G01 X4.2972 Y13.6906
G01 X4.3046 Y13.6636
G01 X4.3146 Y13.6324
G01 X4.3444 Y13.5492
G01 X4.3519 Y13.5292
G01 X4.3607 Y13.5079
G01 X4.3695 Y13.4885
G01 X4.4102 Y13.4027
G01 X4.4223 Y13.3794
G01 X4.4362 Y13.3551
G01 X4.4816 Y13.2794
G01 X4.4994 Y13.2518
G01 X4.5155 Y13.2290
G01 X4.5682 Y13.1580
G01 X4.5824 Y13.1399
G01 X4.5992 Y13.1198
G01 X4.6629 Y13.0494
G01 X4.6821 Y13.0291
G01 X4.7058 Y13.0062
G01 X4.7712 Y12.9469
G01 X4.7872 Y12.9328
G01 X4.8033 Y12.9196
G01 X3.3809 Y12.9196
G01 X2.9196 Y13.3809
G01 X2.9196 Y22.6191
G01 X3.6409 Y23.3404
G01 X4.5515 Y23.3404
G01 X4.5782 Y23.3050
G01 X4.5992 Y23.2798
G01 X4.6707 Y23.2009
G01 X4.6891 Y23.1821
G01 X4.7009 Y23.1707
G01 X4.7748 Y23.1036
G01 X4.7999 Y23.0824
G01 X4.8220 Y23.0652
G01 X4.8890 Y23.0155
G01 X4.9063 Y23.0031
G01 X4.9260 Y22.9900
G01 X4.9063 Y22.9769
G01 X4.8890 Y22.9645
G01 X4.8180 Y22.9118
G01 X4.7923 Y22.8914
G01 X4.7712 Y22.8731
G01 X4.7009 Y22.8093
G01 X4.6821 Y22.7909
G01 X4.6629 Y22.7706
G01 X4.6036 Y22.7052
G01 X4.5824 Y22.6801
G01 X4.5652 Y22.6580
G01 X4.5126 Y22.5871
G01 X4.4994 Y22.5682
G01 X4.4851 Y22.5462
G01 X4.4362 Y22.4649
G01 X4.4223 Y22.4406
G01 X4.4073 Y22.4113
G01 X4.3674 Y22.3271
G01 X4.3544 Y22.2969
G01 X4.3461 Y22.2754
G01 X4.3163 Y22.1923
G01 X4.3074 Y22.1658
G01 X4.2984 Y22.1342
G01 X4.2769 Y22.0485
G01 X4.2707 Y22.0212
G01 X4.2659 Y21.9954
G01 X4.2519 Y21.9015
G01 X4.2484 Y21.8738
G01 X4.2457 Y21.8411
G01 X4.2413 Y21.7528
G01 X4.2407 Y21.7315
G01 X4.2406 Y21.7151
G01 X4.2413 Y21.6872
G01 X4.2461 Y21.5923
G01 X4.2484 Y21.5662
G01 X4.2512 Y21.5433
G01 X4.2641 Y21.4559
G01 X4.2688 Y21.4284
G01 X4.2758 Y21.3963
G01 X4.2972 Y21.3106
G01 X4.3046 Y21.2836
G01 X4.3125 Y21.2586
G01 X4.3444 Y21.1692
G01 X4.3544 Y21.1431
G01 X4.3674 Y21.1129
G01 X4.4052 Y21.0331
G01 X4.4146 Y21.0139
G01 X4.4223 Y20.9994
G01 X4.4362 Y20.9751
G01 X4.4851 Y20.8938
G01 X4.4994 Y20.8718
G01 X4.5126 Y20.8529
G01 X4.5652 Y20.7820
G01 X4.5824 Y20.7599
G01 X4.6036 Y20.7348
G01 X4.6629 Y20.6694
G01 X4.6821 Y20.6491
G01 X4.7009 Y20.6307
G01 X4.7712 Y20.5669
G01 X4.7923 Y20.5486
G01 X4.8180 Y20.5282
G01 X4.8890 Y20.4755
G01 X4.9063 Y20.4631
G01 X4.9260 Y20.4500
G01 X4.9118 Y20.4406
G01 X4.8929 Y20.4274
G01 X4.8180 Y20.3718
G01 X4.7923 Y20.3514
G01 X4.7712 Y20.3331
G01 X4.7058 Y20.2738
G01 X4.6821 Y20.2509
G01 X4.6629 Y20.2306
G01 X4.6069 Y20.1688
G01 X4.5886 Y20.1477
G01 X4.5682 Y20.1220
G01 X4.5126 Y20.0471
G01 X4.4939 Y20.0201
G01 X4.4790 Y19.9964
G01 X4.4337 Y19.9206
G01 X4.4177 Y19.8919
G01 X4.4052 Y19.8669
G01 X4.3695 Y19.7915
G01 X4.3581 Y19.7660
G01 X4.3461 Y19.7354
G01 X4.3146 Y19.6476
G01 X4.3046 Y19.6164
G01 X4.2972 Y19.5894
G01 X4.2758 Y19.5037
G01 X4.2688 Y19.4716
G01 X4.2641 Y19.4441
G01 X4.2519 Y19.3615
G01 X4.2484 Y19.3338
G01 X4.2457 Y19.3011
G01 X4.2411 Y19.2079
G01 X4.2406 Y19.1751
G01 X4.2413 Y19.1472
G01 X4.2457 Y19.0589
G01 X4.2484 Y19.0262
G01 X4.2519 Y18.9985
G01 X4.2641 Y18.9159
G01 X4.2676 Y18.8949
G01 X4.2721 Y18.8723
G01 X4.2769 Y18.8515
G01 X4.2972 Y18.7706
G01 X4.3046 Y18.7436
G01 X4.3094 Y18.7279
G01 X4.3163 Y18.7077
G01 X4.3444 Y18.6292
G01 X4.3544 Y18.6031
G01 X4.3607 Y18.5879
G01 X4.3695 Y18.5685
G01 X4.4052 Y18.4931
G01 X4.4177 Y18.4681
G01 X4.4255 Y18.4536
G01 X4.4362 Y18.4351
G01 X4.4816 Y18.3594
G01 X4.4994 Y18.3318
G01 X4.5155 Y18.3090
G01 X4.5652 Y18.2420
G01 X4.5782 Y18.2250
G01 X4.5886 Y18.2123
G01 X4.6069 Y18.1912
G01 X4.6629 Y18.1294
G01 X4.6775 Y18.1138
G01 X4.6891 Y18.1021
G01 X4.7094 Y18.0829
G01 X4.7712 Y18.0269
G01 X4.7872 Y18.0128
G01 X4.7999 Y18.0024
G01 X4.8220 Y17.9852
G01 X4.8890 Y17.9355
G01 X4.9063 Y17.9231
G01 X4.9260 Y17.9100
G00 Z2.0000
G00 X6.9434 Y15.6872
G01 F60.00
G01 Z-0.0600
G01 F200.00
G01 X7.2048 Y15.3916
G01 X7.5504 Y15.0196
G01 X7.7647 Y15.7292
G01 X8.0906 Y15.3783
G01 X8.4406 Y15.0196
G01 X9.0323 Y15.3328
G01 X8.9655 Y15.3980
G01 X8.5541 Y15.8196
G01 X8.3451 Y16.0446
G00 Z2.0000
G00 X8.7979 Y16.4974
G01 F60.00
G01 Z-0.0600
G01 F200.00
G01 X9.0176 Y16.2609
G01 X9.4180 Y15.8506
G01 X9.4849 Y15.7854
G00 Z2.0000
G00 X9.9374 Y16.2379
G01 F60.00
G01 Z-0.0600
G01 F200.00
G01 X9.8706 Y16.3031
G01 X9.4811 Y16.7022
G01 X9.2508 Y16.9503
G00 Z2.0000
G00 X9.7036 Y17.4031
G01 F60.00
G01 Z-0.0600
G01 F200.00
G01 X9.9447 Y17.1436
G01 X10.3231 Y16.7557
G01 X10.3900 Y16.6905
G00 Z2.0000
G00 X10.8425 Y17.1430
G01 F60.00
G01 Z-0.0600
G01 F200.00
G01 X10.7757 Y17.2082
G01 X10.4082 Y17.5849
G01 X10.1564 Y17.8559
G01 X10.6092 Y18.3087
G01 X10.8717 Y18.0262
G01 X11.2282 Y17.6608
G01 X11.2951 Y17.5956
G01 X11.7476 Y18.0481
G01 X11.6808 Y18.1133
G01 X11.3352 Y18.4675
G01 X11.0620 Y18.7615
G00 Z2.0000
G00 X11.5149 Y19.2144
G01 F60.00
G01 Z-0.0600
G01 F200.00
G01 X11.7987 Y18.9088
G01 X12.1333 Y18.5659
G01 X12.2002 Y18.5007
G01 X12.6527 Y18.9532
G01 X12.5859 Y19.0184
G01 X12.2623 Y19.3501
G01 X11.9618 Y19.6735
G00 Z2.0000
G00 X12.1496 Y20.4264
G01 F60.00
G01 Z-0.0600
G01 F200.00
G01 X12.4211 Y20.1194
G01 X12.7258 Y19.7914
G01 X12.8504 Y19.6636
G00 Z2.0000
G00 X12.8504 Y20.5999
G01 F60.00
G01 Z-0.0600
G01 F200.00
G01 X12.6092 Y20.8728
G01 X12.3311 Y21.2033
G01 X12.1496 Y21.4300
G01 X12.8504 Y21.5800
G01 X12.8258 Y21.6093
G01 X12.5657 Y21.9343
G01 X12.3136 Y22.2655
G01 X12.1496 Y22.4925
G01 X12.8504 Y22.6169
G01 X12.8277 Y22.6468
G01 X12.5931 Y22.9714
G01 X12.3665 Y23.3017
G01 X12.1496 Y23.6351
G01 X12.8504 Y23.7313
G01 X12.6887 Y23.9798
G01 X12.4869 Y24.3075
G01 X12.2931 Y24.6400
G01 X12.1496 Y24.9007
G01 X12.8504 Y24.9546
G01 X12.6719 Y25.2788
G01 X12.5019 Y25.6065
G01 X12.3400 Y25.9382
G01 X12.1863 Y26.2738
G01 X12.1496 Y26.3595
G01 X12.8504 Y26.3607
G01 X12.7714 Y26.5331
G01 X12.6322 Y26.8580
G01 X12.5009 Y27.1861
G01 X12.3778 Y27.5174
G01 X12.2628 Y27.8516
G01 X12.1561 Y28.1885
G01 X12.1496 Y28.2110
G01 X12.8504 Y28.1158
G01 X12.7685 Y28.3743
G01 X12.6745 Y28.6986
G01 X12.5884 Y29.0252
G01 X12.5104 Y29.3538
G01 X12.4404 Y29.6842
G01 X12.3786 Y30.0162
G01 X12.3250 Y30.3496
G01 X12.2795 Y30.6842
G01 X12.2423 Y31.0199
G01 X12.2133 Y31.3564
G01 X12.1926 Y31.6934
G01 X12.1802 Y32.0309
G01 X12.1760 Y32.3686
G01 X12.1802 Y32.7063
G01 X12.1926 Y33.0438
G01 X12.2133 Y33.3809
G01 X12.2423 Y33.7173
G01 X12.2795 Y34.0530
G01 X12.3250 Y34.3876
G01 X12.3786 Y34.7210
G01 X12.4404 Y35.0530
G01 X12.5104 Y35.3834
G01 X12.5884 Y35.7120
G01 X12.6745 Y36.0386
G01 X12.7685 Y36.3629
G01 X12.8504 Y36.6214
G01 X12.1496 Y36.5262
G01 X12.1561 Y36.5487
G01 X12.2628 Y36.8856
G01 X12.3778 Y37.2198
G01 X12.5009 Y37.5511
G01 X12.6322 Y37.8792
G01 X12.7714 Y38.2041
G01 X12.8167 Y38.3030
G00 Z2.0000
G00 X10.1586 Y38.5878
G01 F60.00
G01 Z-0.0600
G01 F200.00
G01 X10.1125 Y38.4724
G01 X9.9675 Y38.0823
G01 X9.8320 Y37.6886
G01 X9.7063 Y37.2918
G01 X9.6096 Y36.9582
G01 X10.3093 Y37.0733
G01 X10.2072 Y36.7214
G01 X10.1051 Y36.3340
G01 X10.0126 Y35.9443
G01 X9.9296 Y35.5525
G01 X9.8563 Y35.1587
G01 X9.7927 Y34.7632
G01 X9.7388 Y34.3663
G01 X9.6946 Y33.9682
G01 X9.6603 Y33.5692
G01 X9.6357 Y33.1694
G01 X9.6210 Y32.7691
G01 X9.6160 Y32.3686
G01 X9.6210 Y31.9681
G01 X9.6357 Y31.5678
G01 X9.6603 Y31.1680
G01 X9.6946 Y30.7690
G01 X9.7388 Y30.3709
G01 X9.7927 Y29.9740
G01 X9.8563 Y29.5785
G01 X9.9296 Y29.1847
G01 X10.0126 Y28.7929
G01 X10.1051 Y28.4032
G01 X10.2072 Y28.0159
G01 X10.3099 Y27.6617
G01 X9.6096 Y27.7790
G01 X9.7063 Y27.4454
G01 X9.8320 Y27.0486
G01 X9.9675 Y26.6550
G01 X10.1125 Y26.2648
G01 X10.2670 Y25.8783
G01 X10.3100 Y25.7780
G01 X9.6096 Y25.7989
G01 X9.6758 Y25.6334
G01 X9.8459 Y25.2364
G01 X10.0258 Y24.8436
G01 X10.2153 Y24.4554
G01 X10.3101 Y24.2726
G01 X9.6096 Y24.2374
G01 X9.6436 Y24.1677
G01 X9.8498 Y23.7703
G01 X10.0657 Y23.3781
G01 X10.2911 Y22.9914
G01 X10.3102 Y22.9603
G01 X9.6096 Y22.8898
G01 X9.7421 Y22.6623
G01 X9.9852 Y22.2679
G01 X10.2379 Y21.8794
G01 X10.3103 Y21.7739
G01 X9.5448 Y21.7712
G01 X9.7058 Y21.5239
G01 X9.9768 Y21.1288
G01 X10.2574 Y20.7406
G01 X10.3104 Y20.6709
G01 X9.8797 Y20.1802
G01 X9.7434 Y20.3593
G01 X9.4535 Y20.7603
G01 X9.1736 Y21.1683
G01 X9.1245 Y21.2437
G01 X8.6629 Y20.7815
G01 X8.9303 Y20.3918
G01 X9.2293 Y19.9781
G01 X9.4230 Y19.7235
G00 Z2.0000
G00 X8.9663 Y19.2668
G01 F60.00
G01 Z-0.0600
G01 F200.00
G01 X8.7153 Y19.5968
G01 X8.4070 Y20.0233
G01 X8.2029 Y20.3208
G00 Z2.0000
G00 X6.5940 Y15.3700
G01 F60.00
G01 Z-0.0600
G01 F200.00
G01 X6.6137 Y15.3831
G01 X6.6310 Y15.3955
G01 X6.6980 Y15.4452
G01 X6.7201 Y15.4624
G01 X6.7452 Y15.4836
G01 X6.8191 Y15.5507
G01 X6.8379 Y15.5691
G01 X6.8493 Y15.5809
G01 X6.9208 Y15.6598
G01 X6.9418 Y15.6850
G01 X6.9672 Y15.7187
G01 X7.6515 Y15.7205
G01 X7.6974 Y15.7224
G01 X7.7252 Y15.7244
G01 X7.7513 Y15.7273
G01 X7.7984 Y15.7343
G01 X7.8242 Y15.7391
G01 X7.8467 Y15.7441
G01 X7.8864 Y15.7542
G01 X7.9116 Y15.7615
G01 X7.9335 Y15.7687
G01 X7.9721 Y15.7826
G01 X7.9964 Y15.7923
G01 X8.0175 Y15.8017
G01 X8.0545 Y15.8193
G01 X8.0778 Y15.8313
G01 X8.0979 Y15.8427
G01 X8.1330 Y15.8638
G01 X8.1550 Y15.8781
G01 X8.1738 Y15.8914
G01 X8.2067 Y15.9159
G01 X8.2272 Y15.9323
G01 X8.2446 Y15.9473
G01 X8.2664 Y15.9671
G01 X8.2902 Y15.9898
G01 X11.8883 Y19.5880
G01 X11.9194 Y19.6217
G01 X11.9377 Y19.6428
G01 X11.9541 Y19.6633
G01 X11.9757 Y19.6922
G01 X11.9919 Y19.7150
G01 X12.0062 Y19.7370
G01 X12.0273 Y19.7721
G01 X12.0387 Y19.7922
G01 X12.0507 Y19.8155
G01 X12.0683 Y19.8525
G01 X12.0777 Y19.8736
G01 X12.0874 Y19.8979
G01 X12.1013 Y19.9365
G01 X12.1085 Y19.9584
G01 X12.1158 Y19.9836
G01 X12.1247 Y20.0185
G01 X12.1296 Y20.0393
G01 X12.1341 Y20.0619
G01 X12.1411 Y20.1073
G01 X12.1439 Y20.1284
G01 X12.1456 Y20.1448
G01 X12.1473 Y20.1677
G01 X12.1492 Y20.2087
G01 X12.1496 Y20.2300
G01 X12.1496 Y38.2218
G01 X12.5000 Y39.0668
G01 X12.8504 Y38.2218
G01 X12.8504 Y19.1509
G01 X8.7191 Y15.0196
G01 X6.9685 Y15.0196
G01 X6.9418 Y15.0550
G01 X6.9208 Y15.0802
G01 X6.8493 Y15.1591
G01 X6.8309 Y15.1779
G01 X6.8191 Y15.1893
G01 X6.7452 Y15.2564
G01 X6.7201 Y15.2776
G01 X6.6980 Y15.2948
G01 X6.6310 Y15.3445
G01 X6.6137 Y15.3569
G01 X6.5940 Y15.3700
G00 Z2.0000
G00 X21.8340 Y20.4500
G01 F60.00
G01 Z-0.0600
G01 F200.00
G01 X21.8537 Y20.4631
G01 X21.8710 Y20.4755
G01 X21.9380 Y20.5252
G01 X21.9601 Y20.5424
G01 X21.9852 Y20.5636
G01 X22.0506 Y20.6229
G01 X22.0662 Y20.6375
G01 X22.0779 Y20.6491
G01 X22.0971 Y20.6694
G01 X22.1531 Y20.7312
G01 X22.1672 Y20.7472
G01 X22.1776 Y20.7599
G01 X22.1948 Y20.7820
G01 X22.2512 Y20.8583
G01 X22.2661 Y20.8799
G01 X22.2784 Y20.8994
G01 X22.3297 Y20.9851
G01 X22.3423 Y21.0081
G01 X22.3548 Y21.0331
G01 X22.3905 Y21.1085
G01 X22.4019 Y21.1340
G01 X22.4139 Y21.1646
G01 X22.4437 Y21.2477
G01 X22.4526 Y21.2742
G01 X22.4599 Y21.2994
G01 X22.4831 Y21.3915
G01 X22.4879 Y21.4123
G01 X22.4912 Y21.4284
G01 X22.4951 Y21.4511
G01 X22.5097 Y21.5499
G01 X22.5126 Y21.5760
G01 X22.5139 Y21.5923
G01 X22.5187 Y21.6872
G01 X22.5194 Y21.7151
G01 X22.5191 Y21.7413
G01 X22.5146 Y21.8362
G01 X22.5126 Y21.8640
G01 X22.5088 Y21.8967
G01 X22.4959 Y21.9841
G01 X22.4912 Y22.0116
G01 X22.4858 Y22.0373
G01 X22.4628 Y22.1294
G01 X22.4554 Y22.1564
G01 X22.4454 Y22.1876
G01 X22.4139 Y22.2754
G01 X22.4019 Y22.3060
G01 X22.3905 Y22.3315
G01 X22.3527 Y22.4113
G01 X22.3377 Y22.4406
G01 X22.3238 Y22.4649
G01 X22.2749 Y22.5462
G01 X22.2606 Y22.5682
G01 X22.2445 Y22.5910
G01 X22.1918 Y22.6620
G01 X22.1818 Y22.6750
G01 X22.1672 Y22.6928
G01 X22.1531 Y22.7088
G01 X22.0971 Y22.7706
G01 X22.0779 Y22.7909
G01 X22.0542 Y22.8138
G01 X21.9852 Y22.8764
G01 X21.9677 Y22.8914
G01 X21.9420 Y22.9118
G01 X21.8671 Y22.9674
G01 X21.8482 Y22.9806
G01 X21.8340 Y22.9900
G01 X21.8537 Y23.0031
G01 X21.8710 Y23.0155
G01 X21.9380 Y23.0652
G01 X21.9601 Y23.0824
G01 X21.9852 Y23.1036
G01 X22.0591 Y23.1707
G01 X22.0709 Y23.1821
G01 X22.0893 Y23.2009
G01 X22.1608 Y23.2798
G01 X22.1818 Y23.3050
G01 X22.2068 Y23.3382
G01 X28.2601 Y23.3404
G01 X28.2879 Y23.3410
G01 X28.3289 Y23.3431
G01 X28.3550 Y23.3454
G01 X28.3827 Y23.3489
G01 X28.4184 Y23.3543
G01 X28.4442 Y23.3591
G01 X28.4715 Y23.3653
G01 X28.5159 Y23.3768
G01 X28.5379 Y23.3835
G01 X28.5581 Y23.3903
G01 X28.5921 Y23.4026
G01 X28.6164 Y23.4123
G01 X28.6375 Y23.4217
G01 X28.6745 Y23.4393
G01 X28.6891 Y23.4467
G01 X28.7121 Y23.4594
G01 X28.7431 Y23.4778
G01 X28.7613 Y23.4891
G01 X28.7804 Y23.5019
G01 X28.7978 Y23.5143
G01 X28.8267 Y23.5359
G01 X28.8472 Y23.5523
G01 X28.8646 Y23.5673
G01 X28.8901 Y23.5904
G01 X28.9102 Y23.6098
G01 X30.6583 Y25.3580
G01 X30.6894 Y25.3917
G01 X30.7077 Y25.4128
G01 X30.7241 Y25.4333
G01 X30.7486 Y25.4662
G01 X30.7619 Y25.4850
G01 X30.7762 Y25.5070
G01 X30.8006 Y25.5479
G01 X30.8133 Y25.5709
G01 X30.8258 Y25.5959
G01 X30.8451 Y25.6375
G01 X30.8574 Y25.6679
G01 X30.8697 Y25.7019
G01 X30.8785 Y25.7284
G01 X30.8858 Y25.7536
G01 X30.8974 Y25.7997
G01 X30.9028 Y25.8254
G01 X30.9068 Y25.8481
G01 X30.9111 Y25.8773
G01 X30.9139 Y25.8984
G01 X30.9156 Y25.9148
G01 X30.9173 Y25.9377
G01 X30.9188 Y25.9672
G01 X30.9196 Y26.0000
G01 X30.9196 Y68.0000
G01 X30.9188 Y68.0328
G01 X30.9173 Y68.0623
G01 X30.9156 Y68.0852
G01 X30.9139 Y68.1016
G01 X30.9111 Y68.1227
G01 X30.9068 Y68.1519
G01 X30.9028 Y68.1746
G01 X30.8974 Y68.2003
G01 X30.8858 Y68.2464
G01 X30.8785 Y68.2716
G01 X30.8713 Y68.2935
G01 X30.8574 Y68.3321
G01 X30.8477 Y68.3564
G01 X30.8363 Y68.3819
G01 X30.8163 Y68.4233
G01 X30.8006 Y68.4521
G01 X30.7822 Y68.4831
G01 X30.7673 Y68.5068
G01 X30.7525 Y68.5284
G01 X30.7281 Y68.5614
G01 X30.7139 Y68.5796
G01 X30.6970 Y68.5996
G01 X30.6729 Y68.6264
G01 X30.6502 Y68.6502
G01 X28.6502 Y70.6502
G01 X28.6264 Y70.6729
G01 X28.5922 Y70.7035
G01 X28.5667 Y70.7241
G01 X28.5378 Y70.7457
G01 X28.5150 Y70.7619
G01 X28.4930 Y70.7762
G01 X28.4521 Y70.8006
G01 X28.4291 Y70.8133
G01 X28.4041 Y70.8258
G01 X28.3775 Y70.8383
G01 X28.3564 Y70.8477
G01 X28.3321 Y70.8574
G01 X28.2873 Y70.8735
G01 X28.2622 Y70.8814
G01 X28.2353 Y70.8888
G01 X28.1907 Y70.8996
G01 X28.1584 Y70.9057
G01 X28.1113 Y70.9127
G01 X28.0852 Y70.9156
G01 X28.0623 Y70.9173
G01 X28.0328 Y70.9188
G01 X28.0000 Y70.9196
G01 X15.0000 Y70.9196
G01 X14.9787 Y70.9192
G01 X14.9377 Y70.9173
G01 X14.9050 Y70.9146
G01 X14.8773 Y70.9111
G01 X14.8319 Y70.9041
G01 X14.7997 Y70.8974
G01 X14.7536 Y70.8858
G01 X14.7284 Y70.8785
G01 X14.7065 Y70.8713
G01 X14.6787 Y70.8614
G01 X14.6526 Y70.8514
G01 X14.6225 Y70.8383
G01 X14.5767 Y70.8163
G01 X14.5479 Y70.8006
G01 X14.5169 Y70.7822
G01 X14.4932 Y70.7673
G01 X14.4716 Y70.7525
G01 X14.4333 Y70.7241
G01 X14.4078 Y70.7035
G01 X14.3736 Y70.6729
G01 X14.3498 Y70.6502
G01 X13.1163 Y69.4168
G01 X13.1004 Y69.4001
G01 X13.0773 Y69.3746
G01 X13.0623 Y69.3572
G01 X13.0519 Y69.3444
G01 X13.0389 Y69.3275
G01 X13.0175 Y69.2984
G01 X13.0027 Y69.2768
G01 X12.9938 Y69.2630
G01 X12.9752 Y69.2321
G01 X12.9645 Y69.2136
G01 X12.9537 Y69.1933
G01 X12.9442 Y69.1741
G01 X12.9289 Y69.1415
G01 X12.9186 Y69.1174
G01 X12.9103 Y69.0959
G01 X12.8965 Y69.0573
G01 X12.8915 Y69.0416
G01 X12.8842 Y69.0164
G01 X12.8741 Y68.9767
G01 X12.8691 Y68.9542
G01 X12.8659 Y68.9381
G01 X12.8625 Y68.9170
G01 X12.8573 Y68.8813
G01 X12.8544 Y68.8552
G01 X12.8527 Y68.8323
G01 X12.8512 Y68.8028
G01 X12.8504 Y68.7700
G01 X12.8504 Y67.7782
G01 X12.5692 Y67.1001
G01 X12.4003 Y67.7300
G01 X12.3998 Y70.7455
G01 X15.4230 Y73.7688
G01 X33.5925 Y73.7688
G01 X34.0806 Y73.5248
G01 X34.0806 Y71.2753
G01 X31.3498 Y68.5445
G01 X31.3349 Y68.5291
G01 X31.3106 Y68.5025
G01 X31.2923 Y68.4814
G01 X31.2719 Y68.4556
G01 X31.2419 Y68.4146
G01 X31.2238 Y68.3872
G01 X31.1994 Y68.3464
G01 X31.1837 Y68.3175
G01 X31.1617 Y68.2717
G01 X31.1486 Y68.2416
G01 X31.1403 Y68.2201
G01 X31.1303 Y68.1924
G01 X31.1215 Y68.1659
G01 X31.1142 Y68.1406
G01 X31.1026 Y68.0945
G01 X31.0959 Y68.0623
G01 X31.0882 Y68.0121
G01 X31.0844 Y67.9795
G01 X31.0824 Y67.9516
G01 X31.0808 Y67.9156
G01 X31.0804 Y67.8942
G01 X31.0804 Y25.3809
G01 X25.7991 Y20.0996
G01 X22.2085 Y20.0996
G01 X22.1818 Y20.1350
G01 X22.1608 Y20.1602
G01 X22.0893 Y20.2391
G01 X22.0779 Y20.2509
G01 X22.0591 Y20.2693
G01 X21.9852 Y20.3364
G01 X21.9601 Y20.3576
G01 X21.9380 Y20.3748
G01 X21.8710 Y20.4245
G01 X21.8537 Y20.4369
G01 X21.8340 Y20.4500
G00 Z2.0000
G00 X21.9577 Y20.5404
G01 F60.00
G01 Z-0.0600
G01 F200.00
G01 X22.0213 Y20.5185
G01 X22.3133 Y20.4260
G01 X22.6075 Y20.3407
G01 X22.9036 Y20.2626
G01 X23.2017 Y20.1918
G01 X23.5013 Y20.1284
G01 X23.6561 Y20.0996
G01 X22.3758 Y21.0775
G01 X22.4991 Y21.0384
G01 X22.7782 Y20.9575
G01 X23.0592 Y20.8834
G01 X23.3419 Y20.8163
G01 X23.6262 Y20.7561
G01 X23.9119 Y20.7029
G01 X24.1988 Y20.6568
G01 X24.4867 Y20.6176
G01 X24.7755 Y20.5856
G01 X25.0650 Y20.5607
G01 X25.3551 Y20.5429
G01 X25.6455 Y20.5322
G01 X25.9360 Y20.5286
G01 X26.2319 Y20.5324
G00 Z2.0000
G00 X26.9115 Y21.2120
G01 F60.00
G01 Z-0.0600
G01 F200.00
G01 X26.7600 Y21.1990
G01 X26.4856 Y21.1821
G01 X26.2109 Y21.1720
G01 X25.9360 Y21.1686
G01 X25.6612 Y21.1720
G01 X25.3865 Y21.1821
G01 X25.1121 Y21.1990
G01 X24.8382 Y21.2225
G01 X24.5650 Y21.2528
G01 X24.2927 Y21.2898
G01 X24.0213 Y21.3335
G01 X23.7510 Y21.3838
G01 X23.4821 Y21.4407
G01 X23.2147 Y21.5043
G01 X22.9489 Y21.5743
G01 X22.6849 Y21.6509
G01 X22.5192 Y21.7033
G00 Z2.0000
G00 X22.3374 Y22.4412
G01 F60.00
G01 Z-0.0600
G01 F200.00
G01 X22.3785 Y22.4259
G01 X22.6236 Y22.3416
G01 X22.8706 Y22.2633
G01 X23.1196 Y22.1911
G01 X23.3702 Y22.1251
G01 X23.6223 Y22.0652
G01 X23.8759 Y22.0115
G01 X24.1307 Y21.9641
G01 X24.3866 Y21.9229
G01 X24.6434 Y21.8880
G01 X24.9010 Y21.8595
G01 X25.1592 Y21.8372
G01 X25.4179 Y21.8213
G01 X25.6769 Y21.8118
G01 X25.9360 Y21.8086
G01 X26.1952 Y21.8118
G01 X26.4542 Y21.8213
G01 X26.7129 Y21.8372
G01 X26.9711 Y21.8595
G01 X27.2287 Y21.8880
G01 X27.4855 Y21.9229
G01 X27.6487 Y21.9492
G00 Z2.0000
G00 X28.4808 Y22.7813
G01 F60.00
G01 Z-0.0600
G01 F200.00
G01 X28.3464 Y22.7459
G01 X28.1095 Y22.6896
G01 X27.8713 Y22.6392
G01 X27.6320 Y22.5947
G01 X27.3916 Y22.5560
G01 X27.1504 Y22.5232
G01 X26.9084 Y22.4964
G01 X26.6658 Y22.4755
G01 X26.4228 Y22.4606
G01 X26.1795 Y22.4516
G01 X25.9360 Y22.4486
G01 X25.6926 Y22.4516
G01 X25.4493 Y22.4606
G01 X25.2063 Y22.4755
G01 X24.9637 Y22.4964
G01 X24.7217 Y22.5232
G01 X24.4805 Y22.5560
G01 X24.2401 Y22.5947
G01 X24.0007 Y22.6392
G01 X23.7626 Y22.6896
G01 X23.5257 Y22.7459
G01 X23.2902 Y22.8079
G01 X23.0564 Y22.8758
G01 X22.8243 Y22.9493
G01 X22.5941 Y23.0285
G01 X22.3659 Y23.1133
G01 X22.1398 Y23.2037
G01 X22.1053 Y23.2185
G01 X23.7987 Y23.3388
G01 X23.9028 Y23.3141
G01 X24.1256 Y23.2669
G01 X24.3495 Y23.2252
G01 X24.5744 Y23.1890
G01 X24.8001 Y23.1584
G01 X25.0264 Y23.1333
G01 X25.2534 Y23.1138
G01 X25.4807 Y23.0998
G01 X25.7083 Y23.0914
G01 X25.9360 Y23.0886
G01 X26.1638 Y23.0914
G01 X26.3914 Y23.0998
G01 X26.6187 Y23.1138
G01 X26.8456 Y23.1333
G01 X27.0720 Y23.1584
G01 X27.2977 Y23.1890
G01 X27.5226 Y23.2252
G01 X27.7465 Y23.2669
G01 X27.9693 Y23.3141
G01 X28.0799 Y23.3404
G00 Z2.0000
G00 X28.8565 Y23.5603
G01 F60.00
G01 Z-0.0600
G01 F200.00
G01 X29.0624 Y23.6311
G01 X29.2759 Y23.7104
G01 X29.4873 Y23.7950
G01 X29.4999 Y23.8004
G01 X30.0987 Y24.7982
G01 X30.1947 Y24.8511
G01 X30.3779 Y24.9578
G01 X30.5584 Y25.0691
G01 X30.7362 Y25.1847
G01 X30.9110 Y25.3047
G01 X31.0804 Y25.4271
G01 X30.9196 Y26.1112
G01 X31.0112 Y26.1845
G01 X31.0804 Y26.2428
G01 X30.9196 Y26.9532
G01 X31.0111 Y27.0381
G01 X31.0804 Y27.1058
G01 X30.9196 Y27.8607
G01 X31.0245 Y27.9793
G01 X31.0804 Y28.0458
G01 X30.9196 Y28.8861
G01 X30.9914 Y28.9907
G01 X31.0728 Y29.1158
G01 X31.0804 Y29.1283
G01 X30.9196 Y30.1880
G01 X30.9619 Y30.2868
G01 X31.0115 Y30.4108
G01 X31.0580 Y30.5359
G01 X31.0804 Y30.6010
G00 Z2.0000
G00 X28.6175 Y31.3181
G01 F60.00
G01 Z-0.0600
G01 F200.00
G01 X28.6231 Y31.3321
G01 X28.6477 Y31.3984
G01 X28.6707 Y31.4652
G01 X28.6920 Y31.5326
G01 X28.7117 Y31.6005
G01 X28.7297 Y31.6688
G01 X28.7461 Y31.7376
G01 X28.7607 Y31.8067
G01 X28.7736 Y31.8762
G01 X28.7849 Y31.9460
G01 X28.7944 Y32.0161
G01 X28.8022 Y32.0863
G01 X28.8082 Y32.1567
G01 X28.8126 Y32.2273
G01 X28.8152 Y32.2979
G01 X28.8160 Y32.3686
G01 X28.8152 Y32.4393
G01 X28.8126 Y32.5099
G01 X28.8082 Y32.5805
G01 X28.8022 Y32.6509
G01 X28.7944 Y32.7211
G01 X28.7914 Y32.7433
G00 Z2.0000
G00 X29.0804 Y32.9570
G01 F60.00
G01 Z-0.0600
G01 F200.00
G01 X29.0804 Y31.0430
G01 X29.0582 Y31.0669
G01 X29.0348 Y31.0900
G01 X28.9996 Y31.1219
G01 X28.9795 Y31.1388
G01 X28.9666 Y31.1490
G01 X28.9284 Y31.1774
G01 X28.9012 Y31.1958
G01 X28.8578 Y31.2222
G01 X28.8291 Y31.2382
G01 X28.8041 Y31.2507
G01 X28.7775 Y31.2632
G01 X28.7564 Y31.2726
G01 X28.7412 Y31.2788
G01 X28.7212 Y31.2863
G01 X28.6935 Y31.2962
G01 X28.6716 Y31.3034
G01 X28.6400 Y31.3124
G01 X28.5907 Y31.3244
G01 X28.5584 Y31.3306
G01 X28.5179 Y31.3367
G01 X28.4950 Y31.3395
G01 X28.4689 Y31.3418
G01 X28.4279 Y31.3439
G01 X28.4049 Y31.3444
G01 X27.5000 Y31.3445
G01 X27.4787 Y31.3441
G01 X27.4377 Y31.3422
G01 X27.4148 Y31.3405
G01 X27.3887 Y31.3376
G01 X27.3416 Y31.3306
G01 X27.3158 Y31.3258
G01 X27.2933 Y31.3208
G01 X27.2536 Y31.3107
G01 X27.2284 Y31.3034
G01 X27.2065 Y31.2962
G01 X27.1788 Y31.2863
G01 X27.1527 Y31.2763
G01 X27.1375 Y31.2700
G01 X27.1181 Y31.2612
G01 X27.0915 Y31.2485
G01 X27.0709 Y31.2382
G01 X27.0422 Y31.2222
G01 X26.9988 Y31.1958
G01 X26.9716 Y31.1774
G01 X26.9334 Y31.1490
G01 X26.9205 Y31.1388
G01 X26.9004 Y31.1219
G01 X26.8652 Y31.0900
G01 X26.8418 Y31.0669
G01 X26.8107 Y31.0332
G01 X26.7924 Y31.0121
G01 X26.7720 Y30.9863
G01 X26.7420 Y30.9453
G01 X26.7239 Y30.9179
G01 X26.6995 Y30.8771
G01 X26.6838 Y30.8482
G01 X26.6618 Y30.8025
G01 X26.6487 Y30.7723
G01 X26.6387 Y30.7462
G01 X26.6288 Y30.7185
G01 X26.6216 Y30.6966
G01 X26.6126 Y30.6650
G01 X26.6006 Y30.6157
G01 X26.5944 Y30.5834
G01 X26.5883 Y30.5429
G01 X26.5855 Y30.5200
G01 X26.5828 Y30.4873
G01 X26.5811 Y30.4529
G01 X26.5806 Y30.4299
G01 X26.5805 Y30.2596
G01 X22.2085 Y30.2596
G01 X22.1818 Y30.2950
G01 X22.1608 Y30.3202
G01 X22.0893 Y30.3991
G01 X22.0779 Y30.4109
G01 X22.0591 Y30.4293
G01 X21.9852 Y30.4964
G01 X21.9601 Y30.5176
G01 X21.9380 Y30.5348
G01 X21.8710 Y30.5845
G01 X21.8537 Y30.5969
G01 X21.8340 Y30.6100
G01 X21.8482 Y30.6194
G01 X21.8671 Y30.6326
G01 X21.9420 Y30.6882
G01 X21.9677 Y30.7086
G01 X21.9888 Y30.7269
G01 X22.0542 Y30.7862
G01 X22.0779 Y30.8091
G01 X22.0971 Y30.8294
G01 X22.1531 Y30.8912
G01 X22.1714 Y30.9123
G01 X22.1918 Y30.9380
G01 X22.2474 Y31.0129
G01 X22.2661 Y31.0399
G01 X22.2784 Y31.0594
G01 X22.3263 Y31.1394
G01 X22.3423 Y31.1681
G01 X22.3548 Y31.1931
G01 X22.3953 Y31.2790
G01 X22.4056 Y31.3031
G01 X22.4156 Y31.3292
G01 X22.4475 Y31.4186
G01 X22.4554 Y31.4436
G01 X22.4599 Y31.4594
G01 X22.4831 Y31.5515
G01 X22.4893 Y31.5788
G01 X22.4951 Y31.6111
G01 X22.5088 Y31.7033
G01 X22.5126 Y31.7360
G01 X22.5143 Y31.7589
G01 X22.5189 Y31.8521
G01 X22.5194 Y31.8849
G01 X22.5187 Y31.9128
G01 X22.5139 Y32.0077
G01 X22.5109 Y32.0404
G01 X22.5051 Y32.0817
G01 X24.5011 Y34.0804
G01 X26.3536 Y34.0804
G01 X26.5805 Y33.9345
G01 X26.5805 Y33.5750
G01 X26.5809 Y33.5537
G01 X26.5832 Y33.5061
G01 X26.5855 Y33.4800
G01 X26.5890 Y33.4523
G01 X26.5961 Y33.4069
G01 X26.6006 Y33.3843
G01 X26.6042 Y33.3683
G01 X26.6126 Y33.3350
G01 X26.6187 Y33.3128
G01 X26.6236 Y33.2971
G01 X26.6304 Y33.2769
G01 X26.6404 Y33.2492
G01 X26.6487 Y33.2277
G01 X26.6550 Y33.2125
G01 X26.6638 Y33.1931
G01 X26.6765 Y33.1665
G01 X26.6868 Y33.1459
G01 X26.6946 Y33.1315
G01 X26.7053 Y33.1130
G01 X26.7205 Y33.0877
G01 X26.7328 Y33.0683
G01 X26.7420 Y33.0547
G01 X26.7544 Y33.0373
G01 X26.7720 Y33.0137
G01 X26.7862 Y32.9955
G01 X26.7966 Y32.9829
G01 X26.8107 Y32.9668
G01 X26.8305 Y32.9450
G01 X26.8464 Y32.9283
G01 X26.8581 Y32.9168
G01 X26.8736 Y32.9022
G01 X26.8955 Y32.8824
G01 X26.9129 Y32.8674
G01 X26.9387 Y32.8470
G01 X26.9797 Y32.8170
G01 X27.0071 Y32.7989
G01 X27.0380 Y32.7803
G01 X27.0565 Y32.7696
G01 X27.0856 Y32.7544
G01 X27.1181 Y32.7388
G01 X27.1375 Y32.7300
G01 X27.1680 Y32.7177
G01 X27.2019 Y32.7054
G01 X27.2221 Y32.6986
G01 X27.2536 Y32.6893
G01 X27.2886 Y32.6804
G01 X27.3093 Y32.6756
G01 X27.3319 Y32.6711
G01 X27.3530 Y32.6676
G01 X27.3984 Y32.6612
G01 X27.4148 Y32.6595
G01 X27.4377 Y32.6578
G01 X27.4721 Y32.6561
G01 X27.4951 Y32.6556
G01 X28.4049 Y32.6556
G01 X28.4328 Y32.6563
G01 X28.4786 Y32.6589
G01 X28.5113 Y32.6624
G01 X28.5470 Y32.6676
G01 X28.5746 Y32.6723
G01 X28.6067 Y32.6792
G01 X28.6558 Y32.6919
G01 X28.6872 Y32.7017
G01 X28.7320 Y32.7177
G01 X28.7625 Y32.7300
G01 X28.8085 Y32.7515
G01 X28.8377 Y32.7664
G01 X28.8578 Y32.7778
G01 X28.8831 Y32.7929
G01 X28.9067 Y32.8078
G01 X28.9337 Y32.8265
G01 X28.9743 Y32.8570
G01 X28.9996 Y32.8781
G01 X29.0348 Y32.9100
G01 X29.0582 Y32.9331
G01 X29.0804 Y32.9570
G00 Z2.0000
G00 X28.1575 Y32.6555
G01 F60.00
G01 Z-0.0600
G01 F200.00
G01 X28.1592 Y32.6428
G01 X28.1653 Y32.5882
G01 X28.1700 Y32.5334
G01 X28.1733 Y32.4785
G01 X28.1754 Y32.4236
G01 X28.1760 Y32.3686
G01 X28.1754 Y32.3136
G01 X28.1733 Y32.2587
G01 X28.1700 Y32.2038
G01 X28.1653 Y32.1490
G01 X28.1592 Y32.0944
G01 X28.1518 Y32.0399
G01 X28.1431 Y31.9857
G01 X28.1330 Y31.9316
G01 X28.1216 Y31.8778
G01 X28.1089 Y31.8243
G01 X28.0949 Y31.7712
G01 X28.0796 Y31.7184
G01 X28.0630 Y31.6660
G01 X28.0451 Y31.6140
G01 X28.0259 Y31.5624
G01 X28.0055 Y31.5114
G01 X27.9839 Y31.4609
G01 X27.9610 Y31.4109
G01 X27.9369 Y31.3615
G01 X27.9280 Y31.3445
G00 Z2.0000
G00 X27.0653 Y31.2352
G01 F60.00
G01 Z-0.0600
G01 F200.00
G01 X27.0948 Y31.2653
G01 X27.1216 Y31.2941
G01 X27.1476 Y31.3235
G01 X27.1729 Y31.3536
G01 X27.1974 Y31.3842
G01 X27.2212 Y31.4155
G01 X27.2442 Y31.4473
G01 X27.2664 Y31.4797
G01 X27.2878 Y31.5126
G01 X27.3084 Y31.5460
G01 X27.3282 Y31.5800
G01 X27.3471 Y31.6144
G01 X27.3652 Y31.6492
G01 X27.3824 Y31.6845
G01 X27.3988 Y31.7202
G01 X27.4142 Y31.7563
G01 X27.4288 Y31.7928
G01 X27.4425 Y31.8296
G01 X27.4553 Y31.8667
G01 X27.4671 Y31.9042
G01 X27.4781 Y31.9419
G01 X27.4881 Y31.9798
G01 X27.4972 Y32.0180
G01 X27.5053 Y32.0565
G01 X27.5125 Y32.0951
G01 X27.5187 Y32.1338
G01 X27.5240 Y32.1727
G01 X27.5283 Y32.2118
G01 X27.5317 Y32.2509
G01 X27.5341 Y32.2901
G01 X27.5356 Y32.3293
G01 X27.5360 Y32.3686
G01 X27.5356 Y32.4079
G01 X27.5341 Y32.4471
G01 X27.5317 Y32.4863
G01 X27.5283 Y32.5254
G01 X27.5240 Y32.5645
G01 X27.5187 Y32.6034
G01 X27.5100 Y32.6555
G01 X26.8960 Y32.3686
G01 X26.8958 Y32.3450
G01 X26.8949 Y32.3215
G01 X26.8934 Y32.2980
G01 X26.8914 Y32.2745
G01 X26.8888 Y32.2511
G01 X26.8856 Y32.2277
G01 X26.8819 Y32.2045
G01 X26.8776 Y32.1813
G01 X26.8727 Y32.1583
G01 X26.8673 Y32.1353
G01 X26.8613 Y32.1126
G01 X26.8547 Y32.0899
G01 X26.8476 Y32.0675
G01 X26.8399 Y32.0452
G01 X26.8317 Y32.0231
G01 X26.8230 Y32.0012
G01 X26.8137 Y31.9796
G01 X26.8039 Y31.9582
G01 X26.7935 Y31.9370
G01 X26.7827 Y31.9161
G01 X26.7713 Y31.8954
G01 X26.7595 Y31.8751
G01 X26.7471 Y31.8550
G01 X26.7343 Y31.8353
G01 X26.7209 Y31.8158
G01 X26.7071 Y31.7967
G01 X26.6929 Y31.7780
G01 X26.6781 Y31.7596
G01 X26.6630 Y31.7416
G01 X26.6474 Y31.7239
G01 X26.6313 Y31.7066
G01 X26.6149 Y31.6898
G01 X26.5980 Y31.6733
G01 X26.5807 Y31.6573
G01 X26.5631 Y31.6417
G01 X26.5451 Y31.6265
G01 X26.5267 Y31.6118
G01 X26.5079 Y31.5975
G01 X26.4888 Y31.5837
G01 X26.4694 Y31.5704
G01 X26.4496 Y31.5575
G01 X26.4296 Y31.5452
G01 X26.4092 Y31.5333
G01 X26.3886 Y31.5220
G01 X26.3677 Y31.5111
G01 X26.3465 Y31.5008
G01 X26.3251 Y31.4910
G01 X26.3034 Y31.4817
G01 X26.2815 Y31.4729
G01 X26.2595 Y31.4647
G01 X26.2372 Y31.4571
G01 X26.2147 Y31.4499
G01 X26.1921 Y31.4434
G01 X26.1693 Y31.4374
G01 X26.1464 Y31.4319
G01 X26.1233 Y31.4271
G01 X26.1002 Y31.4227
G01 X26.0769 Y31.4190
G01 X26.0536 Y31.4158
G01 X26.0301 Y31.4132
G01 X26.0067 Y31.4112
G01 X25.9831 Y31.4098
G01 X25.9596 Y31.4089
G01 X25.9360 Y31.4086
G01 X25.9125 Y31.4089
G01 X25.8889 Y31.4098
G01 X25.8654 Y31.4112
G01 X25.8419 Y31.4132
G01 X25.8185 Y31.4158
G01 X25.7952 Y31.4190
G01 X25.7719 Y31.4227
G01 X25.7488 Y31.4271
G01 X25.7257 Y31.4319
G01 X25.7028 Y31.4374
G01 X25.6800 Y31.4434
G01 X25.6574 Y31.4499
G01 X25.6349 Y31.4571
G01 X25.6126 Y31.4647
G01 X25.5905 Y31.4729
G01 X25.5687 Y31.4817
G01 X25.5470 Y31.4910
G01 X25.5256 Y31.5008
G01 X25.5044 Y31.5111
G01 X25.4835 Y31.5220
G01 X25.4629 Y31.5333
G01 X25.4425 Y31.5452
G01 X25.4224 Y31.5575
G01 X25.4027 Y31.5704
G01 X25.3833 Y31.5837
G01 X25.3642 Y31.5975
G01 X25.3454 Y31.6118
G01 X25.3270 Y31.6265
G01 X25.3090 Y31.6417
G01 X25.2913 Y31.6573
G01 X25.2741 Y31.6733
G01 X25.2572 Y31.6898
G01 X25.2408 Y31.7066
G01 X25.2247 Y31.7239
G01 X25.2091 Y31.7416
G01 X25.1940 Y31.7596
G01 X25.1792 Y31.7780
G01 X25.1650 Y31.7967
G01 X25.1512 Y31.8158
G01 X25.1378 Y31.8353
G01 X25.1250 Y31.8550
G01 X25.1126 Y31.8751
G01 X25.1008 Y31.8954
G01 X25.0894 Y31.9161
G01 X25.0785 Y31.9370
G01 X25.0682 Y31.9582
G01 X25.0584 Y31.9796
G01 X25.0491 Y32.0012
G01 X25.0404 Y32.0231
G01 X25.0322 Y32.0452
G01 X25.0245 Y32.0675
G01 X25.0174 Y32.0899
G01 X25.0108 Y32.1126
G01 X25.0048 Y32.1353
G01 X24.9994 Y32.1583
G01 X24.9945 Y32.1813
G01 X24.9902 Y32.2045
G01 X24.9864 Y32.2277
G01 X24.9833 Y32.2511
G01 X24.9807 Y32.2745
G01 X24.9786 Y32.2980
G01 X24.9772 Y32.3215
G01 X24.9763 Y32.3450
G01 X24.9760 Y32.3686
G01 X24.9763 Y32.3922
G01 X24.9772 Y32.4157
G01 X24.9786 Y32.4392
G01 X24.9807 Y32.4627
G01 X24.9833 Y32.4861
G01 X24.9864 Y32.5095
G01 X24.9902 Y32.5327
G01 X24.9945 Y32.5559
G01 X24.9994 Y32.5789
G01 X25.0048 Y32.6019
G01 X25.0108 Y32.6247
G01 X25.0174 Y32.6473
G01 X25.0245 Y32.6697
G01 X25.0322 Y32.6920
G01 X25.0404 Y32.7141
G01 X25.0491 Y32.7360
G01 X25.0584 Y32.7576
G01 X25.0682 Y32.7791
G01 X25.0785 Y32.8002
G01 X25.0894 Y32.8211
G01 X25.1008 Y32.8418
G01 X25.1126 Y32.8621
G01 X25.1250 Y32.8822
G01 X25.1378 Y32.9020
G01 X25.1512 Y32.9214
G01 X25.1650 Y32.9405
G01 X25.1792 Y32.9592
G01 X25.1940 Y32.9776
G01 X25.2091 Y32.9957
G01 X25.2247 Y33.0133
G01 X25.2408 Y33.0306
G01 X25.2572 Y33.0474
G01 X25.2741 Y33.0639
G01 X25.2913 Y33.0799
G01 X25.3090 Y33.0955
G01 X25.3270 Y33.1107
G01 X25.3454 Y33.1254
G01 X25.3642 Y33.1397
G01 X25.3833 Y33.1535
G01 X25.4027 Y33.1668
G01 X25.4224 Y33.1797
G01 X25.4425 Y33.1920
G01 X25.4629 Y33.2039
G01 X25.4835 Y33.2153
G01 X25.5044 Y33.2261
G01 X25.5256 Y33.2364
G01 X25.5470 Y33.2462
G01 X25.5687 Y33.2555
G01 X25.5905 Y33.2643
G01 X25.6126 Y33.2725
G01 X25.6349 Y33.2802
G01 X25.6574 Y33.2873
G01 X25.6800 Y33.2938
G01 X25.7028 Y33.2998
G01 X25.7257 Y33.3053
G01 X25.7488 Y33.3102
G01 X25.7719 Y33.3145
G01 X25.7952 Y33.3182
G01 X25.8185 Y33.3214
G01 X25.8419 Y33.3240
G01 X25.8654 Y33.3260
G01 X25.8889 Y33.3275
G01 X25.9125 Y33.3283
G01 X25.9360 Y33.3286
G01 X25.9596 Y33.3283
G01 X25.9831 Y33.3275
G01 X26.0067 Y33.3260
G01 X26.0301 Y33.3240
G01 X26.0536 Y33.3214
G01 X26.0769 Y33.3182
G01 X26.1002 Y33.3145
G01 X26.1233 Y33.3102
G01 X26.1464 Y33.3053
G01 X26.1693 Y33.2998
G01 X26.1921 Y33.2938
G01 X26.2147 Y33.2873
G01 X26.2372 Y33.2802
G01 X26.2595 Y33.2725
G01 X26.2815 Y33.2643
G01 X26.3034 Y33.2555
G01 X26.3251 Y33.2462
G01 X26.3465 Y33.2364
G01 X26.3677 Y33.2261
G01 X26.3886 Y33.2153
G01 X26.4092 Y33.2039
G01 X26.4296 Y33.1920
G01 X26.4496 Y33.1797
G01 X26.4694 Y33.1668
G01 X26.4888 Y33.1535
G01 X26.5079 Y33.1397
G01 X26.5267 Y33.1254
G01 X26.5451 Y33.1107
G01 X26.5631 Y33.0955
G01 X26.5807 Y33.0799
G01 X26.5980 Y33.0639
G01 X26.6149 Y33.0474
G01 X26.6313 Y33.0306
G01 X26.6474 Y33.0133
G01 X26.6630 Y32.9957
G01 X26.6781 Y32.9776
G01 X26.6929 Y32.9592
G01 X26.7071 Y32.9405
G01 X26.7209 Y32.9214
G01 X26.7343 Y32.9020
G01 X26.7471 Y32.8822
G01 X26.7595 Y32.8621
G01 X26.7713 Y32.8418
G01 X26.7827 Y32.8211
G01 X26.7935 Y32.8002
G01 X26.8039 Y32.7791
G01 X26.8137 Y32.7576
G01 X26.8230 Y32.7360
G01 X26.8317 Y32.7141
G01 X26.8399 Y32.6920
G01 X26.8476 Y32.6697
G01 X26.8547 Y32.6473
G01 X26.8613 Y32.6247
G01 X26.8673 Y32.6019
G01 X26.8727 Y32.5789
G01 X26.8776 Y32.5559
G01 X26.8819 Y32.5327
G01 X26.8856 Y32.5095
G01 X26.8888 Y32.4861
G01 X26.8914 Y32.4627
G01 X26.8934 Y32.4392
G01 X26.8949 Y32.4157
G01 X26.8958 Y32.3922
G01 X26.8960 Y32.3686
G01 X26.2560 Y32.3686
G01 X26.2552 Y32.3451
G01 X26.2526 Y32.3217
G01 X26.2499 Y32.3062
G01 X26.2465 Y32.2909
G01 X26.2399 Y32.2682
G01 X26.2346 Y32.2534
G01 X26.2286 Y32.2389
G01 X26.2183 Y32.2178
G01 X26.2105 Y32.2041
G01 X26.2021 Y32.1908
G01 X26.1883 Y32.1717
G01 X26.1731 Y32.1537
G01 X26.1623 Y32.1423
G01 X26.1509 Y32.1315
G01 X26.1390 Y32.1212
G01 X26.1267 Y32.1116
G01 X26.1072 Y32.0983
G01 X26.0869 Y32.0864
G01 X26.0729 Y32.0793
G01 X26.0585 Y32.0730
G01 X26.0364 Y32.0648
G01 X26.0138 Y32.0582
G01 X25.9985 Y32.0548
G01 X25.9752 Y32.0510
G01 X25.9596 Y32.0495
G01 X25.9439 Y32.0487
G01 X25.9282 Y32.0487
G01 X25.9125 Y32.0495
G01 X25.8969 Y32.0510
G01 X25.8736 Y32.0548
G01 X25.8583 Y32.0582
G01 X25.8357 Y32.0648
G01 X25.8136 Y32.0730
G01 X25.7992 Y32.0793
G01 X25.7852 Y32.0864
G01 X25.7648 Y32.0983
G01 X25.7518 Y32.1070
G01 X25.7392 Y32.1163
G01 X25.7270 Y32.1263
G01 X25.7098 Y32.1423
G01 X25.6989 Y32.1537
G01 X25.6838 Y32.1717
G01 X25.6700 Y32.1908
G01 X25.6616 Y32.2041
G01 X25.6538 Y32.2178
G01 X25.6468 Y32.2318
G01 X25.6375 Y32.2534
G01 X25.6322 Y32.2682
G01 X25.6276 Y32.2833
G01 X25.6238 Y32.2985
G01 X25.6208 Y32.3139
G01 X25.6184 Y32.3294
G01 X25.6169 Y32.3451
G01 X25.6160 Y32.3686
G01 X25.6164 Y32.3843
G01 X25.6176 Y32.4000
G01 X25.6195 Y32.4156
G01 X25.6222 Y32.4310
G01 X25.6256 Y32.4464
G01 X25.6298 Y32.4615
G01 X25.6347 Y32.4764
G01 X25.6404 Y32.4911
G01 X25.6468 Y32.5054
G01 X25.6538 Y32.5195
G01 X25.6616 Y32.5331
G01 X25.6700 Y32.5464
G01 X25.6790 Y32.5592
G01 X25.6887 Y32.5716
G01 X25.6989 Y32.5835
G01 X25.7098 Y32.5949
G01 X25.7211 Y32.6057
G01 X25.7330 Y32.6160
G01 X25.7454 Y32.6256
G01 X25.7583 Y32.6347
G01 X25.7715 Y32.6431
G01 X25.7852 Y32.6508
G01 X25.7992 Y32.6579
G01 X25.8136 Y32.6642
G01 X25.8282 Y32.6699
G01 X25.8431 Y32.6748
G01 X25.8583 Y32.6790
G01 X25.8736 Y32.6825
G01 X25.8891 Y32.6851
G01 X25.9047 Y32.6871
G01 X25.9203 Y32.6882
G01 X25.9360 Y32.6886
G01 X25.9517 Y32.6882
G01 X25.9674 Y32.6871
G01 X25.9830 Y32.6851
G01 X25.9985 Y32.6825
G01 X26.0138 Y32.6790
G01 X26.0289 Y32.6748
G01 X26.0438 Y32.6699
G01 X26.0585 Y32.6642
G01 X26.0729 Y32.6579
G01 X26.0869 Y32.6508
G01 X26.1006 Y32.6431
G01 X26.1138 Y32.6347
G01 X26.1267 Y32.6256
G01 X26.1390 Y32.6160
G01 X26.1509 Y32.6057
G01 X26.1623 Y32.5949
G01 X26.1731 Y32.5835
G01 X26.1834 Y32.5716
G01 X26.1931 Y32.5592
G01 X26.2021 Y32.5464
G01 X26.2105 Y32.5331
G01 X26.2183 Y32.5195
G01 X26.2253 Y32.5054
G01 X26.2317 Y32.4911
G01 X26.2373 Y32.4764
G01 X26.2423 Y32.4615
G01 X26.2465 Y32.4464
G01 X26.2499 Y32.4310
G01 X26.2526 Y32.4156
G01 X26.2545 Y32.4000
G01 X26.2557 Y32.3843
G01 X26.2560 Y32.3686
G00 Z2.0000
G00 X26.8020 Y31.0233
G01 F60.00
G01 Z-0.0600
G01 F200.00
G01 X26.7586 Y30.9962
G01 X26.7247 Y30.9765
G01 X26.6903 Y30.9575
G01 X26.6554 Y30.9394
G01 X26.6201 Y30.9222
G01 X26.5844 Y30.9059
G01 X26.5483 Y30.8904
G01 X26.5119 Y30.8758
G01 X26.4751 Y30.8621
G01 X26.4379 Y30.8494
G01 X26.4005 Y30.8375
G01 X26.3628 Y30.8266
G01 X26.3248 Y30.8166
G01 X26.2866 Y30.8075
G01 X26.2482 Y30.7993
G01 X26.2096 Y30.7922
G01 X26.1708 Y30.7859
G01 X26.1319 Y30.7806
G01 X26.0929 Y30.7763
G01 X26.0537 Y30.7729
G01 X26.0145 Y30.7705
G01 X25.9753 Y30.7691
G01 X25.9360 Y30.7686
G01 X25.8968 Y30.7691
G01 X25.8575 Y30.7705
G01 X25.8183 Y30.7729
G01 X25.7792 Y30.7763
G01 X25.7402 Y30.7806
G01 X25.7013 Y30.7859
G01 X25.6625 Y30.7922
G01 X25.6239 Y30.7993
G01 X25.5855 Y30.8075
G01 X25.5473 Y30.8166
G01 X25.5093 Y30.8266
G01 X25.4716 Y30.8375
G01 X25.4341 Y30.8494
G01 X25.3970 Y30.8621
G01 X25.3602 Y30.8758
G01 X25.3237 Y30.8904
G01 X25.2877 Y30.9059
G01 X25.2520 Y30.9222
G01 X25.2167 Y30.9394
G01 X25.1818 Y30.9575
G01 X25.1474 Y30.9765
G01 X25.1135 Y30.9962
G01 X25.0800 Y31.0168
G01 X25.0471 Y31.0383
G01 X25.0147 Y31.0605
G01 X24.9829 Y31.0835
G01 X24.9517 Y31.1073
G01 X24.9210 Y31.1318
G01 X24.8910 Y31.1571
G01 X24.8615 Y31.1831
G01 X24.8328 Y31.2098
G01 X24.8047 Y31.2372
G01 X24.7772 Y31.2653
G01 X24.7505 Y31.2941
G01 X24.7245 Y31.3235
G01 X24.6992 Y31.3536
G01 X24.6747 Y31.3842
G01 X24.6509 Y31.4155
G01 X24.6279 Y31.4473
G01 X24.6057 Y31.4797
G01 X24.5843 Y31.5126
G01 X24.5637 Y31.5460
G01 X24.5439 Y31.5800
G01 X24.5250 Y31.6144
G01 X24.5069 Y31.6492
G01 X24.4897 Y31.6845
G01 X24.4733 Y31.7202
G01 X24.4578 Y31.7563
G01 X24.4433 Y31.7928
G01 X24.4296 Y31.8296
G01 X24.4168 Y31.8667
G01 X24.4049 Y31.9042
G01 X24.3940 Y31.9419
G01 X24.3840 Y31.9798
G01 X24.3749 Y32.0180
G01 X24.3668 Y32.0565
G01 X24.3596 Y32.0951
G01 X24.3534 Y32.1338
G01 X24.3481 Y32.1727
G01 X24.3437 Y32.2118
G01 X24.3404 Y32.2509
G01 X24.3380 Y32.2901
G01 X24.3365 Y32.3293
G01 X24.3360 Y32.3686
G01 X24.3365 Y32.4079
G01 X24.3380 Y32.4471
G01 X24.3404 Y32.4863
G01 X24.3437 Y32.5254
G01 X24.3481 Y32.5645
G01 X24.3534 Y32.6034
G01 X24.3596 Y32.6421
G01 X24.3668 Y32.6808
G01 X24.3749 Y32.7192
G01 X24.3840 Y32.7574
G01 X24.3940 Y32.7953
G01 X24.4049 Y32.8331
G01 X24.4168 Y32.8705
G01 X24.4296 Y32.9076
G01 X24.4433 Y32.9444
G01 X24.4578 Y32.9809
G01 X24.4733 Y33.0170
G01 X24.4897 Y33.0527
G01 X24.5069 Y33.0880
G01 X24.5250 Y33.1228
G01 X24.5439 Y33.1572
G01 X24.5637 Y33.1912
G01 X24.5843 Y33.2246
G01 X24.6057 Y33.2575
G01 X24.6279 Y33.2899
G01 X24.6509 Y33.3217
G01 X24.6747 Y33.3530
G01 X24.6992 Y33.3836
G01 X24.7245 Y33.4137
G01 X24.7505 Y33.4431
G01 X24.7772 Y33.4719
G01 X24.8047 Y33.5000
G01 X24.8328 Y33.5274
G01 X24.8615 Y33.5541
G01 X24.8910 Y33.5801
G01 X24.9210 Y33.6054
G01 X24.9517 Y33.6300
G01 X24.9829 Y33.6537
G01 X25.0147 Y33.6767
G01 X25.0471 Y33.6990
G01 X25.0800 Y33.7204
G01 X25.1135 Y33.7410
G01 X25.1474 Y33.7607
G01 X25.1818 Y33.7797
G01 X25.2167 Y33.7978
G01 X25.2520 Y33.8150
G01 X25.2877 Y33.8313
G01 X25.3237 Y33.8468
G01 X25.3602 Y33.8614
G01 X25.3970 Y33.8751
G01 X25.4341 Y33.8879
G01 X25.4716 Y33.8997
G01 X25.5093 Y33.9106
G01 X25.5473 Y33.9207
G01 X25.5855 Y33.9297
G01 X25.6239 Y33.9379
G01 X25.6625 Y33.9451
G01 X25.7013 Y33.9513
G01 X25.7402 Y33.9566
G01 X25.7792 Y33.9609
G01 X25.8183 Y33.9643
G01 X25.8575 Y33.9667
G01 X25.8968 Y33.9681
G01 X25.9360 Y33.9686
G01 X25.9753 Y33.9681
G01 X26.0145 Y33.9667
G01 X26.0537 Y33.9643
G01 X26.0929 Y33.9609
G01 X26.1319 Y33.9566
G01 X26.1708 Y33.9513
G01 X26.2096 Y33.9451
G01 X26.2482 Y33.9379
G01 X26.2866 Y33.9297
G01 X26.3248 Y33.9207
G01 X26.3628 Y33.9106
G01 X26.4005 Y33.8997
G01 X26.4379 Y33.8879
G01 X26.4751 Y33.8751
G01 X26.5119 Y33.8614
G01 X26.5483 Y33.8468
G01 X26.5805 Y33.8330
G01 X24.1794 Y33.7583
G01 X24.1701 Y33.7467
G01 X24.1369 Y33.7030
G01 X24.1047 Y33.6584
G01 X24.0735 Y33.6131
G01 X24.0436 Y33.5670
G01 X24.0147 Y33.5202
G01 X23.9870 Y33.4727
G01 X23.9605 Y33.4245
G01 X23.9352 Y33.3757
G01 X23.9111 Y33.3263
G01 X23.8882 Y33.2763
G01 X23.8666 Y33.2258
G01 X23.8461 Y33.1748
G01 X23.8270 Y33.1232
G01 X23.8091 Y33.0713
G01 X23.7925 Y33.0188
G01 X23.7772 Y32.9660
G01 X23.7632 Y32.9129
G01 X23.7505 Y32.8594
G01 X23.7391 Y32.8056
G01 X23.7290 Y32.7516
G01 X23.7203 Y32.6973
G01 X23.7129 Y32.6428
G01 X23.7068 Y32.5882
G01 X23.7021 Y32.5334
G01 X23.6987 Y32.4785
G01 X23.6967 Y32.4236
G01 X23.6960 Y32.3686
G01 X23.6967 Y32.3136
G01 X23.6987 Y32.2587
G01 X23.7021 Y32.2038
G01 X23.7068 Y32.1490
G01 X23.7129 Y32.0944
G01 X23.7203 Y32.0399
G01 X23.7290 Y31.9857
G01 X23.7391 Y31.9316
G01 X23.7505 Y31.8778
G01 X23.7632 Y31.8243
G01 X23.7772 Y31.7712
G01 X23.7925 Y31.7184
G01 X23.8091 Y31.6660
G01 X23.8270 Y31.6140
G01 X23.8461 Y31.5624
G01 X23.8666 Y31.5114
G01 X23.8882 Y31.4609
G01 X23.9111 Y31.4109
G01 X23.9352 Y31.3615
G01 X23.9605 Y31.3127
G01 X23.9870 Y31.2645
G01 X24.0147 Y31.2170
G01 X24.0436 Y31.1702
G01 X24.0735 Y31.1241
G01 X24.1047 Y31.0788
G01 X24.1369 Y31.0342
G01 X24.1701 Y30.9905
G01 X24.2045 Y30.9476
G01 X24.2399 Y30.9055
G01 X24.2763 Y30.8643
G01 X24.3137 Y30.8240
G01 X24.3521 Y30.7847
G01 X24.3915 Y30.7463
G01 X24.4317 Y30.7089
G01 X24.4729 Y30.6725
G01 X24.5150 Y30.6371
G01 X24.5579 Y30.6027
G01 X24.6017 Y30.5694
G01 X24.6462 Y30.5372
G01 X24.6916 Y30.5061
G01 X24.7376 Y30.4761
G01 X24.7845 Y30.4473
G01 X24.8319 Y30.4196
G01 X24.8801 Y30.3931
G01 X24.9289 Y30.3678
G01 X24.9783 Y30.3437
G01 X25.0283 Y30.3208
G01 X25.0788 Y30.2991
G01 X25.1299 Y30.2787
G01 X25.1813 Y30.2596
G00 Z2.0000
G00 X23.9751 Y30.2596
G01 F60.00
G01 Z-0.0600
G01 F200.00
G01 X23.9502 Y30.2828
G01 X23.8996 Y30.3321
G01 X23.8502 Y30.3827
G01 X23.8021 Y30.4345
G01 X23.7553 Y30.4875
G01 X23.7098 Y30.5416
G01 X23.6656 Y30.5967
G01 X23.6228 Y30.6530
G01 X23.5814 Y30.7103
G01 X23.5414 Y30.7686
G01 X23.5029 Y30.8278
G01 X23.4658 Y30.8880
G01 X23.4302 Y30.9491
G01 X23.3961 Y31.0110
G01 X23.3636 Y31.0737
G01 X23.3326 Y31.1372
G01 X23.3031 Y31.2015
G01 X23.2753 Y31.2665
G01 X23.2490 Y31.3321
G01 X23.2244 Y31.3984
G01 X23.2014 Y31.4652
G01 X23.1801 Y31.5326
G01 X23.1604 Y31.6005
G01 X23.1424 Y31.6688
G01 X23.1260 Y31.7376
G01 X23.1114 Y31.8067
G01 X23.0984 Y31.8762
G01 X23.0872 Y31.9460
G01 X23.0777 Y32.0161
G01 X23.0699 Y32.0863
G01 X23.0638 Y32.1567
G01 X23.0595 Y32.2273
G01 X23.0569 Y32.2979
G01 X23.0560 Y32.3686
G01 X23.0569 Y32.4393
G01 X23.0595 Y32.5099
G01 X23.0638 Y32.5805
G01 X23.0696 Y32.6469
G01 X22.4966 Y31.6208
G01 X22.5016 Y31.5974
G01 X22.5215 Y31.5133
G01 X22.5435 Y31.4298
G01 X22.5676 Y31.3468
G01 X22.5937 Y31.2644
G01 X22.6218 Y31.1828
G01 X22.6519 Y31.1018
G01 X22.6840 Y31.0216
G01 X22.7180 Y30.9422
G01 X22.7540 Y30.8636
G01 X22.7919 Y30.7860
G01 X22.8317 Y30.7093
G01 X22.8733 Y30.6336
G01 X22.9168 Y30.5590
G01 X22.9622 Y30.4854
G01 X23.0093 Y30.4130
G01 X23.0581 Y30.3418
G01 X23.1087 Y30.2717
G01 X23.1180 Y30.2596
G00 Z2.0000
G00 X22.3506 Y30.2596
G01 F60.00
G01 Z-0.0600
G01 F200.00
G01 X22.3165 Y30.3181
G01 X22.2672 Y30.4076
G01 X22.2202 Y30.4982
G01 X22.1754 Y30.5900
G01 X22.1329 Y30.6828
G01 X22.0927 Y30.7766
G01 X22.0792 Y30.8104
G00 Z2.0000
G00 X22.2025 Y28.4124
G01 F60.00
G01 Z-0.0600
G01 F200.00
G01 X22.2828 Y28.3378
G01 X22.3828 Y28.2494
G01 X22.4849 Y28.1634
G01 X22.5892 Y28.0800
G01 X22.6954 Y27.9992
G01 X22.8036 Y27.9209
G01 X22.9137 Y27.8454
G01 X23.0257 Y27.7726
G01 X23.1393 Y27.7026
G01 X23.2547 Y27.6353
G01 X23.3716 Y27.5710
G01 X23.4902 Y27.5095
G01 X23.6101 Y27.4509
G01 X23.7315 Y27.3953
G01 X23.8542 Y27.3427
G01 X23.9782 Y27.2931
G01 X24.1034 Y27.2466
G01 X24.2296 Y27.2032
G01 X24.3569 Y27.1629
G01 X24.4851 Y27.1257
G01 X24.6142 Y27.0916
G01 X24.7441 Y27.0608
G01 X24.8747 Y27.0331
G01 X25.0060 Y27.0087
G01 X25.1378 Y26.9875
G01 X25.2701 Y26.9695
G01 X25.4028 Y26.9548
G01 X25.5358 Y26.9433
G01 X25.6691 Y26.9352
G01 X25.8025 Y26.9302
G01 X25.9360 Y26.9286
G01 X26.0695 Y26.9302
G01 X26.2030 Y26.9352
G01 X26.3362 Y26.9433
G01 X26.4693 Y26.9548
G01 X26.6020 Y26.9695
G01 X26.7343 Y26.9875
G01 X26.7859 Y26.9958
G00 Z2.0000
G00 X26.5805 Y27.6124
G01 F60.00
G01 Z-0.0600
G01 F200.00
G01 X26.5236 Y27.6047
G01 X26.4065 Y27.5917
G01 X26.2892 Y27.5816
G01 X26.1716 Y27.5744
G01 X26.0538 Y27.5701
G01 X25.9360 Y27.5686
G01 X25.8182 Y27.5701
G01 X25.7005 Y27.5744
G01 X25.5829 Y27.5816
G01 X25.4656 Y27.5917
G01 X25.3485 Y27.6047
G01 X25.2317 Y27.6206
G01 X25.1154 Y27.6393
G01 X24.9996 Y27.6608
G01 X24.8844 Y27.6852
G01 X24.7697 Y27.7125
G01 X24.6558 Y27.7425
G01 X24.5427 Y27.7753
G01 X24.4304 Y27.8109
G01 X24.3190 Y27.8492
G01 X24.2085 Y27.8902
G01 X24.0992 Y27.9340
G01 X23.9909 Y27.9804
G01 X23.8838 Y28.0295
G01 X23.7779 Y28.0811
G01 X23.6733 Y28.1354
G01 X23.5701 Y28.1922
G01 X23.4683 Y28.2515
G01 X23.3681 Y28.3133
G01 X23.2693 Y28.3776
G01 X23.2092 Y28.4188
G01 X22.3772 Y27.4395
G01 X22.4351 Y27.3977
G01 X22.5582 Y27.3133
G01 X22.6833 Y27.2319
G01 X22.8103 Y27.1536
G01 X22.9392 Y27.0785
G01 X23.0699 Y27.0065
G01 X23.2024 Y26.9378
G01 X23.3365 Y26.8724
G01 X23.4722 Y26.8102
G01 X23.6093 Y26.7514
G01 X23.7479 Y26.6960
G01 X23.8878 Y26.6440
G01 X24.0289 Y26.5955
G01 X24.1711 Y26.5504
G01 X24.3144 Y26.5088
G01 X24.4587 Y26.4708
G01 X24.6039 Y26.4363
G01 X24.7499 Y26.4054
G01 X24.8966 Y26.3781
G01 X25.0439 Y26.3544
G01 X25.1918 Y26.3343
G01 X25.3401 Y26.3179
G01 X25.4888 Y26.3051
G01 X25.6377 Y26.2959
G01 X25.7868 Y26.2904
G01 X25.9360 Y26.2886
G01 X26.0853 Y26.2904
G01 X26.2344 Y26.2959
G01 X26.3833 Y26.3051
G01 X26.5320 Y26.3179
G01 X26.6803 Y26.3343
G01 X26.8282 Y26.3544
G01 X26.9755 Y26.3781
G01 X27.1222 Y26.4054
G01 X27.2682 Y26.4363
G01 X27.4134 Y26.4708
G01 X27.5577 Y26.5088
G01 X27.7010 Y26.5504
G01 X27.8432 Y26.5955
G01 X27.9843 Y26.6440
G01 X28.0153 Y26.6555
G01 X29.0804 Y26.4299
G01 X28.9574 Y26.3661
G01 X28.8092 Y26.2938
G01 X28.6593 Y26.2251
G01 X28.5077 Y26.1601
G01 X28.3545 Y26.0989
G01 X28.1999 Y26.0414
G01 X28.0440 Y25.9878
G01 X27.8868 Y25.9380
G01 X27.7284 Y25.8920
G01 X27.5689 Y25.8500
G01 X27.4084 Y25.8119
G01 X27.2470 Y25.7777
G01 X27.0849 Y25.7475
G01 X26.9221 Y25.7213
G01 X26.7586 Y25.6991
G01 X26.5947 Y25.6810
G01 X26.4304 Y25.6668
G01 X26.2658 Y25.6567
G01 X26.1010 Y25.6506
G01 X25.9360 Y25.6486
G01 X25.7711 Y25.6506
G01 X25.6063 Y25.6567
G01 X25.4417 Y25.6668
G01 X25.2774 Y25.6810
G01 X25.1134 Y25.6991
G01 X24.9500 Y25.7213
G01 X24.7872 Y25.7475
G01 X24.6250 Y25.7777
G01 X24.4637 Y25.8119
G01 X24.3032 Y25.8500
G01 X24.1437 Y25.8920
G01 X23.9853 Y25.9380
G01 X23.8281 Y25.9878
G01 X23.6721 Y26.0414
G01 X23.5175 Y26.0989
G01 X23.3644 Y26.1601
G01 X23.2128 Y26.2251
G01 X23.0629 Y26.2938
G01 X22.9147 Y26.3661
G01 X22.7683 Y26.4421
G01 X22.6238 Y26.5216
G01 X22.5041 Y26.5914
G00 Z2.0000
G00 X22.2797 Y25.9815
G01 F60.00
G01 Z-0.0600
G01 F200.00
G01 X22.3083 Y25.9648
G01 X22.4666 Y25.8777
G01 X22.6269 Y25.7945
G01 X22.7892 Y25.7152
G01 X22.9535 Y25.6400
G01 X23.1195 Y25.5689
G01 X23.2872 Y25.5018
G01 X23.4565 Y25.4388
G01 X23.6273 Y25.3801
G01 X23.7995 Y25.3255
G01 X23.9730 Y25.2752
G01 X24.1477 Y25.2292
G01 X24.3235 Y25.1874
G01 X24.3606 Y25.1796
G00 Z2.0000
G00 X22.4277 Y25.1796
G01 F60.00
G01 Z-0.0600
G01 F200.00
G01 X22.3391 Y25.2228
G01 X22.1649 Y25.3132
G01 X21.9971 Y25.4056
G01 X24.6284 Y28.4195
G01 X24.7285 Y28.3877
G01 X24.8265 Y28.3593
G01 X24.9252 Y28.3333
G01 X25.0246 Y28.3097
G01 X25.1245 Y28.2885
G01 X25.2248 Y28.2699
G01 X25.3256 Y28.2536
G01 X25.4268 Y28.2399
G01 X25.5283 Y28.2286
G01 X25.6300 Y28.2199
G01 X25.7319 Y28.2136
G01 X25.8339 Y28.2099
G01 X25.9360 Y28.2086
G01 X26.0381 Y28.2099
G01 X26.1402 Y28.2136
G01 X26.2421 Y28.2199
G01 X26.3438 Y28.2286
G01 X26.4343 Y28.2387
G00 Z2.0000
G00 X29.0804 Y26.9570
G01 F60.00
G01 Z-0.0600
G01 F200.00
G01 X29.0804 Y26.3809
G01 X27.8791 Y25.1796
G01 X22.2085 Y25.1796
G01 X22.1818 Y25.2150
G01 X22.1608 Y25.2402
G01 X22.0893 Y25.3191
G01 X22.0779 Y25.3309
G01 X22.0591 Y25.3493
G01 X21.9852 Y25.4164
G01 X21.9601 Y25.4376
G01 X21.9380 Y25.4548
G01 X21.8710 Y25.5045
G01 X21.8537 Y25.5169
G01 X21.8340 Y25.5300
G01 X21.8482 Y25.5394
G01 X21.8671 Y25.5526
G01 X21.9420 Y25.6082
G01 X21.9601 Y25.6224
G01 X21.9852 Y25.6436
G01 X22.0542 Y25.7062
G01 X22.0779 Y25.7291
G01 X22.0971 Y25.7494
G01 X22.1531 Y25.8112
G01 X22.1672 Y25.8272
G01 X22.1818 Y25.8450
G01 X22.1918 Y25.8580
G01 X22.2445 Y25.9290
G01 X22.2606 Y25.9518
G01 X22.2749 Y25.9738
G01 X22.3238 Y26.0551
G01 X22.3377 Y26.0794
G01 X22.3527 Y26.1087
G01 X22.3905 Y26.1885
G01 X22.4019 Y26.2140
G01 X22.4139 Y26.2446
G01 X22.4454 Y26.3324
G01 X22.4554 Y26.3636
G01 X22.4628 Y26.3906
G01 X22.4858 Y26.4827
G01 X22.4912 Y26.5084
G01 X22.4959 Y26.5359
G01 X22.5088 Y26.6233
G01 X22.5126 Y26.6560
G01 X22.5146 Y26.6838
G01 X22.5191 Y26.7787
G01 X22.5194 Y26.8049
G01 X22.5187 Y26.8328
G01 X22.5139 Y26.9277
G01 X22.5126 Y26.9440
G01 X22.5097 Y26.9701
G01 X22.4951 Y27.0689
G01 X22.4924 Y27.0851
G01 X22.4879 Y27.1077
G01 X22.4831 Y27.1285
G01 X22.4599 Y27.2206
G01 X22.4526 Y27.2458
G01 X22.4437 Y27.2723
G01 X22.4156 Y27.3508
G01 X22.4056 Y27.3769
G01 X22.3926 Y27.4071
G01 X22.3548 Y27.4869
G01 X22.3423 Y27.5119
G01 X22.3297 Y27.5349
G01 X22.2784 Y27.6206
G01 X22.2661 Y27.6401
G01 X22.2512 Y27.6617
G01 X22.1948 Y27.7380
G01 X22.1776 Y27.7601
G01 X22.1672 Y27.7728
G01 X22.1531 Y27.7888
G01 X22.0971 Y27.8506
G01 X22.0779 Y27.8709
G01 X22.0542 Y27.8938
G01 X21.9888 Y27.9531
G01 X21.9728 Y27.9672
G01 X21.9601 Y27.9776
G01 X21.9380 Y27.9948
G01 X21.8710 Y28.0445
G01 X21.8537 Y28.0569
G01 X21.8340 Y28.0700
G01 X21.8537 Y28.0831
G01 X21.8710 Y28.0955
G01 X21.9380 Y28.1452
G01 X21.9601 Y28.1624
G01 X21.9852 Y28.1836
G01 X22.0591 Y28.2507
G01 X22.0709 Y28.2621
G01 X22.0893 Y28.2809
G01 X22.1608 Y28.3598
G01 X22.1818 Y28.3850
G01 X22.2069 Y28.4183
G01 X26.2292 Y28.4203
G01 X26.2998 Y28.3498
G01 X26.3199 Y28.3304
G01 X26.3578 Y28.2965
G01 X26.3756 Y28.2819
G01 X26.3925 Y28.2689
G01 X26.4216 Y28.2475
G01 X26.4432 Y28.2327
G01 X26.4627 Y28.2204
G01 X26.4921 Y28.2027
G01 X26.5064 Y28.1945
G01 X26.5267 Y28.1837
G01 X26.5459 Y28.1742
G01 X26.5805 Y28.1580
G01 X26.5805 Y27.5750
G01 X26.5809 Y27.5537
G01 X26.5828 Y27.5127
G01 X26.5845 Y27.4898
G01 X26.5874 Y27.4637
G01 X26.5944 Y27.4166
G01 X26.5992 Y27.3908
G01 X26.6042 Y27.3683
G01 X26.6143 Y27.3286
G01 X26.6216 Y27.3034
G01 X26.6304 Y27.2769
G01 X26.6427 Y27.2430
G01 X26.6550 Y27.2125
G01 X26.6638 Y27.1931
G01 X26.6794 Y27.1606
G01 X26.6946 Y27.1315
G01 X26.7053 Y27.1130
G01 X26.7239 Y27.0821
G01 X26.7420 Y27.0547
G01 X26.7544 Y27.0373
G01 X26.7760 Y27.0084
G01 X26.7966 Y26.9829
G01 X26.8107 Y26.9668
G01 X26.8350 Y26.9402
G01 X26.8581 Y26.9168
G01 X26.8736 Y26.9022
G01 X26.9004 Y26.8781
G01 X26.9257 Y26.8570
G01 X26.9426 Y26.8440
G01 X26.9716 Y26.8226
G01 X26.9988 Y26.8042
G01 X27.0169 Y26.7929
G01 X27.0479 Y26.7745
G01 X27.0768 Y26.7588
G01 X27.0959 Y26.7493
G01 X27.1286 Y26.7340
G01 X27.1588 Y26.7212
G01 X27.1788 Y26.7137
G01 X27.2128 Y26.7017
G01 X27.2442 Y26.6919
G01 X27.2648 Y26.6864
G01 X27.2998 Y26.6777
G01 X27.3319 Y26.6711
G01 X27.3530 Y26.6676
G01 X27.3887 Y26.6624
G01 X27.4050 Y26.6605
G01 X27.4311 Y26.6582
G01 X27.4721 Y26.6561
G01 X27.5000 Y26.6555
G01 X28.4000 Y26.6555
G01 X28.4213 Y26.6559
G01 X28.4574 Y26.6576
G01 X28.4786 Y26.6589
G01 X28.4950 Y26.6605
G01 X28.5179 Y26.6633
G01 X28.5470 Y26.6676
G01 X28.5681 Y26.6711
G01 X28.5842 Y26.6742
G01 X28.6114 Y26.6804
G01 X28.6400 Y26.6876
G01 X28.6622 Y26.6937
G01 X28.6779 Y26.6986
G01 X28.6981 Y26.7054
G01 X28.7258 Y26.7154
G01 X28.7473 Y26.7237
G01 X28.7775 Y26.7368
G01 X28.8232 Y26.7588
G01 X28.8521 Y26.7745
G01 X28.8831 Y26.7929
G01 X28.9012 Y26.8042
G01 X28.9284 Y26.8226
G01 X28.9666 Y26.8510
G01 X28.9795 Y26.8612
G01 X28.9996 Y26.8781
G01 X29.0348 Y26.9100
G01 X29.0582 Y26.9331
G01 X29.0804 Y26.9570
G01 X28.0056 Y25.3061
G01 X27.8990 Y25.2752
G01 X27.7244 Y25.2292
G01 X27.5486 Y25.1874
G01 X27.5115 Y25.1796
G00 Z2.0000
G00 X31.0804 Y34.1362
G01 F60.00
G01 Z-0.0600
G01 F200.00
G01 X31.0580 Y34.2013
G01 X31.0115 Y34.3264
G01 X30.9619 Y34.4504
G01 X30.9196 Y34.5492
G01 X31.0804 Y35.6090
G01 X31.0728 Y35.6214
G01 X30.9914 Y35.7465
G01 X30.9196 Y35.8511
G01 X31.0804 Y36.6915
G01 X31.0245 Y36.7579
G01 X30.9196 Y36.8766
G01 X31.0804 Y37.6314
G01 X31.0111 Y37.6991
G01 X30.9196 Y37.7840
G01 X31.0804 Y38.4944
G01 X31.0112 Y38.5527
G01 X30.9196 Y38.6260
G01 X31.0804 Y39.3101
G01 X30.9196 Y39.4264
G01 X31.0804 Y40.0920
G01 X30.9196 Y40.1966
G01 X31.0804 Y40.8499
G01 X31.0359 Y40.8773
G01 X30.9196 Y40.9451
G01 X31.0804 Y41.5901
G01 X30.9196 Y41.6786
G01 X31.0804 Y42.3163
G01 X30.9717 Y42.3727
G01 X30.9196 Y42.3981
G01 X31.0804 Y43.0318
G01 X30.9983 Y43.0718
G01 X30.9196 Y43.1079
G01 X31.0804 Y43.7381
G01 X30.9935 Y43.7779
G01 X30.9196 Y43.8096
G01 X31.0804 Y44.4369
G01 X30.9568 Y44.4899
G01 X30.9196 Y44.5048
G01 X31.0804 Y45.1297
G01 X30.9196 Y45.1940
G01 X31.0804 Y45.8179
G01 X30.9196 Y45.8777
G01 X31.0804 Y46.5006
G01 X31.0029 Y46.5294
G01 X30.9196 Y46.5581
G01 X31.0804 Y47.1795
G01 X30.9196 Y47.2348
G01 X31.0804 Y47.8563
G01 X31.0553 Y47.8649
G01 X30.9196 Y47.9079
G01 X31.0804 Y48.5283
G01 X30.9196 Y48.5792
G01 X31.0804 Y49.1996
G01 X31.0451 Y49.2108
G01 X30.9196 Y49.2471
G01 X31.0804 Y49.8668
G01 X30.9196 Y49.9135
G01 X31.0804 Y50.5331
G01 X30.9716 Y50.5647
G01 X30.9196 Y50.5784
G01 X31.0804 Y51.1978
G01 X30.9196 Y51.2402
G01 X31.0804 Y51.8596
G01 X30.9196 Y51.9020
G01 X31.0804 Y52.5214
G01 X30.9900 Y52.5453
G01 X30.9196 Y52.5620
G01 X31.0804 Y53.1815
G01 X30.9196 Y53.2197
G01 X31.0804 Y53.8393
G01 X30.9196 Y53.8775
G01 X31.0804 Y54.4970
G01 X30.9196 Y54.5352
G01 X31.0804 Y55.1548
G01 X31.0542 Y55.1610
G01 X30.9196 Y55.1895
G01 X31.0804 Y55.8096
G01 X30.9196 Y55.8437
G01 X31.0804 Y56.4637
G01 X30.9196 Y56.4978
G01 X31.0804 Y57.1179
G01 X30.9196 Y57.1519
G01 X31.0804 Y57.7720
G01 X30.9928 Y57.7906
G01 X30.9196 Y57.8042
G01 X31.0804 Y58.4252
G01 X30.9196 Y58.4551
G01 X31.0804 Y59.0761
G01 X30.9196 Y59.1061
G01 X31.0804 Y59.7271
G01 X30.9196 Y59.7570
G01 X31.0804 Y60.3780
G01 X30.9196 Y60.4080
G01 X31.0804 Y61.0290
G01 X30.9196 Y61.0589
G01 X31.0804 Y61.6799
G01 X31.0239 Y61.6905
G01 X30.9196 Y61.7072
G01 X31.0804 Y62.3296
G01 X30.9196 Y62.3554
G01 X31.0804 Y62.9777
G01 X30.9196 Y63.0036
G01 X31.0804 Y63.6259
G01 X30.9196 Y63.6518
G01 X31.0804 Y64.2741
G01 X30.9196 Y64.3000
G01 X31.0804 Y64.9223
G01 X30.9196 Y64.9482
G01 X31.0804 Y65.5705
G01 X30.9196 Y65.5963
G01 X31.0804 Y66.2186
G01 X30.9601 Y66.2380
G01 X30.9196 Y66.2435
G01 X31.0804 Y66.8668
G01 X31.0540 Y66.8711
G01 X30.9196 Y66.8893
G01 X31.0804 Y67.5133
G01 X30.9196 Y67.5352
G00 Z2.0000
G00 X30.9011 Y68.1835
G01 F60.00
G01 Z-0.0600
G01 F200.00
G01 X31.1179 Y68.1541
G00 Z2.0000
G00 X31.5423 Y68.7371
G01 F60.00
G01 Z-0.0600
G01 F200.00
G01 X31.3357 Y68.7703
G01 X30.4408 Y68.8919
G01 X30.4046 Y68.8959
G00 Z2.0000
G00 X29.6804 Y69.6200
G01 F60.00
G01 Z-0.0600
G01 F200.00
G01 X30.5191 Y69.5270
G01 X31.4296 Y69.4034
G01 X32.1007 Y69.2954
G01 X32.6545 Y69.8492
G01 X32.4463 Y69.8880
G01 X31.5235 Y70.0364
G01 X30.5974 Y70.1622
G01 X29.6685 Y70.2652
G01 X28.9756 Y70.3249
G01 X33.2033 Y70.3980
G01 X32.5557 Y70.5186
G01 X31.6174 Y70.6695
G01 X30.6758 Y70.7974
G01 X29.7313 Y70.9022
G01 X28.7845 Y70.9837
G01 X27.8359 Y71.0420
G01 X26.8863 Y71.0769
G01 X25.9360 Y71.0886
G01 X24.9858 Y71.0769
G01 X24.0361 Y71.0420
G01 X23.0876 Y70.9837
G01 X22.3432 Y70.9196
G01 X19.3743 Y73.7688
G01 X18.7693 Y73.6714
G01 X17.7579 Y73.4831
G01 X16.7513 Y73.2700
G01 X15.7503 Y73.0323
G01 X14.7554 Y72.7701
G01 X14.2891 Y72.6349
G01 X15.2045 Y73.5503
G01 X15.5948 Y73.6531
G01 X16.0818 Y73.7688
G01 X15.2673 Y70.9196
G01 X16.2168 Y71.1699
G01 X17.1720 Y71.3967
G01 X18.1324 Y71.6000
G01 X19.0976 Y71.7797
G01 X20.0668 Y71.9357
G01 X21.0396 Y72.0678
G01 X22.0154 Y72.1760
G01 X22.9935 Y72.2602
G01 X23.9733 Y72.3204
G01 X24.9544 Y72.3566
G01 X25.9360 Y72.3686
G01 X26.9177 Y72.3566
G01 X27.8987 Y72.3204
G01 X28.8786 Y72.2602
G01 X29.8567 Y72.1760
G01 X30.8325 Y72.0678
G01 X31.8053 Y71.9357
G01 X32.7745 Y71.7797
G01 X33.7397 Y71.6000
G01 X34.0806 Y71.5278
G01 X34.0806 Y72.1820
G01 X33.8645 Y72.2277
G01 X32.8839 Y72.4103
G01 X31.8992 Y72.5687
G01 X30.9108 Y72.7030
G01 X29.9195 Y72.8129
G01 X28.9257 Y72.8985
G01 X27.9302 Y72.9597
G01 X26.9334 Y72.9964
G01 X25.9360 Y73.0086
G01 X24.9387 Y72.9964
G01 X23.9419 Y72.9597
G01 X22.9464 Y72.8985
G01 X21.9526 Y72.8129
G01 X20.9613 Y72.7030
G01 X19.9729 Y72.5687
G01 X18.9881 Y72.4103
G01 X18.0076 Y72.2277
G01 X17.0318 Y72.0211
G01 X16.0613 Y71.7907
G01 X15.0968 Y71.5365
G01 X14.1389 Y71.2587
G01 X13.1880 Y70.9574
G01 X12.3998 Y70.6863
G00 Z2.0000
G00 X12.3999 Y70.0079
G01 F60.00
G01 Z-0.0600
G01 F200.00
G01 X12.4604 Y70.0304
G01 X13.3888 Y70.3497
G01 X14.3247 Y70.6462
G01 X14.3544 Y70.6549
G00 Z2.0000
G00 X13.3639 Y69.6644
G01 F60.00
G01 Z-0.0600
G01 F200.00
G01 X12.6761 Y69.4278
G01 X12.4000 Y69.3252
G00 Z2.0000
G00 X12.4002 Y68.6425
G01 F60.00
G01 Z-0.0600
G01 F200.00
G01 X12.8516 Y68.8103
G00 Z2.0000
G00 X12.8504 Y68.1271
G01 F60.00
G01 Z-0.0600
G01 F200.00
G01 X12.4003 Y67.9598
G01 X12.6868 Y67.3836
G01 X12.5107 Y67.3181
G01 X13.3270 Y71.6727
G01 X13.9531 Y71.8711
G01 X14.9261 Y72.1533
G01 X15.9058 Y72.4115
G01 X16.8915 Y72.6456
G01 X17.8827 Y72.8554
G01 X18.8787 Y73.0409
G01 X19.8790 Y73.2018
G01 X20.8829 Y73.3382
G01 X21.8899 Y73.4498
G01 X22.8993 Y73.5368
G01 X23.9105 Y73.5989
G01 X24.9230 Y73.6362
G01 X25.9360 Y73.6486
G01 X26.9491 Y73.6362
G01 X27.9616 Y73.5989
G01 X28.9728 Y73.5368
G01 X29.9822 Y73.4498
G01 X30.9892 Y73.3382
G01 X31.9931 Y73.2018
G01 X32.9933 Y73.0409
G01 X33.9894 Y72.8554
G01 X34.0806 Y72.8361
G01 X34.0806 Y73.4894
G01 X33.1028 Y73.6714
G01 X32.4978 Y73.7688
G01 X33.7492 Y70.9439
G01 X33.6148 Y70.9723
G01 X32.6651 Y71.1491
G01 X31.7114 Y71.3026
G01 X30.7541 Y71.4326
G01 X29.7940 Y71.5391
G01 X28.8315 Y71.6220
G01 X27.8673 Y71.6812
G01 X26.9020 Y71.7168
G01 X25.9360 Y71.7286
G01 X24.9701 Y71.7168
G01 X24.0047 Y71.6812
G01 X23.0405 Y71.6220
G01 X22.0781 Y71.5391
G01 X21.1180 Y71.4326
G01 X20.1607 Y71.3026
G01 X19.2070 Y71.1491
G01 X18.2573 Y70.9723
G01 X18.0082 Y70.9196
G00 Z2.0000
G00 X42.6695 Y70.8013
G01 F60.00
G01 Z-0.0600
G01 F200.00
G01 X42.9238 Y70.6923
G01 X43.3305 Y70.5060
G00 Z2.0000
G00 X43.3305 Y69.8021
G01 F60.00
G01 Z-0.0600
G01 F200.00
G01 X42.6695 Y70.1049
G00 Z2.0000
G00 X42.6695 Y69.4010
G01 F60.00
G01 Z-0.0600
G01 F200.00
G01 X43.3119 Y69.1067
G01 X43.3305 Y69.0976
G00 Z2.0000
G00 X43.3305 Y68.3855
G01 F60.00
G01 Z-0.0600
G01 F200.00
G01 X43.0382 Y68.5282
G01 X42.6695 Y68.6971
G00 Z2.0000
G00 X42.6695 Y67.9932
G01 F60.00
G01 Z-0.0600
G01 F200.00
G01 X42.7646 Y67.9496
G01 X43.3305 Y67.6734
G00 Z2.0000
G00 X43.3305 Y66.9613
G01 F60.00
G01 Z-0.0600
G01 F200.00
G01 X42.6695 Y67.2840
G00 Z2.0000
G00 X42.6695 Y66.5719
G01 F60.00
G01 Z-0.0600
G01 F200.00
G01 X43.0572 Y66.3826
G01 X43.3305 Y66.2408
G00 Z2.0000
G00 X43.3305 Y65.5198
G01 F60.00
G01 Z-0.0600
G01 F200.00
G01 X42.7695 Y65.8109
G01 X42.6695 Y65.8597
G01 X42.6695 Y65.1419
G01 X43.2834 Y64.8233
G01 X43.3305 Y64.7974
G00 Z2.0000
G00 X43.3305 Y64.0669
G01 F60.00
G01 Z-0.0600
G01 F200.00
G01 X42.9817 Y64.2589
G01 X42.6695 Y64.4209
G00 Z2.0000
G00 X42.6695 Y63.6999
G01 F60.00
G01 Z-0.0600
G01 F200.00
G01 X42.6801 Y63.6944
G01 X43.3305 Y63.3364
G00 Z2.0000
G00 X43.3305 Y62.5994
G01 F60.00
G01 Z-0.0600
G01 F200.00
G01 X43.1283 Y62.7172
G01 X42.6695 Y62.9698
G00 Z2.0000
G00 X42.6695 Y62.2393
G01 F60.00
G01 Z-0.0600
G01 F200.00
G01 X42.8129 Y62.1604
G01 X43.3305 Y61.8587
G00 Z2.0000
G00 X43.3305 Y61.1139
G01 F60.00
G01 Z-0.0600
G01 F200.00
G01 X43.2099 Y61.1883
G01 X42.6695 Y61.5033
G00 Z2.0000
G00 X42.6695 Y60.7626
G01 F60.00
G01 Z-0.0600
G01 F200.00
G01 X42.8809 Y60.6393
G01 X43.3305 Y60.3623
G01 X42.6695 Y60.0179
G01 X43.2272 Y59.6743
G01 X43.3305 Y59.6070
G01 X42.6695 Y59.2662
G01 X42.8848 Y59.1336
G01 X43.3305 Y58.8436
G01 X42.6695 Y58.5102
G01 X43.1809 Y58.1774
G01 X43.3305 Y58.0748
G01 X42.6695 Y57.7467
G01 X42.8254 Y57.6453
G01 X43.3305 Y57.2987
G01 X42.6695 Y56.9762
G01 X43.0721 Y56.6999
G01 X43.3305 Y56.5131
G01 X42.6695 Y56.2001
G01 X42.7036 Y56.1767
G01 X43.2828 Y55.7580
G01 X43.3305 Y55.7217
G01 X42.6695 Y55.4117
G01 X42.9016 Y55.2440
G01 X43.3305 Y54.9176
G01 X42.6695 Y54.6164
G01 X43.0641 Y54.3162
G01 X43.3305 Y54.1029
G01 X42.6695 Y53.8123
G01 X43.1915 Y53.3945
G01 X43.3305 Y53.2775
G01 X42.6695 Y52.9927
G01 X42.7855 Y52.8998
G01 X43.2843 Y52.4801
G01 X43.3305 Y52.4392
G01 X42.6695 Y52.1611
G01 X42.8663 Y51.9955
G01 X43.3305 Y51.5849
G01 X42.6695 Y51.3152
G01 X42.9131 Y51.0999
G01 X43.3305 Y50.7120
G01 X42.6695 Y50.4527
G01 X42.9263 Y50.2141
G01 X43.3305 Y49.8196
G01 X42.6695 Y49.5706
G01 X42.9066 Y49.3392
G01 X43.3180 Y48.9176
G01 X43.3305 Y48.9040
G01 X42.6695 Y48.6659
G01 X42.8545 Y48.4763
G01 X43.2447 Y48.0562
G01 X43.3305 Y47.9591
G01 X42.6695 Y47.7351
G01 X42.7705 Y47.6264
G01 X43.1398 Y47.2087
G01 X43.3305 Y46.9820
G01 X42.6695 Y46.7737
G01 X43.0041 Y46.3760
G01 X43.3305 Y45.9682
G01 X42.6695 Y45.7700
G01 X42.8382 Y45.5592
G01 X43.1568 Y45.1404
G01 X43.3305 Y44.9000
G01 X42.6695 Y44.7222
G01 X42.9418 Y44.3454
G01 X43.2306 Y43.9245
G01 X43.3305 Y43.7709
G01 X42.6695 Y43.6112
G01 X42.6985 Y43.5689
G01 X42.9683 Y43.1542
G01 X43.2278 Y42.7329
G01 X43.3305 Y42.5567
G01 X42.6695 Y42.4192
G01 X42.6789 Y42.4039
G01 X42.9201 Y41.9900
G01 X43.1511 Y41.5703
G01 X43.3305 Y41.2245
G01 X42.6695 Y41.1091
G01 X42.8001 Y40.8573
G01 X43.0034 Y40.4408
G01 X43.1963 Y40.0196
G01 X43.3305 Y39.7065
G01 X42.6695 Y39.6244
G01 X42.7876 Y39.3488
G01 X42.9538 Y38.9331
G01 X43.1098 Y38.5135
G01 X43.2554 Y38.0902
G01 X43.3305 Y37.8531
G01 X42.6695 Y37.8208
G01 X42.7782 Y37.4776
G01 X42.8985 Y37.0628
G01 X43.0086 Y36.6451
G01 X43.1084 Y36.2248
G01 X43.1979 Y35.8022
G01 X43.2769 Y35.3775
G01 X43.3305 Y35.0443
G00 Z2.0000
G00 X42.6483 Y35.2557
G01 F60.00
G01 Z-0.0600
G01 F200.00
G01 X42.7125 Y34.8572
G01 X42.7548 Y34.5457
G00 Z2.0000
G00 X43.3305 Y33.8941
G01 F60.00
G01 Z-0.0600
G01 F200.00
G01 X43.3163 Y33.9233
G01 X43.3006 Y33.9521
G01 X43.2762 Y33.9930
G01 X43.2619 Y34.0150
G01 X43.2457 Y34.0378
G01 X43.2281 Y34.0614
G01 X43.2139 Y34.0796
G01 X43.1970 Y34.0996
G01 X43.1696 Y34.1301
G01 X43.1502 Y34.1502
G01 X42.4346 Y34.8659
G01 X42.4554 Y34.8890
G01 X42.4764 Y34.9147
G01 X42.5282 Y34.9837
G01 X42.5465 Y35.0098
G01 X42.5636 Y35.0368
G01 X42.5793 Y35.0645
G01 X42.5937 Y35.0929
G01 X42.6068 Y35.1220
G01 X42.6212 Y35.1592
G01 X42.6321 Y35.1916
G01 X42.6413 Y35.2245
G01 X42.6488 Y35.2578
G01 X42.6597 Y35.3179
G01 X42.6646 Y35.3516
G01 X42.6671 Y35.3754
G01 X42.6683 Y35.3925
G01 X42.6691 Y35.4095
G01 X42.6695 Y35.4317
G01 X42.6694 Y79.3690
G01 X43.3306 Y79.3690
G01 X43.3305 Y33.8941
G00 Z2.0000
G00 X43.8890 Y29.1506
G01 F60.00
G01 Z-0.0600
G01 F200.00
G01 X43.8256 Y28.8102
G01 X43.7868 Y28.6272
G01 X44.0305 Y29.1179
G01 X44.0305 Y28.4695
G01 X43.9448 Y28.4695
G01 X43.4196 Y28.9938
G01 X43.4196 Y29.5511
G01 X43.4300 Y29.5313
G01 X43.4410 Y29.5118
G01 X43.4542 Y29.4901
G01 X43.4629 Y29.4767
G01 X43.4756 Y29.4583
G01 X43.4888 Y29.4407
G01 X43.5083 Y29.4129
G01 X43.5246 Y29.3918
G01 X43.5352 Y29.3790
G01 X43.5505 Y29.3615
G01 X43.5619 Y29.3493
G01 X43.5806 Y29.3305
G01 X43.5927 Y29.3191
G01 X43.6051 Y29.3080
G01 X43.6229 Y29.2929
G01 X43.6359 Y29.2826
G01 X43.6572 Y29.2667
G01 X43.6709 Y29.2572
G01 X43.6904 Y29.2445
G01 X43.7046 Y29.2359
G01 X43.7427 Y29.2137
G01 X43.7662 Y29.2013
G01 X43.7811 Y29.1940
G01 X43.8024 Y29.1843
G01 X43.8177 Y29.1779
G01 X43.8471 Y29.1668
G01 X43.8666 Y29.1589
G01 X43.8822 Y29.1530
G01 X43.9043 Y29.1455
G01 X43.9297 Y29.1379
G01 X43.9523 Y29.1320
G01 X43.9782 Y29.1263
G01 X44.0011 Y29.1221
G01 X44.0305 Y29.1179
G00 Z2.0000
G00 X42.6695 Y27.1426
G01 F60.00
G01 Z-0.0600
G01 F200.00
G01 X42.8690 Y26.9430
G01 X43.0801 Y26.6935
G01 X43.0806 Y26.4690
G01 X43.0821 Y26.4274
G01 X43.0840 Y26.3996
G01 X43.0869 Y26.3735
G01 X43.0907 Y26.3475
G01 X43.0941 Y26.3265
G01 X43.0973 Y26.3103
G01 X43.1023 Y26.2878
G01 X43.1100 Y26.2576
G01 X43.1173 Y26.2324
G01 X43.1224 Y26.2168
G01 X43.1328 Y26.1875
G01 X43.1411 Y26.1660
G01 X43.1514 Y26.1418
G01 X43.1647 Y26.1136
G01 X43.1750 Y26.0931
G01 X43.1877 Y26.0701
G01 X43.2036 Y26.0433
G01 X43.2159 Y26.0238
G01 X43.2308 Y26.0022
G01 X43.2493 Y25.9771
G01 X43.2635 Y25.9590
G01 X43.2804 Y25.9389
G01 X43.3012 Y25.9157
G01 X43.3171 Y25.8990
G01 X43.3359 Y25.8807
G01 X43.3592 Y25.8595
G01 X43.3529 Y25.8349
G01 X43.3476 Y25.8107
G01 X43.3429 Y25.7859
G01 X43.3401 Y25.7682
G01 X43.3372 Y25.7451
G01 X43.3332 Y25.7062
G01 X43.3312 Y25.6777
G01 X43.3307 Y25.6597
G01 X43.3305 Y23.9699
G01 X42.4346 Y24.8659
G01 X42.4554 Y24.8890
G01 X42.4765 Y24.9147
G01 X42.5254 Y24.9799
G01 X42.5376 Y24.9967
G01 X42.5552 Y25.0232
G01 X42.5716 Y25.0506
G01 X42.5867 Y25.0786
G01 X42.5965 Y25.0988
G01 X42.6092 Y25.1280
G01 X42.6212 Y25.1592
G01 X42.6290 Y25.1819
G01 X42.6387 Y25.2146
G01 X42.6452 Y25.2411
G01 X42.6510 Y25.2695
G01 X42.6608 Y25.3246
G01 X42.6654 Y25.3585
G01 X42.6683 Y25.3925
G01 X42.6691 Y25.4095
G01 X42.6695 Y25.4317
G01 X42.6695 Y27.1426
G00 Z2.0000
G00 X42.7239 Y27.0881
G01 F60.00
G01 Z-0.0600
G01 F200.00
G01 X42.6695 Y26.9164
G00 Z2.0000
G00 X43.1152 Y26.2394
G01 F60.00
G01 Z-0.0600
G01 F200.00
G01 X43.1098 Y26.2237
G01 X42.9538 Y25.8041
G01 X42.7876 Y25.3885
G01 X42.6112 Y24.9770
G01 X42.5208 Y24.7797
G00 Z2.0000
G00 X43.0036 Y24.2969
G01 F60.00
G01 Z-0.0600
G01 F200.00
G01 X43.1963 Y24.7177
G01 X43.3305 Y25.0308
G00 Z2.0000
G00 X43.0248 Y21.6747
G01 F60.00
G01 Z-0.0600
G01 F200.00
G01 X42.9683 Y21.5831
G01 X42.6985 Y21.1683
G01 X42.6695 Y21.1260
G01 X43.4892 Y21.2103
G01 X43.2306 Y20.8127
G01 X42.9418 Y20.3918
G01 X42.6695 Y20.0150
G01 X43.3305 Y19.8372
G01 X43.1568 Y19.5968
G01 X42.8382 Y19.1780
G01 X42.6695 Y18.9672
G01 X43.3305 Y18.7691
G01 X43.0041 Y18.3612
G01 X42.6695 Y17.9635
G01 X43.3305 Y17.7552
G01 X43.1398 Y17.5285
G01 X42.7705 Y17.1108
G01 X42.6695 Y17.0021
G01 X43.3305 Y16.7781
G01 X43.2447 Y16.6810
G01 X42.8545 Y16.2609
G01 X42.6695 Y16.0713
G01 X43.3305 Y15.8332
G01 X43.3180 Y15.8196
G01 X42.9066 Y15.3980
G01 X42.6695 Y15.1667
G01 X43.3305 Y14.9176
G01 X42.9263 Y14.5232
G01 X42.6695 Y14.2845
G01 X43.3305 Y14.0252
G01 X42.9131 Y13.6374
G01 X42.6695 Y13.4220
G01 X43.3305 Y13.1523
G01 X42.8663 Y12.7418
G01 X42.6695 Y12.5761
G01 X43.3305 Y12.2980
G01 X43.2843 Y12.2571
G01 X42.7855 Y11.8374
G01 X42.6695 Y11.7446
G01 X43.3305 Y11.4597
G01 X43.1915 Y11.3427
G01 X42.6695 Y10.9249
G01 X43.3305 Y10.6343
G01 X43.0641 Y10.4210
G01 X42.6695 Y10.1208
G01 X43.3305 Y9.8196
G01 X42.9016 Y9.4933
G01 X42.6695 Y9.3255
G01 X43.3305 Y9.0155
G01 X43.2828 Y8.9792
G01 X42.7036 Y8.5605
G01 X42.6695 Y8.5371
G01 X43.3305 Y8.2241
G01 X43.0721 Y8.0373
G01 X42.6695 Y7.7610
G01 X43.3305 Y7.4385
G01 X42.8254 Y7.0919
G01 X42.6695 Y6.9905
G01 X43.3305 Y6.6624
G01 X43.1809 Y6.5598
G01 X42.6695 Y6.2270
G01 X43.3305 Y5.8937
G01 X42.8848 Y5.6036
G01 X42.6695 Y5.4710
G01 X43.3305 Y5.1302
G01 X43.2272 Y5.0629
G01 X42.6695 Y4.7193
G01 X42.6695 Y3.9747
G01 X42.8809 Y4.0979
G01 X43.3305 Y4.3750
G01 X43.3305 Y3.6233
G01 X43.2099 Y3.5489
G01 X42.6695 Y3.2340
G00 Z2.0000
G00 X42.6695 Y2.4979
G01 F60.00
G01 Z-0.0600
G01 F200.00
G01 X42.8129 Y2.5768
G01 X43.3305 Y2.8785
G00 Z2.0000
G00 X43.3305 Y2.1378
G01 F60.00
G01 Z-0.0600
G01 F200.00
G01 X43.1283 Y2.0200
G01 X42.6695 Y1.7674
G00 Z2.0000
G00 X42.6695 Y1.0373
G01 F60.00
G01 Z-0.0600
G01 F200.00
G01 X42.6801 Y1.0428
G01 X43.3305 Y1.4008
G00 Z2.0000
G00 X43.3305 Y0.6703
G01 F60.00
G01 Z-0.0600
G01 F200.00
G01 X43.2592 Y0.6310
G00 Z2.0000
G00 X53.5578 Y15.5905
G01 F60.00
G01 Z-0.0600
G01 F200.00
G01 X53.6578 Y15.7528
G01 X54.0573 Y16.4381
G01 X54.4397 Y17.1331
G01 X54.8050 Y17.8372
G01 X55.1530 Y18.5500
G01 X55.4833 Y19.2712
G01 X55.6801 Y19.7302
G01 X56.3763 Y19.7302
G01 X56.0684 Y19.0119
G01 X55.7315 Y18.2764
G01 X55.3767 Y17.5494
G01 X55.0042 Y16.8314
G01 X54.6141 Y16.1227
G01 X54.3339 Y15.6419
G01 X55.4187 Y16.2574
G01 X55.5686 Y16.5297
G01 X55.9484 Y17.2617
G01 X56.3101 Y18.0028
G01 X56.6535 Y18.7525
G01 X56.7302 Y18.9315
G01 X54.9455 Y19.6409
G01 X54.8982 Y19.5306
G01 X54.5744 Y18.8237
G01 X54.2334 Y18.1249
G01 X53.8753 Y17.4348
G01 X53.5004 Y16.7536
G01 X53.4196 Y16.6149
G00 Z2.0000
G00 X53.4196 Y17.9460
G01 F60.00
G01 Z-0.0600
G01 F200.00
G01 X53.6617 Y18.4127
G01 X53.9959 Y19.0973
G01 X54.2008 Y19.5446
G00 Z2.0000
G00 X53.5267 Y19.6097
G01 F60.00
G01 Z-0.0600
G01 F200.00
G01 X53.4196 Y19.3759
G00 Z2.0000
G00 X53.4060 Y19.6565
G01 F60.00
G01 Z-0.0600
G01 F200.00
G01 X53.4331 Y19.6443
G01 X53.4575 Y19.6346
G01 X53.5422 Y19.6041
G01 X53.5624 Y19.5973
G01 X53.5845 Y19.5906
G01 X53.6051 Y19.5851
G01 X53.6813 Y19.5660
G01 X53.7085 Y19.5598
G01 X53.7408 Y19.5539
G01 X53.8234 Y19.5416
G01 X53.8445 Y19.5389
G01 X53.8609 Y19.5372
G01 X53.8887 Y19.5352
G01 X53.9672 Y19.5313
G01 X53.9885 Y19.5307
G01 X54.0115 Y19.5307
G01 X54.0328 Y19.5313
G01 X54.1162 Y19.5355
G01 X54.1326 Y19.5366
G01 X54.1555 Y19.5389
G01 X55.6369 Y19.7302
G01 X56.7302 Y19.7302
G01 X56.7302 Y17.5260
G01 X55.5682 Y16.3639
G01 X54.5588 Y15.6445
G01 X54.4000 Y15.6445
G01 X54.3787 Y15.6441
G01 X54.3311 Y15.6418
G01 X54.3050 Y15.6395
G01 X54.2887 Y15.6376
G01 X54.2481 Y15.6317
G01 X54.2254 Y15.6277
G01 X54.1998 Y15.6223
G01 X54.1600 Y15.6124
G01 X54.1378 Y15.6063
G01 X54.1128 Y15.5983
G01 X54.0742 Y15.5846
G01 X54.0527 Y15.5763
G01 X54.0286 Y15.5660
G01 X53.9915 Y15.5485
G01 X53.9709 Y15.5382
G01 X53.9479 Y15.5255
G01 X53.9127 Y15.5045
G01 X53.8933 Y15.4922
G01 X53.8716 Y15.4774
G01 X53.8387 Y15.4530
G01 X53.8205 Y15.4388
G01 X53.8004 Y15.4219
G01 X53.7700 Y15.3945
G01 X53.7533 Y15.3786
G01 X53.7350 Y15.3598
G01 X53.7074 Y15.3295
G01 X53.6924 Y15.3121
G01 X53.6747 Y15.2899
G01 X53.4196 Y15.9461
G01 X53.4196 Y19.5000
G01 X53.4188 Y19.5328
G01 X53.4173 Y19.5623
G01 X53.4156 Y19.5852
G01 X53.4127 Y19.6113
G01 X53.4060 Y19.6565
G00 Z2.0000
G00 X43.5654 Y21.1341
G01 F60.00
G01 Z-0.0600
G01 F200.00
G01 X43.5446 Y21.1110
G01 X43.5235 Y21.0853
G01 X43.4715 Y21.0160
G01 X43.4520 Y20.9879
G01 X43.4338 Y20.9589
G01 X43.4172 Y20.9289
G01 X43.4017 Y20.8973
G01 X43.3917 Y20.8744
G01 X43.3788 Y20.8408
G01 X43.3680 Y20.8085
G01 X43.3588 Y20.7756
G01 X43.3512 Y20.7423
G01 X43.3403 Y20.6822
G01 X43.3354 Y20.6484
G01 X43.3335 Y20.6314
G01 X43.3317 Y20.6075
G01 X43.3306 Y20.5734
G01 X43.3306 Y0.6310
G01 X42.6694 Y0.6310
G01 X42.6695 Y22.0301
G01 X43.5654 Y21.1341
G00 Z2.0000
G00 X61.6623 Y12.3183
G01 F60.00
G01 Z-0.0600
G01 F200.00
G01 X61.7093 Y12.2498
G01 X61.8243 Y12.0907
G01 X61.9432 Y11.9344
G01 X62.0659 Y11.7811
G01 X62.1526 Y11.6781
G00 Z2.0000
G00 X62.3300 Y12.0417
G01 F60.00
G01 Z-0.0600
G01 F200.00
G01 X62.2768 Y11.9528
G01 X62.2654 Y11.9327
G01 X62.2578 Y11.9182
G01 X62.2483 Y11.8990
G01 X62.1938 Y11.7837
G01 X62.1850 Y11.7643
G01 X62.1762 Y11.7430
G01 X62.1686 Y11.7230
G01 X62.1257 Y11.6029
G01 X62.1188 Y11.5827
G01 X62.1139 Y11.5670
G01 X62.1066 Y11.5400
G01 X62.0756 Y11.4163
G01 X62.0707 Y11.3955
G01 X62.0662 Y11.3729
G01 X62.0628 Y11.3518
G01 X62.0440 Y11.2257
G01 X62.0413 Y11.2045
G01 X62.0396 Y11.1882
G01 X62.0376 Y11.1603
G01 X62.0313 Y11.0328
G01 X62.0307 Y11.0115
G01 X62.0306 Y10.9951
G01 X62.0313 Y10.9672
G01 X62.0376 Y10.8397
G01 X62.0390 Y10.8184
G01 X62.0405 Y10.8021
G01 X62.0440 Y10.7743
G01 X62.0628 Y10.6482
G01 X62.0662 Y10.6271
G01 X62.0707 Y10.6045
G01 X62.0756 Y10.5837
G01 X62.1066 Y10.4600
G01 X62.1121 Y10.4394
G01 X62.1168 Y10.4236
G01 X62.1257 Y10.3971
G01 X62.1686 Y10.2770
G01 X62.1762 Y10.2570
G01 X62.1824 Y10.2418
G01 X62.1938 Y10.2163
G01 X62.2483 Y10.1010
G01 X62.2578 Y10.0818
G01 X62.2654 Y10.0673
G01 X62.2793 Y10.0430
G01 X62.3449 Y9.9336
G01 X62.3561 Y9.9155
G01 X62.3652 Y9.9018
G01 X62.3814 Y9.8790
G01 X62.4574 Y9.7765
G01 X62.4704 Y9.7596
G01 X62.4807 Y9.7468
G01 X62.4990 Y9.7257
G01 X62.5847 Y9.6312
G01 X62.5993 Y9.6156
G01 X62.6109 Y9.6039
G01 X62.6312 Y9.5847
G01 X62.7257 Y9.4990
G01 X62.7418 Y9.4850
G01 X62.7544 Y9.4745
G01 X62.7765 Y9.4574
G01 X62.8790 Y9.3814
G01 X62.8963 Y9.3689
G01 X62.9155 Y9.3561
G01 X62.9336 Y9.3449
G01 X63.0430 Y9.2793
G01 X63.0615 Y9.2686
G01 X63.0759 Y9.2608
G01 X63.1010 Y9.2483
G01 X63.2163 Y9.1938
G01 X63.2357 Y9.1850
G01 X63.2509 Y9.1786
G01 X63.2770 Y9.1686
G01 X63.3971 Y9.1257
G01 X63.4173 Y9.1188
G01 X63.4330 Y9.1139
G01 X63.4600 Y9.1066
G01 X63.5837 Y9.0756
G01 X63.6045 Y9.0707
G01 X63.6206 Y9.0675
G01 X63.6482 Y9.0628
G01 X63.7743 Y9.0440
G01 X63.7955 Y9.0413
G01 X63.8118 Y9.0396
G01 X63.8397 Y9.0376
G01 X63.9672 Y9.0313
G01 X63.9885 Y9.0307
G01 X64.0049 Y9.0306
G01 X64.0328 Y9.0313
G01 X64.1603 Y9.0376
G01 X64.1816 Y9.0390
G01 X64.1979 Y9.0405
G01 X64.2257 Y9.0440
G01 X64.3518 Y9.0628
G01 X64.3729 Y9.0662
G01 X64.3890 Y9.0694
G01 X64.4163 Y9.0756
G01 X64.5400 Y9.1066
G01 X64.5606 Y9.1121
G01 X64.5764 Y9.1168
G01 X64.6029 Y9.1257
G01 X64.7230 Y9.1686
G01 X64.7430 Y9.1762
G01 X64.7582 Y9.1824
G01 X64.7837 Y9.1938
G01 X64.8990 Y9.2483
G01 X64.9182 Y9.2578
G01 X64.9327 Y9.2654
G01 X64.9570 Y9.2793
G01 X65.0664 Y9.3449
G01 X65.0845 Y9.3561
G01 X65.0982 Y9.3652
G01 X65.1210 Y9.3814
G01 X65.2235 Y9.4574
G01 X65.2404 Y9.4704
G01 X65.2532 Y9.4807
G01 X65.2743 Y9.4990
G01 X65.3688 Y9.5847
G01 X65.3844 Y9.5993
G01 X65.3961 Y9.6109
G01 X65.4153 Y9.6312
G01 X65.5010 Y9.7257
G01 X65.5150 Y9.7418
G01 X65.5255 Y9.7544
G01 X65.5426 Y9.7765
G01 X65.6186 Y9.8790
G01 X65.6311 Y9.8963
G01 X65.6439 Y9.9155
G01 X65.6551 Y9.9336
G01 X65.7207 Y10.0430
G01 X65.7346 Y10.0673
G01 X65.7496 Y10.0965
G01 X65.8062 Y10.2163
G01 X65.8176 Y10.2418
G01 X65.8297 Y10.2724
G01 X65.8760 Y10.4017
G01 X65.8861 Y10.4330
G01 X65.8934 Y10.4600
G01 X65.9256 Y10.5885
G01 X65.9325 Y10.6206
G01 X65.9372 Y10.6482
G01 X65.9566 Y10.7792
G01 X65.9604 Y10.8118
G01 X65.9624 Y10.8397
G01 X65.9687 Y10.9672
G01 X65.9694 Y10.9951
G01 X65.9689 Y11.0279
G01 X65.9621 Y11.1652
G01 X65.9595 Y11.1979
G01 X65.9560 Y11.2257
G01 X65.9365 Y11.3567
G01 X65.9306 Y11.3890
G01 X65.9244 Y11.4163
G01 X65.8934 Y11.5400
G01 X65.8879 Y11.5606
G01 X65.8832 Y11.5764
G01 X65.8760 Y11.5983
G01 X65.8314 Y11.7230
G01 X65.8214 Y11.7491
G01 X65.8111 Y11.7733
G01 X65.7517 Y11.8990
G01 X65.7392 Y11.9241
G01 X65.7232 Y11.9528
G01 X65.6700 Y12.0417
G01 X65.6700 Y18.5208
G01 X68.6889 Y21.5399
G01 X68.7035 Y21.5555
G01 X68.7694 Y21.6282
G01 X68.7835 Y21.6443
G01 X68.7940 Y21.6569
G01 X68.8111 Y21.6790
G01 X68.8696 Y21.7579
G01 X68.8858 Y21.7807
G01 X68.8948 Y21.7944
G01 X68.9061 Y21.8125
G01 X68.9566 Y21.8967
G01 X68.9704 Y21.9210
G01 X68.9854 Y21.9502
G01 X69.0344 Y22.0539
G01 X69.0447 Y22.0780
G01 X69.0530 Y22.0995
G01 X69.0877 Y22.1965
G01 X69.0966 Y22.2230
G01 X69.1013 Y22.2388
G01 X69.1068 Y22.2594
G01 X69.1307 Y22.3546
G01 X69.1369 Y22.3819
G01 X69.1400 Y22.3980
G01 X69.1435 Y22.4191
G01 X69.1579 Y22.5162
G01 X69.1614 Y22.5439
G01 X69.1629 Y22.5603
G01 X69.1643 Y22.5816
G01 X69.1692 Y22.6797
G01 X69.1698 Y22.7010
G01 X69.1698 Y22.7240
G01 X69.1692 Y22.7453
G01 X69.1643 Y22.8434
G01 X69.1624 Y22.8713
G01 X69.1607 Y22.8876
G01 X69.1579 Y22.9088
G01 X69.1435 Y23.0059
G01 X69.1400 Y23.0270
G01 X69.1355 Y23.0496
G01 X69.1307 Y23.0704
G01 X69.1068 Y23.1656
G01 X69.0994 Y23.1926
G01 X69.0894 Y23.2238
G01 X69.0547 Y23.3209
G01 X69.0447 Y23.3470
G01 X69.0344 Y23.3711
G01 X68.9875 Y23.4704
G01 X68.9781 Y23.4895
G01 X68.9672 Y23.5098
G01 X68.9591 Y23.5241
G01 X68.9061 Y23.6125
G01 X68.8912 Y23.6362
G01 X68.8764 Y23.6578
G01 X68.8111 Y23.7460
G01 X68.7940 Y23.7681
G01 X68.7835 Y23.7807
G01 X68.7694 Y23.7968
G01 X68.7002 Y23.8732
G01 X68.6773 Y23.8968
G01 X68.6570 Y23.9160
G01 X68.5843 Y23.9819
G01 X68.5682 Y23.9960
G01 X68.5504 Y24.0106
G01 X68.5335 Y24.0236
G01 X68.4546 Y24.0821
G01 X68.4373 Y24.0945
G01 X68.4237 Y24.1037
G01 X68.4000 Y24.1186
G01 X68.3116 Y24.1716
G01 X68.2915 Y24.1829
G01 X68.2682 Y24.1950
G01 X68.1691 Y24.2420
G01 X68.1436 Y24.2534
G01 X68.1130 Y24.2655
G01 X68.0113 Y24.3019
G01 X67.9801 Y24.3119
G01 X67.9578 Y24.3181
G01 X67.8531 Y24.3443
G01 X67.8210 Y24.3513
G01 X67.7934 Y24.3560
G01 X67.6849 Y24.3720
G01 X67.6588 Y24.3749
G01 X67.6309 Y24.3768
G01 X67.5279 Y24.3819
G01 X67.4951 Y24.3824
G01 X67.4672 Y24.3817
G01 X67.3576 Y24.3762
G01 X67.3314 Y24.3739
G01 X67.3037 Y24.3704
G01 X67.1952 Y24.3542
G01 X67.1790 Y24.3513
G01 X67.1533 Y24.3459
G01 X67.0469 Y24.3193
G01 X67.0199 Y24.3119
G01 X66.9887 Y24.3019
G01 X66.8916 Y24.2672
G01 X66.8655 Y24.2572
G01 X66.8414 Y24.2469
G01 X66.7421 Y24.2000
G01 X66.7171 Y24.1876
G01 X66.6884 Y24.1716
G01 X66.5958 Y24.1161
G01 X66.5682 Y24.0983
G01 X66.5454 Y24.0821
G01 X66.4626 Y24.0207
G01 X66.4368 Y24.0003
G01 X66.4157 Y23.9819
G01 X66.3430 Y23.9160
G01 X66.3192 Y23.8933
G01 X62.8157 Y20.3898
G01 X62.7965 Y20.3695
G01 X62.7306 Y20.2968
G01 X62.7122 Y20.2757
G01 X62.6918 Y20.2499
G01 X62.6275 Y20.1632
G01 X62.6088 Y20.1362
G01 X62.5939 Y20.1125
G01 X62.5376 Y20.0184
G01 X62.5296 Y20.0040
G01 X62.5175 Y19.9807
G01 X62.4656 Y19.8711
G01 X62.4553 Y19.8470
G01 X62.4453 Y19.8209
G01 X62.4123 Y19.7285
G01 X62.4034 Y19.7020
G01 X62.3944 Y19.6703
G01 X62.3693 Y19.5704
G01 X62.3631 Y19.5431
G01 X62.3583 Y19.5173
G01 X62.3421 Y19.4088
G01 X62.3393 Y19.3876
G01 X62.3371 Y19.3647
G01 X62.3359 Y19.3483
G01 X62.3308 Y19.2453
G01 X62.3302 Y19.2240
G01 X62.3300 Y12.0417
G00 Z2.0000
G00 X62.3300 Y12.4835
G01 F60.00
G01 Z-0.0600
G01 F200.00
G01 X62.2326 Y12.6183
G01 X62.1304 Y12.7673
G01 X62.0319 Y12.9187
G01 X61.9371 Y13.0725
G01 X61.8462 Y13.2285
G01 X61.7591 Y13.3868
G01 X61.6759 Y13.5471
G01 X61.6690 Y13.5613
G01 X62.3300 Y13.6766
G01 X62.3235 Y13.6885
G01 X62.2475 Y13.8349
G01 X62.1752 Y13.9831
G01 X62.1065 Y14.1330
G01 X62.0415 Y14.2846
G01 X61.9803 Y14.4378
G01 X61.9228 Y14.5924
G01 X61.8692 Y14.7483
G01 X61.8194 Y14.9055
G01 X61.7734 Y15.0639
G01 X61.7314 Y15.2234
G01 X61.6933 Y15.3839
G01 X61.6690 Y15.4988
G01 X62.3300 Y15.4723
G01 X62.3177 Y15.5241
G01 X62.2868 Y15.6701
G01 X62.2595 Y15.8168
G01 X62.2358 Y15.9641
G01 X62.2157 Y16.1120
G01 X62.1993 Y16.2603
G01 X62.1865 Y16.4090
G01 X62.1773 Y16.5579
G01 X62.1718 Y16.7070
G01 X62.1700 Y16.8563
G01 X62.1718 Y17.0055
G01 X62.1773 Y17.1546
G01 X62.1865 Y17.3035
G01 X62.1993 Y17.4522
G01 X62.2157 Y17.6005
G01 X62.2358 Y17.7484
G01 X62.2595 Y17.8957
G01 X62.2868 Y18.0424
G01 X62.3177 Y18.1884
G01 X62.3300 Y18.2402
G01 X61.6690 Y18.2137
G01 X61.6933 Y18.3286
G01 X61.7314 Y18.4891
G01 X61.7734 Y18.6486
G01 X61.8194 Y18.8070
G01 X61.8692 Y18.9642
G01 X61.9228 Y19.1201
G01 X61.9803 Y19.2747
G01 X62.0415 Y19.4279
G01 X62.1065 Y19.5795
G01 X62.1752 Y19.7294
G01 X62.2475 Y19.8776
G01 X62.3235 Y20.0240
G01 X62.4030 Y20.1685
G01 X62.4861 Y20.3110
G01 X62.5726 Y20.4514
G01 X62.6625 Y20.5897
G01 X62.7558 Y20.7257
G01 X62.8524 Y20.8593
G01 X62.9523 Y20.9906
G01 X63.0554 Y21.1194
G01 X63.1616 Y21.2456
G01 X63.2708 Y21.3691
G01 X63.3831 Y21.4900
G01 X63.4982 Y21.6080
G01 X63.6163 Y21.7232
G01 X63.7371 Y21.8354
G01 X63.8607 Y21.9447
G01 X63.9869 Y22.0509
G01 X64.1156 Y22.1539
G01 X64.2469 Y22.2538
G01 X64.3806 Y22.3504
G01 X64.5166 Y22.4437
G01 X64.6548 Y22.5337
G01 X64.7952 Y22.6202
G01 X64.9377 Y22.7032
G01 X65.0822 Y22.7828
G01 X65.2286 Y22.8587
G01 X65.3379 Y22.9120
G01 X64.9002 Y23.4093
G01 X64.9409 Y23.4304
G01 X65.1032 Y23.5096
G01 X65.2674 Y23.5848
G01 X65.4334 Y23.6560
G01 X65.6012 Y23.7231
G01 X65.7705 Y23.7860
G01 X65.9413 Y23.8448
G01 X66.1135 Y23.8993
G01 X66.2870 Y23.9496
G01 X66.4183 Y23.9842
G01 X66.0688 Y24.5527
G01 X66.1163 Y24.5665
G01 X66.3062 Y24.6165
G01 X66.4972 Y24.6619
G01 X66.6893 Y24.7025
G01 X66.8823 Y24.7385
G01 X67.0762 Y24.7697
G01 X67.2707 Y24.7961
G01 X67.4659 Y24.8177
G01 X67.6615 Y24.8346
G01 X67.8575 Y24.8466
G01 X68.0537 Y24.8538
G01 X68.2500 Y24.8563
G01 X68.4254 Y24.8541
G01 X68.2243 Y24.2159
G01 X68.2500 Y24.2163
G01 X68.4306 Y24.2140
G01 X68.6111 Y24.2074
G01 X68.7914 Y24.1963
G01 X68.9714 Y24.1808
G01 X69.1509 Y24.1609
G01 X69.3299 Y24.1366
G01 X69.3951 Y24.1261
G00 Z2.0000
G00 X70.0327 Y23.9970
G01 F60.00
G01 Z-0.0600
G01 F200.00
G01 X70.2130 Y23.9496
G01 X70.3865 Y23.8993
G01 X70.5587 Y23.8448
G01 X70.7295 Y23.7860
G01 X70.8988 Y23.7231
G01 X70.9229 Y23.7135
G00 Z2.0000
G00 X70.8305 Y23.0609
G01 F60.00
G01 Z-0.0600
G01 F200.00
G01 X70.6685 Y23.1260
G01 X70.5139 Y23.1834
G01 X70.3579 Y23.2371
G01 X70.2007 Y23.2869
G01 X70.0423 Y23.3328
G01 X69.8828 Y23.3749
G01 X69.7224 Y23.4130
G01 X69.5610 Y23.4471
G01 X69.3989 Y23.4773
G01 X69.2360 Y23.5035
G01 X69.0726 Y23.5257
G01 X68.9500 Y23.5393
G00 Z2.0000
G00 X69.1627 Y22.8671
G01 F60.00
G01 Z-0.0600
G01 F200.00
G01 X69.2894 Y22.8467
G01 X69.4361 Y22.8194
G01 X69.5821 Y22.7885
G01 X69.7273 Y22.7540
G01 X69.8716 Y22.7160
G01 X70.0149 Y22.6744
G01 X70.1572 Y22.6294
G01 X70.2983 Y22.5808
G01 X70.4382 Y22.5288
G01 X70.5767 Y22.4734
G01 X70.7139 Y22.4146
G01 X70.8300 Y22.3614
G00 Z2.0000
G00 X70.8305 Y22.7379
G01 F60.00
G01 Z-0.0600
G01 F200.00
G01 X70.8300 Y22.7125
G01 X70.8300 Y15.1917
G01 X68.6078 Y12.9695
G01 X67.9500 Y12.9695
G01 X67.9172 Y12.9687
G01 X67.8811 Y12.9668
G01 X67.8550 Y12.9645
G01 X67.8273 Y12.9610
G01 X67.7819 Y12.9539
G01 X67.7498 Y12.9473
G01 X67.7148 Y12.9386
G01 X67.6878 Y12.9313
G01 X67.6628 Y12.9233
G01 X67.6180 Y12.9073
G01 X67.5875 Y12.8950
G01 X67.5681 Y12.8862
G01 X67.5356 Y12.8706
G01 X67.5065 Y12.8554
G01 X67.4880 Y12.8447
G01 X67.4571 Y12.8261
G01 X67.4297 Y12.8080
G01 X67.4123 Y12.7956
G01 X67.3834 Y12.7740
G01 X67.3579 Y12.7534
G01 X67.3418 Y12.7393
G01 X67.3152 Y12.7150
G01 X67.2918 Y12.6919
G01 X67.2772 Y12.6764
G01 X67.2531 Y12.6496
G01 X67.2320 Y12.6243
G01 X67.2190 Y12.6074
G01 X67.1976 Y12.5784
G01 X67.1792 Y12.5512
G01 X67.1679 Y12.5331
G01 X67.1495 Y12.5021
G01 X67.1368 Y12.4791
G01 X67.1294 Y12.4644
G01 X67.1138 Y12.4319
G01 X67.1050 Y12.4125
G01 X67.0962 Y12.3912
G01 X67.0887 Y12.3712
G01 X67.0767 Y12.3372
G01 X67.0687 Y12.3122
G01 X67.0626 Y12.2900
G01 X67.0554 Y12.2614
G01 X67.0506 Y12.2407
G01 X67.0461 Y12.2181
G01 X67.0426 Y12.1970
G01 X67.0374 Y12.1613
G01 X67.0345 Y12.1352
G01 X67.0332 Y12.1189
G01 X67.0309 Y12.0713
G01 X67.0305 Y12.0500
G01 X67.0306 Y9.9451
G01 X67.0313 Y9.9172
G01 X67.0328 Y9.8877
G01 X67.0345 Y9.8648
G01 X67.0383 Y9.8321
G01 X67.0461 Y9.7819
G01 X67.0527 Y9.7498
G01 X67.0614 Y9.7148
G01 X67.0687 Y9.6878
G01 X67.0767 Y9.6628
G01 X67.0927 Y9.6180
G01 X67.1024 Y9.5936
G01 X67.1138 Y9.5681
G01 X67.1338 Y9.5268
G01 X67.1495 Y9.4979
G01 X67.1679 Y9.4669
G01 X67.1828 Y9.4433
G01 X67.1976 Y9.4216
G01 X67.2260 Y9.3834
G01 X67.2424 Y9.3629
G01 X67.2607 Y9.3418
G01 X67.2918 Y9.3081
G01 X67.3152 Y9.2850
G01 X67.3418 Y9.2607
G01 X67.3629 Y9.2424
G01 X67.3834 Y9.2260
G01 X67.4216 Y9.1976
G01 X67.4433 Y9.1828
G01 X67.4669 Y9.1679
G01 X67.5065 Y9.1446
G01 X67.5356 Y9.1294
G01 X67.5681 Y9.1138
G01 X67.5936 Y9.1024
G01 X67.6180 Y9.0927
G01 X67.6565 Y9.0788
G01 X67.6784 Y9.0716
G01 X67.7036 Y9.0643
G01 X67.7498 Y9.0527
G01 X67.7658 Y9.0492
G01 X67.7916 Y9.0444
G01 X67.8273 Y9.0390
G01 X67.8484 Y9.0362
G01 X67.8714 Y9.0339
G01 X67.8877 Y9.0328
G01 X67.9221 Y9.0311
G01 X67.9451 Y9.0306
G01 X70.0500 Y9.0305
G01 X70.0779 Y9.0311
G01 X70.1189 Y9.0332
G01 X70.1516 Y9.0362
G01 X70.1970 Y9.0426
G01 X70.2246 Y9.0473
G01 X70.2502 Y9.0527
G01 X70.2964 Y9.0643
G01 X70.3216 Y9.0716
G01 X70.3481 Y9.0804
G01 X70.3912 Y9.0962
G01 X70.4214 Y9.1090
G01 X70.4541 Y9.1243
G01 X70.4791 Y9.1368
G01 X70.5021 Y9.1495
G01 X70.5429 Y9.1739
G01 X70.5649 Y9.1882
G01 X70.5877 Y9.2044
G01 X70.6243 Y9.2320
G01 X70.6496 Y9.2531
G01 X70.6848 Y9.2850
G01 X70.7036 Y9.3033
G01 X70.7228 Y9.3236
G01 X70.7469 Y9.3504
G01 X70.7680 Y9.3757
G01 X70.7985 Y9.4163
G01 X70.8172 Y9.4433
G01 X70.8321 Y9.4669
G01 X70.8472 Y9.4922
G01 X70.8586 Y9.5123
G01 X70.8706 Y9.5356
G01 X70.8910 Y9.5786
G01 X70.9038 Y9.6088
G01 X70.9212 Y9.6565
G01 X70.9313 Y9.6878
G01 X70.9386 Y9.7148
G01 X70.9473 Y9.7498
G01 X70.9527 Y9.7754
G01 X70.9567 Y9.7981
G01 X70.9610 Y9.8273
G01 X70.9638 Y9.8484
G01 X70.9661 Y9.8714
G01 X70.9674 Y9.8926
G01 X70.9691 Y9.9287
G01 X70.9695 Y9.9500
G01 X70.9695 Y10.6078
G01 X73.6808 Y13.3192
G01 X73.7035 Y13.3430
G01 X73.7727 Y13.4194
G01 X73.7878 Y13.4368
G01 X73.8082 Y13.4626
G01 X73.8696 Y13.5454
G01 X73.8858 Y13.5682
G01 X73.9036 Y13.5958
G01 X73.9566 Y13.6842
G01 X73.9704 Y13.7085
G01 X73.9825 Y13.7318
G01 X74.0344 Y13.8414
G01 X74.0447 Y13.8655
G01 X74.0547 Y13.8916
G01 X74.0894 Y13.9887
G01 X74.0994 Y14.0199
G01 X74.1068 Y14.0469
G01 X74.1334 Y14.1533
G01 X74.1388 Y14.1790
G01 X74.1427 Y14.2017
G01 X74.1579 Y14.3037
G01 X74.1614 Y14.3314
G01 X74.1629 Y14.3478
G01 X74.1643 Y14.3691
G01 X74.1694 Y14.4721
G01 X74.1700 Y14.5000
G01 X74.1700 Y22.7125
G01 X74.1696 Y22.7328
G01 X74.1695 Y23.3126
G01 X74.1687 Y23.3453
G01 X74.1672 Y23.3748
G01 X74.1655 Y23.3977
G01 X74.1638 Y23.4141
G01 X74.1610 Y23.4352
G01 X74.1567 Y23.4644
G01 X74.1527 Y23.4871
G01 X74.1458 Y23.5192
G01 X74.1331 Y23.5683
G01 X74.1233 Y23.5997
G01 X74.1073 Y23.6445
G01 X74.0950 Y23.6750
G01 X74.0735 Y23.7210
G01 X74.0586 Y23.7502
G01 X74.0447 Y23.7745
G01 X74.0208 Y23.8137
G01 X74.0024 Y23.8409
G01 X73.9740 Y23.8791
G01 X73.9576 Y23.8996
G01 X73.9469 Y23.9121
G01 X73.9150 Y23.9473
G01 X73.8919 Y23.9707
G01 X73.8545 Y24.0051
G01 X73.8295 Y24.0263
G01 X73.8113 Y24.0405
G01 X73.7877 Y24.0581
G01 X73.7649 Y24.0743
G01 X73.7373 Y24.0920
G01 X73.6935 Y24.1179
G01 X73.6732 Y24.1287
G01 X73.6541 Y24.1382
G01 X73.6214 Y24.1535
G01 X73.5973 Y24.1638
G01 X73.5758 Y24.1721
G01 X73.5372 Y24.1858
G01 X73.5122 Y24.1938
G01 X73.4964 Y24.1982
G01 X73.4502 Y24.2098
G01 X73.4246 Y24.2152
G01 X73.3970 Y24.2199
G01 X73.3679 Y24.2242
G01 X73.3450 Y24.2270
G01 X73.3189 Y24.2293
G01 X73.2713 Y24.2316
G01 X73.2500 Y24.2320
G01 X73.1904 Y24.2320
G01 X73.1586 Y24.2469
G01 X73.1284 Y24.2596
G01 X73.1084 Y24.2672
G01 X73.0160 Y24.3002
G01 X72.9958 Y24.3071
G01 X72.9737 Y24.3138
G01 X72.9578 Y24.3181
G01 X72.8579 Y24.3432
G01 X72.8371 Y24.3480
G01 X72.8145 Y24.3525
G01 X72.7934 Y24.3560
G01 X72.6963 Y24.3704
G01 X72.6686 Y24.3739
G01 X72.6358 Y24.3766
G01 X72.5328 Y24.3817
G01 X72.5049 Y24.3824
G01 X72.4721 Y24.3819
G01 X72.3642 Y24.3766
G01 X72.3412 Y24.3749
G01 X72.3249 Y24.3732
G01 X72.3037 Y24.3704
G01 X72.2066 Y24.3560
G01 X72.1790 Y24.3513
G01 X72.1469 Y24.3443
G01 X72.0358 Y24.3164
G01 X72.0199 Y24.3119
G01 X71.9949 Y24.3040
G01 X71.8808 Y24.2632
G01 X71.8503 Y24.2508
G01 X71.8101 Y24.2322
G01 X71.7287 Y24.2316
G01 X71.6811 Y24.2293
G01 X71.6550 Y24.2270
G01 X71.6321 Y24.2242
G01 X71.6030 Y24.2199
G01 X71.5754 Y24.2152
G01 X71.5498 Y24.2098
G01 X71.5036 Y24.1982
G01 X71.4878 Y24.1938
G01 X71.4628 Y24.1858
G01 X71.4288 Y24.1738
G01 X71.4088 Y24.1663
G01 X71.3936 Y24.1601
G01 X71.3725 Y24.1507
G01 X71.3415 Y24.1360
G01 X71.3209 Y24.1257
G01 X71.3065 Y24.1179
G01 X71.2880 Y24.1072
G01 X71.2571 Y24.0886
G01 X71.2351 Y24.0743
G01 X71.2163 Y24.0610
G01 X71.1887 Y24.0405
G01 X71.1705 Y24.0263
G01 X71.1579 Y24.0159
G01 X71.1418 Y24.0018
G01 X71.1152 Y23.9775
G01 X71.0918 Y23.9544
G01 X71.0772 Y23.9389
G01 X71.0531 Y23.9121
G01 X71.0362 Y23.8920
G01 X71.0220 Y23.8738
G01 X70.9920 Y23.8328
G01 X70.9792 Y23.8137
G01 X70.9679 Y23.7956
G01 X70.9495 Y23.7646
G01 X70.9368 Y23.7416
G01 X70.9265 Y23.7210
G01 X70.9118 Y23.6900
G01 X70.8987 Y23.6598
G01 X70.8887 Y23.6337
G01 X70.8736 Y23.5904
G01 X70.8687 Y23.5747
G01 X70.8626 Y23.5525
G01 X70.8527 Y23.5127
G01 X70.8461 Y23.4806
G01 X70.8426 Y23.4595
G01 X70.8374 Y23.4238
G01 X70.8339 Y23.3911
G01 X70.8313 Y23.3453
G01 X70.8305 Y23.3125
G01 X70.8305 Y22.7379
G00 Z2.0000
G00 X70.8300 Y21.6453
G01 F60.00
G01 Z-0.0600
G01 F200.00
G01 X70.8144 Y21.6539
G01 X70.6959 Y21.7154
G01 X70.5759 Y21.7740
G01 X70.4545 Y21.8296
G01 X70.3318 Y21.8822
G01 X70.2078 Y21.9317
G01 X70.0827 Y21.9782
G01 X69.9564 Y22.0217
G01 X69.8291 Y22.0620
G01 X69.7009 Y22.0992
G01 X69.5718 Y22.1332
G01 X69.4419 Y22.1641
G01 X69.3113 Y22.1917
G01 X69.1800 Y22.2162
G01 X69.0985 Y22.2293
G00 Z2.0000
G00 X68.7690 Y21.6278
G01 F60.00
G01 Z-0.0600
G01 F200.00
G01 X68.8376 Y21.6202
G01 X68.9543 Y21.6043
G01 X69.0706 Y21.5856
G01 X69.1864 Y21.5640
G01 X69.3017 Y21.5396
G01 X69.4163 Y21.5124
G01 X69.5302 Y21.4824
G01 X69.6434 Y21.4496
G01 X69.7557 Y21.4140
G01 X69.8671 Y21.3757
G01 X69.9775 Y21.3346
G01 X70.0869 Y21.2909
G01 X70.1952 Y21.2445
G01 X70.3023 Y21.1954
G01 X70.4081 Y21.1437
G01 X70.5127 Y21.0895
G01 X70.6159 Y21.0327
G01 X70.7177 Y20.9733
G01 X70.8180 Y20.9115
G01 X70.8300 Y20.9037
G00 Z2.0000
G00 X70.8300 Y20.1192
G01 F60.00
G01 Z-0.0600
G01 F200.00
G01 X70.8094 Y20.1358
G01 X70.7281 Y20.1976
G01 X70.6454 Y20.2574
G01 X70.5612 Y20.3152
G01 X70.4756 Y20.3708
G01 X70.3887 Y20.4244
G01 X70.3005 Y20.4758
G01 X70.2110 Y20.5250
G01 X70.1204 Y20.5721
G01 X70.0286 Y20.6168
G01 X69.9358 Y20.6594
G01 X69.8420 Y20.6996
G01 X69.7472 Y20.7375
G01 X69.6515 Y20.7731
G01 X69.5549 Y20.8063
G01 X69.4576 Y20.8371
G01 X69.3595 Y20.8656
G01 X69.2608 Y20.8916
G01 X69.1615 Y20.9152
G01 X69.0616 Y20.9363
G01 X68.9612 Y20.9550
G01 X68.8604 Y20.9712
G01 X68.7592 Y20.9850
G01 X68.6578 Y20.9962
G01 X68.5560 Y21.0050
G01 X68.4541 Y21.0112
G01 X68.3521 Y21.0150
G01 X68.2500 Y21.0163
G01 X68.1644 Y21.0152
G00 Z2.0000
G00 X67.4278 Y20.2786
G01 F60.00
G01 Z-0.0600
G01 F200.00
G01 X67.4788 Y20.2907
G01 X67.5633 Y20.3086
G01 X67.6482 Y20.3244
G01 X67.7335 Y20.3382
G01 X67.8191 Y20.3498
G01 X67.9050 Y20.3593
G01 X67.9911 Y20.3667
G01 X68.0773 Y20.3720
G01 X68.1636 Y20.3752
G01 X68.2500 Y20.3763
G01 X68.3364 Y20.3752
G01 X68.4227 Y20.3720
G01 X68.5089 Y20.3667
G01 X68.5950 Y20.3593
G01 X68.6809 Y20.3498
G01 X68.7665 Y20.3382
G01 X68.8518 Y20.3244
G01 X68.9367 Y20.3086
G01 X69.0212 Y20.2907
G01 X69.1053 Y20.2708
G01 X69.1888 Y20.2487
G01 X69.2718 Y20.2247
G01 X69.3542 Y20.1986
G01 X69.4359 Y20.1705
G01 X69.5168 Y20.1404
G01 X69.5970 Y20.1083
G01 X69.6764 Y20.0743
G01 X69.7550 Y20.0383
G01 X69.8326 Y20.0004
G01 X69.9093 Y19.9606
G01 X69.9850 Y19.9190
G01 X70.0596 Y19.8755
G01 X70.1332 Y19.8301
G01 X70.2056 Y19.7830
G01 X70.2768 Y19.7341
G01 X70.3469 Y19.6835
G01 X70.4156 Y19.6312
G01 X70.4831 Y19.5772
G01 X70.5492 Y19.5216
G01 X70.6139 Y19.4644
G01 X70.6772 Y19.4056
G01 X70.7390 Y19.3453
G01 X70.7993 Y19.2834
G01 X70.8300 Y19.2504
G00 Z2.0000
G00 X70.8300 Y18.1357
G01 F60.00
G01 Z-0.0600
G01 F200.00
G01 X70.8225 Y18.1511
G01 X70.7899 Y18.2139
G01 X70.7559 Y18.2758
G01 X70.7203 Y18.3369
G01 X70.6832 Y18.3970
G01 X70.6446 Y18.4563
G01 X70.6046 Y18.5146
G01 X70.5632 Y18.5719
G01 X70.5204 Y18.6281
G01 X70.4763 Y18.6833
G01 X70.4308 Y18.7374
G01 X70.3839 Y18.7903
G01 X70.3358 Y18.8421
G01 X70.2865 Y18.8927
G01 X70.2359 Y18.9421
G01 X70.1841 Y18.9902
G01 X70.1311 Y19.0370
G01 X70.0771 Y19.0825
G01 X70.0219 Y19.1267
G01 X69.9656 Y19.1695
G01 X69.9083 Y19.2109
G01 X69.8500 Y19.2509
G01 X69.7908 Y19.2894
G01 X69.7306 Y19.3265
G01 X69.6695 Y19.3621
G01 X69.6076 Y19.3962
G01 X69.5449 Y19.4287
G01 X69.4814 Y19.4597
G01 X69.4171 Y19.4892
G01 X69.3521 Y19.5170
G01 X69.2865 Y19.5433
G01 X69.2202 Y19.5679
G01 X69.1534 Y19.5909
G01 X69.0860 Y19.6122
G01 X69.0181 Y19.6319
G01 X68.9498 Y19.6499
G01 X68.8810 Y19.6663
G01 X68.8119 Y19.6809
G01 X68.7424 Y19.6938
G01 X68.6726 Y19.7051
G01 X68.6025 Y19.7146
G01 X68.5323 Y19.7224
G01 X68.4619 Y19.7284
G01 X68.3913 Y19.7328
G01 X68.3207 Y19.7354
G01 X68.2500 Y19.7363
G01 X68.1793 Y19.7354
G01 X68.1087 Y19.7328
G01 X68.0381 Y19.7284
G01 X67.9677 Y19.7224
G01 X67.8975 Y19.7146
G01 X67.8274 Y19.7051
G01 X67.7576 Y19.6938
G01 X67.6881 Y19.6809
G01 X67.6190 Y19.6663
G01 X67.5502 Y19.6499
G01 X67.4819 Y19.6319
G01 X67.4140 Y19.6122
G01 X67.3466 Y19.5909
G01 X67.2798 Y19.5679
G01 X67.2135 Y19.5433
G01 X67.1479 Y19.5170
G01 X67.0829 Y19.4892
G01 X67.0186 Y19.4597
G01 X66.9551 Y19.4287
G01 X66.8924 Y19.3962
G01 X66.8305 Y19.3621
G01 X66.7694 Y19.3265
G01 X66.7092 Y19.2894
G01 X66.6500 Y19.2509
G01 X66.5917 Y19.2109
G01 X66.5344 Y19.1695
G01 X66.4781 Y19.1267
G01 X66.4229 Y19.0825
G01 X66.3689 Y19.0370
G01 X66.3159 Y18.9902
G01 X66.2641 Y18.9421
G01 X66.2135 Y18.8927
G01 X66.1642 Y18.8421
G01 X66.1161 Y18.7903
G01 X66.0692 Y18.7374
G01 X66.0237 Y18.6833
G01 X65.9796 Y18.6281
G01 X65.9368 Y18.5719
G01 X65.8954 Y18.5146
G01 X65.8554 Y18.4563
G01 X65.8168 Y18.3970
G01 X65.7797 Y18.3369
G01 X65.7441 Y18.2758
G01 X65.7101 Y18.2139
G01 X65.6775 Y18.1511
G01 X65.6700 Y18.1357
G00 Z2.0000
G00 X65.6700 Y15.5768
G01 F60.00
G01 Z-0.0600
G01 F200.00
G01 X65.6775 Y15.5614
G01 X65.7101 Y15.4986
G01 X65.7441 Y15.4367
G01 X65.7797 Y15.3756
G01 X65.8168 Y15.3155
G01 X65.8554 Y15.2562
G01 X65.8954 Y15.1979
G01 X65.9368 Y15.1406
G01 X65.9796 Y15.0844
G01 X66.0237 Y15.0292
G01 X66.0692 Y14.9751
G01 X66.1161 Y14.9222
G01 X66.1642 Y14.8704
G01 X66.2135 Y14.8198
G01 X66.2641 Y14.7704
G01 X66.3159 Y14.7223
G01 X66.3689 Y14.6755
G01 X66.4229 Y14.6300
G01 X66.4781 Y14.5858
G01 X66.5344 Y14.5430
G01 X66.5917 Y14.5016
G01 X66.6500 Y14.4616
G01 X66.7092 Y14.4231
G01 X66.7694 Y14.3860
G01 X66.8305 Y14.3504
G01 X66.8924 Y14.3163
G01 X66.9551 Y14.2838
G01 X67.0186 Y14.2528
G01 X67.0829 Y14.2233
G01 X67.1479 Y14.1955
G01 X67.2135 Y14.1692
G01 X67.2798 Y14.1446
G01 X67.3466 Y14.1216
G01 X67.4140 Y14.1003
G01 X67.4819 Y14.0806
G01 X67.5502 Y14.0626
G01 X67.6190 Y14.0462
G01 X67.6881 Y14.0316
G01 X67.7576 Y14.0187
G01 X67.8274 Y14.0074
G01 X67.8975 Y13.9979
G01 X67.9677 Y13.9901
G01 X68.0381 Y13.9841
G01 X68.1087 Y13.9797
G01 X68.1793 Y13.9771
G01 X68.2500 Y13.9763
G01 X68.3207 Y13.9771
G01 X68.3913 Y13.9797
G01 X68.4619 Y13.9841
G01 X68.5323 Y13.9901
G01 X68.6025 Y13.9979
G01 X68.6726 Y14.0074
G01 X68.7424 Y14.0187
G01 X68.8119 Y14.0316
G01 X68.8810 Y14.0462
G01 X68.9498 Y14.0626
G01 X69.0181 Y14.0806
G01 X69.0860 Y14.1003
G01 X69.1534 Y14.1216
G01 X69.2202 Y14.1446
G01 X69.2865 Y14.1692
G01 X69.3521 Y14.1955
G01 X69.4171 Y14.2233
G01 X69.4814 Y14.2528
G01 X69.5449 Y14.2838
G01 X69.6076 Y14.3163
G01 X69.6695 Y14.3504
G01 X69.7306 Y14.3860
G01 X69.7908 Y14.4231
G01 X69.8500 Y14.4616
G01 X69.9083 Y14.5016
G01 X69.9656 Y14.5430
G01 X70.0219 Y14.5858
G01 X70.0771 Y14.6300
G01 X70.1311 Y14.6755
G01 X70.1841 Y14.7223
G01 X70.2359 Y14.7704
G01 X70.2865 Y14.8198
G01 X70.3358 Y14.8704
G01 X70.3839 Y14.9222
G01 X70.4308 Y14.9751
G01 X70.4763 Y15.0292
G01 X70.5204 Y15.0844
G01 X70.5632 Y15.1406
G01 X70.6046 Y15.1979
G01 X70.6446 Y15.2562
G01 X70.6832 Y15.3155
G01 X70.7203 Y15.3756
G01 X70.7559 Y15.4367
G01 X70.7899 Y15.4986
G01 X70.8225 Y15.5614
G01 X70.8300 Y15.5768
G01 X70.4900 Y16.8563
G01 X70.4893 Y16.8013
G01 X70.4873 Y16.7463
G01 X70.4839 Y16.6915
G01 X70.4792 Y16.6367
G01 X70.4732 Y16.5821
G01 X70.4658 Y16.5276
G01 X70.4570 Y16.4733
G01 X70.4470 Y16.4192
G01 X70.4356 Y16.3655
G01 X70.4229 Y16.3120
G01 X70.4089 Y16.2588
G01 X70.3935 Y16.2060
G01 X70.3769 Y16.1536
G01 X70.3591 Y16.1016
G01 X70.3399 Y16.0501
G01 X70.3195 Y15.9990
G01 X70.2978 Y15.9485
G01 X70.2749 Y15.8985
G01 X70.2508 Y15.8491
G01 X70.2255 Y15.8003
G01 X70.1990 Y15.7522
G01 X70.1713 Y15.7047
G01 X70.1425 Y15.6579
G01 X70.1125 Y15.6118
G01 X70.0814 Y15.5664
G01 X70.0492 Y15.5219
G01 X70.0159 Y15.4781
G01 X69.9815 Y15.4352
G01 X69.9461 Y15.3931
G01 X69.9097 Y15.3520
G01 X69.8723 Y15.3117
G01 X69.8339 Y15.2723
G01 X69.7946 Y15.2339
G01 X69.7543 Y15.1965
G01 X69.7131 Y15.1601
G01 X69.6710 Y15.1247
G01 X69.6281 Y15.0904
G01 X69.5844 Y15.0571
G01 X69.5398 Y15.0249
G01 X69.4945 Y14.9938
G01 X69.4484 Y14.9638
G01 X69.4016 Y14.9349
G01 X69.3541 Y14.9073
G01 X69.3059 Y14.8807
G01 X69.2571 Y14.8554
G01 X69.2077 Y14.8313
G01 X69.1577 Y14.8084
G01 X69.1072 Y14.7868
G01 X69.0562 Y14.7663
G01 X69.0046 Y14.7472
G01 X68.9526 Y14.7293
G01 X68.9002 Y14.7127
G01 X68.8474 Y14.6974
G01 X68.7943 Y14.6834
G01 X68.7408 Y14.6707
G01 X68.6870 Y14.6593
G01 X68.6330 Y14.6492
G01 X68.5787 Y14.6405
G01 X68.5242 Y14.6331
G01 X68.4696 Y14.6270
G01 X68.4148 Y14.6223
G01 X68.3599 Y14.6189
G01 X68.3050 Y14.6169
G01 X68.2500 Y14.6163
G01 X68.1950 Y14.6169
G01 X68.1401 Y14.6189
G01 X68.0852 Y14.6223
G01 X68.0304 Y14.6270
G01 X67.9758 Y14.6331
G01 X67.9213 Y14.6405
G01 X67.8670 Y14.6492
G01 X67.8130 Y14.6593
G01 X67.7592 Y14.6707
G01 X67.7057 Y14.6834
G01 X67.6526 Y14.6974
G01 X67.5998 Y14.7127
G01 X67.5474 Y14.7293
G01 X67.4954 Y14.7472
G01 X67.4438 Y14.7663
G01 X67.3928 Y14.7868
G01 X67.3423 Y14.8084
G01 X67.2923 Y14.8313
G01 X67.2429 Y14.8554
G01 X67.1941 Y14.8807
G01 X67.1459 Y14.9073
G01 X67.0984 Y14.9349
G01 X67.0516 Y14.9638
G01 X67.0055 Y14.9938
G01 X66.9602 Y15.0249
G01 X66.9156 Y15.0571
G01 X66.8719 Y15.0904
G01 X66.8290 Y15.1247
G01 X66.7869 Y15.1601
G01 X66.7457 Y15.1965
G01 X66.7054 Y15.2339
G01 X66.6661 Y15.2723
G01 X66.6277 Y15.3117
G01 X66.5903 Y15.3520
G01 X66.5539 Y15.3931
G01 X66.5185 Y15.4352
G01 X66.4841 Y15.4781
G01 X66.4508 Y15.5219
G01 X66.4186 Y15.5664
G01 X66.3875 Y15.6118
G01 X66.3575 Y15.6579
G01 X66.3287 Y15.7047
G01 X66.3010 Y15.7522
G01 X66.2745 Y15.8003
G01 X66.2492 Y15.8491
G01 X66.2251 Y15.8985
G01 X66.2022 Y15.9485
G01 X66.1805 Y15.9990
G01 X66.1601 Y16.0501
G01 X66.1409 Y16.1016
G01 X66.1231 Y16.1536
G01 X66.1065 Y16.2060
G01 X66.0911 Y16.2588
G01 X66.0771 Y16.3120
G01 X66.0644 Y16.3655
G01 X66.0530 Y16.4192
G01 X66.0430 Y16.4733
G01 X66.0342 Y16.5276
G01 X66.0268 Y16.5821
G01 X66.0208 Y16.6367
G01 X66.0161 Y16.6915
G01 X66.0127 Y16.7463
G01 X66.0107 Y16.8013
G01 X66.0100 Y16.8563
G01 X66.0107 Y16.9112
G01 X66.0127 Y16.9662
G01 X66.0161 Y17.0210
