(G-CODE GENERATED BY FLATCAM v8.994 - www.flatcam.org - Version Date: 2020/11/7)

(Name: active_sender.drl_edit_cnc)
(Type: G-code from Geometry)
(Units: MM)

(Created on Monday, 29 June 2026 at 18:25)

(This preprocessor is the default preprocessor used by FlatCAM.)
(It is made to work with MACH3 compatible motion controllers.)


(TOOLS DIAMETER: )
(Tool: 1 -> Dia: 0.8)
(Tool: 2 -> Dia: 0.9)
(Tool: 3 -> Dia: 1.0)
(Tool: 4 -> Dia: 1.1)
(Tool: 5 -> Dia: 1.3)
(Tool: 6 -> Dia: 2.2)

(FEEDRATE Z: )
(Tool: 1 -> Feedrate: 50.0)
(Tool: 2 -> Feedrate: 50.0)
(Tool: 3 -> Feedrate: 90.0)
(Tool: 4 -> Feedrate: 90.0)
(Tool: 5 -> Feedrate: 90.0)
(Tool: 6 -> Feedrate: 140.0)

(FEEDRATE RAPIDS: )
(Tool: 1 -> Feedrate Rapids: 1500)
(Tool: 2 -> Feedrate Rapids: 1500)
(Tool: 3 -> Feedrate Rapids: 1500)
(Tool: 4 -> Feedrate Rapids: 1500)
(Tool: 5 -> Feedrate Rapids: 1500)
(Tool: 6 -> Feedrate Rapids: 1500)

(Z_CUT: )
(Tool: 1 -> Z_Cut: -2.0)
(Tool: 2 -> Z_Cut: -2.0)
(Tool: 3 -> Z_Cut: -2.2)
(Tool: 4 -> Z_Cut: -2.2)
(Tool: 5 -> Z_Cut: -2.2)
(Tool: 6 -> Z_Cut: -2.5)

(Tools Offset: )
(Tool: 1 -> Offset Z: 0.0)
(Tool: 2 -> Offset Z: 0.0)
(Tool: 3 -> Offset Z: 0.0)
(Tool: 4 -> Offset Z: 0.0)
(Tool: 5 -> Offset Z: 0.0)
(Tool: 6 -> Offset Z: 0.0)

(DEPTH_PER_CUT: )
(Tool: 1 -> DeptPerCut: 0.5)
(Tool: 2 -> DeptPerCut: 0.7)
(Tool: 3 -> DeptPerCut: 0.7)
(Tool: 4 -> DeptPerCut: 0.7)
(Tool: 5 -> DeptPerCut: 0.7)
(Tool: 6 -> DeptPerCut: 1.0)

(Z_MOVE: )
(Tool: 1 -> Z_Move: 2)
(Tool: 2 -> Z_Move: 2)
(Tool: 3 -> Z_Move: 2)
(Tool: 4 -> Z_Move: 2)
(Tool: 5 -> Z_Move: 2)
(Tool: 6 -> Z_Move: 2)

(Z Toolchange: 25.0 mm)
(X,Y Toolchange: 0.0000, 0.0000 mm)
(Z Start: None mm)
(Z End: 1.0 mm)
(X,Y End: None mm)
(Steps per circle: 64)
(Preprocessor Excellon: Default_no_M6)

(X range:    3.9000 ...   79.1000  mm)
(Y range:    3.9000 ...   76.1000  mm)

(Spindle Speed: 12000 RPM)
G21
G90
G94

G01 F50.00

M5
G00 Z25.0000
T1
G00 X0.0000 Y0.0000                
(MSG, Change to Tool Dia = 0.8000 ||| Total drills for tool T1 = 2)
M0
G00 Z25.0000
        
G01 F50.00
M03 S12000
G00 X51.0000 Y52.0000
G01 Z-0.5000
G01 Z0
G00 Z2.0000
G01 Z-1.0000
G01 Z0
G00 Z2.0000
G01 Z-1.5000
G01 Z0
G00 Z2.0000
G01 Z-2.0000
G01 Z0
G00 Z2.0000
G00 X51.0000 Y48.5000
G01 Z-0.5000
G01 Z0
G00 Z2.0000
G01 Z-1.0000
G01 Z0
G00 Z2.0000
G01 Z-1.5000
G01 Z0
G00 Z2.0000
G01 Z-2.0000
G01 Z0
G00 Z2.0000
G01 F50.00

M5
G00 Z25.0000
T2
G00 X0.0000 Y0.0000                
(MSG, Change to Tool Dia = 0.9000 ||| Total drills for tool T2 = 27)
M0
G00 Z25.0000
        
G01 F50.00
M03 S12000
G00 X68.2500 Y74.9380
G01 Z-0.7000
G01 Z0
G00 Z2.0000
G01 Z-1.4000
G01 Z0
G00 Z2.0000
G01 Z-2.0000
G01 Z0
G00 Z2.0000
G00 X5.7600 Y14.1000
G01 Z-0.7000
G01 Z0
G00 Z2.0000
G01 Z-1.4000
G01 Z0
G00 Z2.0000
G01 Z-2.0000
G01 Z0
G00 Z2.0000
G00 X5.7600 Y16.6400
G01 Z-0.7000
G01 Z0
G00 Z2.0000
G01 Z-1.4000
G01 Z0
G00 Z2.0000
G01 Z-2.0000
G01 Z0
G00 Z2.0000
G00 X5.7600 Y19.1800
G01 Z-0.7000
G01 Z0
G00 Z2.0000
G01 Z-1.4000
G01 Z0
G00 Z2.0000
G01 Z-2.0000
G01 Z0
G00 Z2.0000
G00 X5.7600 Y21.7200
G01 Z-0.7000
G01 Z0
G00 Z2.0000
G01 Z-1.4000
G01 Z0
G00 Z2.0000
G01 Z-2.0000
G01 Z0
G00 Z2.0000
G00 X5.7600 Y24.2600
G01 Z-0.7000
G01 Z0
G00 Z2.0000
G01 Z-1.4000
G01 Z0
G00 Z2.0000
G01 Z-2.0000
G01 Z0
G00 Z2.0000
G00 X5.7600 Y26.8000
G01 Z-0.7000
G01 Z0
G00 Z2.0000
G01 Z-1.4000
G01 Z0
G00 Z2.0000
G01 Z-2.0000
G01 Z0
G00 Z2.0000
G00 X5.7600 Y29.3400
G01 Z-0.7000
G01 Z0
G00 Z2.0000
G01 Z-1.4000
G01 Z0
G00 Z2.0000
G01 Z-2.0000
G01 Z0
G00 Z2.0000
G00 X5.7600 Y31.8800
G01 Z-0.7000
G01 Z0
G00 Z2.0000
G01 Z-1.4000
G01 Z0
G00 Z2.0000
G01 Z-2.0000
G01 Z0
G00 Z2.0000
G00 X21.0000 Y14.1000
G01 Z-0.7000
G01 Z0
G00 Z2.0000
G01 Z-1.4000
G01 Z0
G00 Z2.0000
G01 Z-2.0000
G01 Z0
G00 Z2.0000
G00 X21.0000 Y16.6400
G01 Z-0.7000
G01 Z0
G00 Z2.0000
G01 Z-1.4000
G01 Z0
G00 Z2.0000
G01 Z-2.0000
G01 Z0
G00 Z2.0000
G00 X21.0000 Y19.1800
G01 Z-0.7000
G01 Z0
G00 Z2.0000
G01 Z-1.4000
G01 Z0
G00 Z2.0000
G01 Z-2.0000
G01 Z0
G00 Z2.0000
G00 X21.0000 Y21.7200
G01 Z-0.7000
G01 Z0
G00 Z2.0000
G01 Z-1.4000
G01 Z0
G00 Z2.0000
G01 Z-2.0000
G01 Z0
G00 Z2.0000
G00 X21.0000 Y24.2600
G01 Z-0.7000
G01 Z0
G00 Z2.0000
G01 Z-1.4000
G01 Z0
G00 Z2.0000
G01 Z-2.0000
G01 Z0
G00 Z2.0000
G00 X21.0000 Y26.8000
G01 Z-0.7000
G01 Z0
G00 Z2.0000
G01 Z-1.4000
G01 Z0
G00 Z2.0000
G01 Z-2.0000
G01 Z0
G00 Z2.0000
G00 X21.0000 Y29.3400
G01 Z-0.7000
G01 Z0
G00 Z2.0000
G01 Z-1.4000
G01 Z0
G00 Z2.0000
G01 Z-2.0000
G01 Z0
G00 Z2.0000
G00 X21.0000 Y31.8800
G01 Z-0.7000
G01 Z0
G00 Z2.0000
G01 Z-1.4000
G01 Z0
G00 Z2.0000
G01 Z-2.0000
G01 Z0
G00 Z2.0000
G00 X39.2500 Y60.9380
G01 Z-0.7000
G01 Z0
G00 Z2.0000
G01 Z-1.4000
G01 Z0
G00 Z2.0000
G01 Z-2.0000
G01 Z0
G00 Z2.0000
G00 X39.2500 Y63.4780
G01 Z-0.7000
G01 Z0
G00 Z2.0000
G01 Z-1.4000
G01 Z0
G00 Z2.0000
G01 Z-2.0000
G01 Z0
G00 Z2.0000
G00 X39.2500 Y72.3980
G01 Z-0.7000
G01 Z0
G00 Z2.0000
G01 Z-1.4000
G01 Z0
G00 Z2.0000
G01 Z-2.0000
G01 Z0
G00 Z2.0000
G00 X39.2500 Y74.9380
G01 Z-0.7000
G01 Z0
G00 Z2.0000
G01 Z-1.4000
G01 Z0
G00 Z2.0000
G01 Z-2.0000
G01 Z0
G00 Z2.0000
G00 X54.0000 Y21.0000
G01 Z-0.7000
G01 Z0
G00 Z2.0000
G01 Z-1.4000
G01 Z0
G00 Z2.0000
G01 Z-2.0000
G01 Z0
G00 Z2.0000
G00 X54.0000 Y23.5000
G01 Z-0.7000
G01 Z0
G00 Z2.0000
G01 Z-1.4000
G01 Z0
G00 Z2.0000
G01 Z-2.0000
G01 Z0
G00 Z2.0000
G00 X54.0000 Y26.0000
G01 Z-0.7000
G01 Z0
G00 Z2.0000
G01 Z-1.4000
G01 Z0
G00 Z2.0000
G01 Z-2.0000
G01 Z0
G00 Z2.0000
G00 X68.2500 Y60.9380
G01 Z-0.7000
G01 Z0
G00 Z2.0000
G01 Z-1.4000
G01 Z0
G00 Z2.0000
G01 Z-2.0000
G01 Z0
G00 Z2.0000
G00 X68.2500 Y63.4780
G01 Z-0.7000
G01 Z0
G00 Z2.0000
G01 Z-1.4000
G01 Z0
G00 Z2.0000
G01 Z-2.0000
G01 Z0
G00 Z2.0000
G00 X68.2500 Y72.3980
G01 Z-0.7000
G01 Z0
G00 Z2.0000
G01 Z-1.4000
G01 Z0
G00 Z2.0000
G01 Z-2.0000
G01 Z0
G00 Z2.0000
G01 F90.00

M5
G00 Z25.0000
T3
G00 X0.0000 Y0.0000                
(MSG, Change to Tool Dia = 1.0000 ||| Total drills for tool T3 = 24)
M0
G00 Z25.0000
        
G01 F90.00
M03 S12000
G00 X77.5000 Y51.7920
G01 Z-0.7000
G01 Z0
G00 Z2.0000
G01 Z-1.4000
G01 Z0
G00 Z2.0000
G01 Z-2.1000
G01 Z0
G00 Z2.0000
G01 Z-2.2000
G01 Z0
G00 Z2.0000
G00 X47.5000 Y14.0000
G01 Z-0.7000
G01 Z0
G00 Z2.0000
G01 Z-1.4000
G01 Z0
G00 Z2.0000
G01 Z-2.1000
G01 Z0
G00 Z2.0000
G01 Z-2.2000
G01 Z0
G00 Z2.0000
G00 X50.0000 Y14.0000
G01 Z-0.7000
G01 Z0
G00 Z2.0000
G01 Z-1.4000
G01 Z0
G00 Z2.0000
G01 Z-2.1000
G01 Z0
G00 Z2.0000
G01 Z-2.2000
G01 Z0
G00 Z2.0000
G00 X52.5000 Y14.0000
G01 Z-0.7000
G01 Z0
G00 Z2.0000
G01 Z-1.4000
G01 Z0
G00 Z2.0000
G01 Z-2.1000
G01 Z0
G00 Z2.0000
G01 Z-2.2000
G01 Z0
G00 Z2.0000
G00 X55.0000 Y14.0000
G01 Z-0.7000
G01 Z0
G00 Z2.0000
G01 Z-1.4000
G01 Z0
G00 Z2.0000
G01 Z-2.1000
G01 Z0
G00 Z2.0000
G01 Z-2.2000
G01 Z0
G00 Z2.0000
G00 X6.1500 Y40.3500
G01 Z-0.7000
G01 Z0
G00 Z2.0000
G01 Z-1.4000
G01 Z0
G00 Z2.0000
G01 Z-2.1000
G01 Z0
G00 Z2.0000
G01 Z-2.2000
G01 Z0
G00 Z2.0000
G00 X6.1500 Y65.6500
G01 Z-0.7000
G01 Z0
G00 Z2.0000
G01 Z-1.4000
G01 Z0
G00 Z2.0000
G01 Z-2.1000
G01 Z0
G00 Z2.0000
G01 Z-2.2000
G01 Z0
G00 Z2.0000
G00 X8.6900 Y40.3500
G01 Z-0.7000
G01 Z0
G00 Z2.0000
G01 Z-1.4000
G01 Z0
G00 Z2.0000
G01 Z-2.1000
G01 Z0
G00 Z2.0000
G01 Z-2.2000
G01 Z0
G00 Z2.0000
G00 X8.6900 Y65.6500
G01 Z-0.7000
G01 Z0
G00 Z2.0000
G01 Z-1.4000
G01 Z0
G00 Z2.0000
G01 Z-2.1000
G01 Z0
G00 Z2.0000
G01 Z-2.2000
G01 Z0
G00 Z2.0000
G00 X11.2300 Y40.3500
G01 Z-0.7000
G01 Z0
G00 Z2.0000
G01 Z-1.4000
G01 Z0
G00 Z2.0000
G01 Z-2.1000
G01 Z0
G00 Z2.0000
G01 Z-2.2000
G01 Z0
G00 Z2.0000
G00 X11.2300 Y65.6500
G01 Z-0.7000
G01 Z0
G00 Z2.0000
G01 Z-1.4000
G01 Z0
G00 Z2.0000
G01 Z-2.1000
G01 Z0
G00 Z2.0000
G01 Z-2.2000
G01 Z0
G00 Z2.0000
G00 X13.7700 Y40.3500
G01 Z-0.7000
G01 Z0
G00 Z2.0000
G01 Z-1.4000
G01 Z0
G00 Z2.0000
G01 Z-2.1000
G01 Z0
G00 Z2.0000
G01 Z-2.2000
G01 Z0
G00 Z2.0000
G00 X13.7700 Y65.6500
G01 Z-0.7000
G01 Z0
G00 Z2.0000
G01 Z-1.4000
G01 Z0
G00 Z2.0000
G01 Z-2.1000
G01 Z0
G00 Z2.0000
G01 Z-2.2000
G01 Z0
G00 Z2.0000
G00 X16.3100 Y40.3500
G01 Z-0.7000
G01 Z0
G00 Z2.0000
G01 Z-1.4000
G01 Z0
G00 Z2.0000
G01 Z-2.1000
G01 Z0
G00 Z2.0000
G01 Z-2.2000
G01 Z0
G00 Z2.0000
G00 X16.3100 Y65.6500
G01 Z-0.7000
G01 Z0
G00 Z2.0000
G01 Z-1.4000
G01 Z0
G00 Z2.0000
G01 Z-2.1000
G01 Z0
G00 Z2.0000
G01 Z-2.2000
G01 Z0
G00 Z2.0000
G00 X18.8500 Y40.3500
G01 Z-0.7000
G01 Z0
G00 Z2.0000
G01 Z-1.4000
G01 Z0
G00 Z2.0000
G01 Z-2.1000
G01 Z0
G00 Z2.0000
G01 Z-2.2000
G01 Z0
G00 Z2.0000
G00 X18.8500 Y65.6500
G01 Z-0.7000
G01 Z0
G00 Z2.0000
G01 Z-1.4000
G01 Z0
G00 Z2.0000
G01 Z-2.1000
G01 Z0
G00 Z2.0000
G01 Z-2.2000
G01 Z0
G00 Z2.0000
G00 X21.3900 Y40.3500
G01 Z-0.7000
G01 Z0
G00 Z2.0000
G01 Z-1.4000
G01 Z0
G00 Z2.0000
G01 Z-2.1000
G01 Z0
G00 Z2.0000
G01 Z-2.2000
G01 Z0
G00 Z2.0000
G00 X21.3900 Y65.6500
G01 Z-0.7000
G01 Z0
G00 Z2.0000
G01 Z-1.4000
G01 Z0
G00 Z2.0000
G01 Z-2.1000
G01 Z0
G00 Z2.0000
G01 Z-2.2000
G01 Z0
G00 Z2.0000
G00 X23.9300 Y40.3500
G01 Z-0.7000
G01 Z0
G00 Z2.0000
G01 Z-1.4000
G01 Z0
G00 Z2.0000
G01 Z-2.1000
G01 Z0
G00 Z2.0000
G01 Z-2.2000
G01 Z0
G00 Z2.0000
G00 X23.9300 Y65.6500
G01 Z-0.7000
G01 Z0
G00 Z2.0000
G01 Z-1.4000
G01 Z0
G00 Z2.0000
G01 Z-2.1000
G01 Z0
G00 Z2.0000
G01 Z-2.2000
G01 Z0
G00 Z2.0000
G00 X62.5000 Y51.7920
G01 Z-0.7000
G01 Z0
G00 Z2.0000
G01 Z-1.4000
G01 Z0
G00 Z2.0000
G01 Z-2.1000
G01 Z0
G00 Z2.0000
G01 Z-2.2000
G01 Z0
G00 Z2.0000
G00 X67.5000 Y22.7120
G01 Z-0.7000
G01 Z0
G00 Z2.0000
G01 Z-1.4000
G01 Z0
G00 Z2.0000
G01 Z-2.1000
G01 Z0
G00 Z2.0000
G01 Z-2.2000
G01 Z0
G00 Z2.0000
G00 X72.5000 Y22.7120
G01 Z-0.7000
G01 Z0
G00 Z2.0000
G01 Z-1.4000
G01 Z0
G00 Z2.0000
G01 Z-2.1000
G01 Z0
G00 Z2.0000
G01 Z-2.2000
G01 Z0
G00 Z2.0000
G01 F90.00

M5
G00 Z25.0000
T4
G00 X0.0000 Y0.0000                
(MSG, Change to Tool Dia = 1.1000 ||| Total drills for tool T4 = 4)
M0
G00 Z25.0000
        
G01 F90.00
M03 S12000
G00 X39.2500 Y12.0000
G01 Z-0.7000
G01 Z0
G00 Z2.0000
G01 Z-1.4000
G01 Z0
G00 Z2.0000
G01 Z-2.1000
G01 Z0
G00 Z2.0000
G01 Z-2.2000
G01 Z0
G00 Z2.0000
G00 X32.7500 Y7.5000
G01 Z-0.7000
G01 Z0
G00 Z2.0000
G01 Z-1.4000
G01 Z0
G00 Z2.0000
G01 Z-2.1000
G01 Z0
G00 Z2.0000
G01 Z-2.2000
G01 Z0
G00 Z2.0000
G00 X32.7500 Y12.0000
G01 Z-0.7000
G01 Z0
G00 Z2.0000
G01 Z-1.4000
G01 Z0
G00 Z2.0000
G01 Z-2.1000
G01 Z0
G00 Z2.0000
G01 Z-2.2000
G01 Z0
G00 Z2.0000
G00 X39.2500 Y7.5000
G01 Z-0.7000
G01 Z0
G00 Z2.0000
G01 Z-1.4000
G01 Z0
G00 Z2.0000
G01 Z-2.1000
G01 Z0
G00 Z2.0000
G01 Z-2.2000
G01 Z0
G00 Z2.0000
G01 F90.00

M5
G00 Z25.0000
T5
G00 X0.0000 Y0.0000                
(MSG, Change to Tool Dia = 1.3000 ||| Total drills for tool T5 = 4)
M0
G00 Z25.0000
        
G01 F90.00
M03 S12000
G00 X69.0000 Y11.0000
G01 Z-0.7000
G01 Z0
G00 Z2.0000
G01 Z-1.4000
G01 Z0
G00 Z2.0000
G01 Z-2.1000
G01 Z0
G00 Z2.0000
G01 Z-2.2000
G01 Z0
G00 Z2.0000
G00 X50.0000 Y37.0000
G01 Z-0.7000
G01 Z0
G00 Z2.0000
G01 Z-1.4000
G01 Z0
G00 Z2.0000
G01 Z-2.1000
G01 Z0
G00 Z2.0000
G01 Z-2.2000
G01 Z0
G00 Z2.0000
G00 X50.0000 Y42.0000
G01 Z-0.7000
G01 Z0
G00 Z2.0000
G01 Z-1.4000
G01 Z0
G00 Z2.0000
G01 Z-2.1000
G01 Z0
G00 Z2.0000
G01 Z-2.2000
G01 Z0
G00 Z2.0000
G00 X64.0000 Y11.0000
G01 Z-0.7000
G01 Z0
G00 Z2.0000
G01 Z-1.4000
G01 Z0
G00 Z2.0000
G01 Z-2.1000
G01 Z0
G00 Z2.0000
G01 Z-2.2000
G01 Z0
G00 Z2.0000
G01 F140.00

M5
G00 Z25.0000
T6
G00 X0.0000 Y0.0000                
(MSG, Change to Tool Dia = 2.2000 ||| Total drills for tool T6 = 5)
M0
G00 Z25.0000
        
G01 F140.00
M03 S12000
G4 P1
G00 X78.0000 Y75.0000
G01 Z-1.0000
G01 Z0
G00 Z2.0000
G01 Z-2.0000
G01 Z0
G00 Z2.0000
G01 Z-2.5000
G01 Z0
G00 Z2.0000
G00 X5.0000 Y5.0000
G01 Z-1.0000
G01 Z0
G00 Z2.0000
G01 Z-2.0000
G01 Z0
G00 Z2.0000
G01 Z-2.5000
G01 Z0
G00 Z2.0000
G00 X5.0000 Y75.0000
G01 Z-1.0000
G01 Z0
G00 Z2.0000
G01 Z-2.0000
G01 Z0
G00 Z2.0000
G01 Z-2.5000
G01 Z0
G00 Z2.0000
G00 X38.0000 Y46.0000
G01 Z-1.0000
G01 Z0
G00 Z2.0000
G01 Z-2.0000
G01 Z0
G00 Z2.0000
G01 Z-2.5000
G01 Z0
G00 Z2.0000
G00 X78.0000 Y5.0000
G01 Z-1.0000
G01 Z0
G00 Z2.0000
G01 Z-2.0000
G01 Z0
G00 Z2.0000
G01 Z-2.5000
G01 Z0
G00 Z2.0000
M05
G00 Z1.00


