(G-CODE GENERATED BY FLATCAM v8.994 - www.flatcam.org - Version Date: 2020/11/7)

(Name: active_sender-B_Cu.gbr_iso_combined_cnc)
(Type: G-code from Geometry)
(Units: MM)

(Created on Wednesday, 24 June 2026 at 16:20)

(This preprocessor is the default preprocessor used by FlatCAM.)
(It is made to work with MACH3 compatible motion controllers.)

(TOOL DIAMETER: 0.1497 mm)
(Feedrate_XY: 120.0 mm/min)
(Feedrate_Z: 60.0 mm/min)
(Feedrate rapids 1000.0 mm/min)

(Z_Cut: -0.06 mm)
(Z_Move: 1.5 mm)
(Z Start: None mm)
(Z End: 15.0 mm)
(X,Y End: None mm)
(Steps per circle: 64)
(Preprocessor Geometry: Default_no_M6)

(X range:    0.1562 ...   82.8438  mm)
(Y range:    0.1562 ...   79.8438  mm)

(Spindle Speed: 12000.0 RPM)
G21
G90
G94

G01 F120.00

M5
G00 Z25.0000
G00 X0.0000 Y0.0000
T2
(MSG, Change to Tool Dia = 0.1497)
M0
G00 Z25.0000
        
M03 S12000.0
G01 F120.00
G00 X2.7617 Y7.3552
G01 F60.00
G01 Z-0.0600
G01 F120.00
G01 X2.8480 Y7.1086
G01 X2.9613 Y6.8733
G01 X3.1003 Y6.6521
G01 X3.2632 Y6.4479
G01 X3.4479 Y6.2632
G01 X3.6521 Y6.1003
G01 X3.8733 Y5.9613
G01 X4.1086 Y5.8480
G01 X4.3552 Y5.7617
G01 X4.6098 Y5.7036
G01 X4.8305 Y5.6787
G01 X4.8485 Y5.6758
G01 X4.8548 Y5.6743
G01 X5.1352 Y5.6743
G01 X5.1438 Y5.6758
G01 X5.3902 Y5.7036
G01 X5.6462 Y5.7620
G01 X5.8914 Y5.8480
G01 X6.1267 Y5.9613
G01 X6.3479 Y6.1003
G01 X6.5521 Y6.2632
G01 X6.7368 Y6.4479
G01 X6.8997 Y6.6521
G01 X7.0387 Y6.8733
G01 X7.1520 Y7.1086
G01 X7.2383 Y7.3552
G01 X7.2964 Y7.6099
G01 X7.3257 Y7.8694
G01 X7.3257 Y8.1306
G01 X7.2964 Y8.3902
G01 X7.2382 Y8.6450
G01 X7.1520 Y8.8914
G01 X7.0387 Y9.1267
G01 X6.8997 Y9.3479
G01 X6.7368 Y9.5521
G01 X6.5521 Y9.7368
G01 X6.3479 Y9.8997
G01 X6.1267 Y10.0387
G01 X5.8914 Y10.1520
G01 X5.6448 Y10.2383
G01 X5.3902 Y10.2964
G01 X5.1306 Y10.3257
G01 X4.8694 Y10.3257
G01 X4.6097 Y10.2964
G01 X4.3551 Y10.2383
G01 X4.1086 Y10.1520
G01 X3.8731 Y10.0385
G01 X3.6521 Y9.8997
G01 X3.4479 Y9.7368
G01 X3.2632 Y9.5521
G01 X3.1003 Y9.3479
G01 X2.9613 Y9.1267
G01 X2.8480 Y8.8914
G01 X2.7617 Y8.6448
G01 X2.7036 Y8.3902
G01 X2.6743 Y8.1306
G01 X2.6743 Y7.8694
G01 X2.7036 Y7.6098
G01 X2.7617 Y7.3552
G00 Z1.5000
G00 X2.8482 Y7.3801
G01 F60.00
G01 Z-0.0600
G01 F120.00
G01 X2.9311 Y7.1430
G01 X3.0401 Y6.9168
G01 X3.1737 Y6.7042
G01 X3.3302 Y6.5078
G01 X3.5078 Y6.3302
G01 X3.7042 Y6.1737
G01 X3.9168 Y6.0401
G01 X4.1430 Y5.9311
G01 X4.3801 Y5.8482
G01 X4.6249 Y5.7923
G01 X4.8405 Y5.7680
G01 X4.8648 Y5.7642
G01 X5.1269 Y5.7642
G01 X5.3751 Y5.7923
G01 X5.6201 Y5.8482
G01 X5.8570 Y5.9311
G01 X6.0832 Y6.0401
G01 X6.2958 Y6.1737
G01 X6.4922 Y6.3302
G01 X6.6698 Y6.5078
G01 X6.8263 Y6.7042
G01 X6.9599 Y6.9168
G01 X7.0689 Y7.1430
G01 X7.1518 Y7.3801
G01 X7.2077 Y7.6249
G01 X7.2358 Y7.8744
G01 X7.2358 Y8.1256
G01 X7.2077 Y8.3751
G01 X7.1514 Y8.6212
G01 X7.0689 Y8.8570
G01 X6.9599 Y9.0832
G01 X6.8263 Y9.2959
G01 X6.6698 Y9.4922
G01 X6.4922 Y9.6698
G01 X6.2959 Y9.8263
G01 X6.0832 Y9.9599
G01 X5.8570 Y10.0689
G01 X5.6199 Y10.1518
G01 X5.3751 Y10.2077
G01 X5.1256 Y10.2358
G01 X4.8745 Y10.2358
G01 X4.6237 Y10.2074
G01 X4.3801 Y10.1518
G01 X4.1430 Y10.0689
G01 X3.9168 Y9.9599
G01 X3.7042 Y9.8263
G01 X3.5078 Y9.6698
G01 X3.3302 Y9.4922
G01 X3.1737 Y9.2958
G01 X3.0401 Y9.0832
G01 X2.9311 Y8.8570
G01 X2.8482 Y8.6199
G01 X2.7923 Y8.3751
G01 X2.7642 Y8.1256
G01 X2.7642 Y7.8744
G01 X2.7923 Y7.6249
G01 X2.8482 Y7.3801
G00 Z1.5000
G00 X2.9463 Y8.2104
G01 F60.00
G01 Z-0.0600
G01 F120.00
G01 X2.9447 Y8.1943
G01 X2.9353 Y8.0000
G01 X2.9453 Y7.7976
G01 X2.9750 Y7.5972
G01 X3.0242 Y7.4007
G01 X3.0925 Y7.2099
G01 X3.1791 Y7.0267
G01 X3.2833 Y6.8529
G01 X3.4040 Y6.6902
G01 X3.5401 Y6.5401
G01 X3.6902 Y6.4040
G01 X3.8529 Y6.2833
G01 X4.0267 Y6.1791
G01 X4.2099 Y6.0925
G01 X4.4007 Y6.0242
G01 X4.5972 Y5.9750
G01 X4.7976 Y5.9453
G01 X5.0000 Y5.9353
G01 X5.2024 Y5.9453
G01 X5.4028 Y5.9750
G01 X5.5993 Y6.0242
G01 X5.7901 Y6.0925
G01 X5.9733 Y6.1791
G01 X6.1471 Y6.2833
G01 X6.3098 Y6.4040
G01 X6.4599 Y6.5401
G01 X6.5960 Y6.6902
G01 X6.7167 Y6.8529
G01 X6.8209 Y7.0267
G01 X6.9075 Y7.2099
G01 X6.9758 Y7.4007
G01 X7.0250 Y7.5972
G01 X7.0547 Y7.7976
G01 X7.0647 Y8.0000
G01 X7.0547 Y8.2024
G01 X7.0250 Y8.4028
G01 X6.9758 Y8.5993
G01 X6.9075 Y8.7901
G01 X6.8209 Y8.9733
G01 X6.7167 Y9.1471
G01 X6.5960 Y9.3098
G01 X6.4599 Y9.4599
G01 X6.3098 Y9.5960
G01 X6.1471 Y9.7167
G01 X5.9733 Y9.8209
G01 X5.7901 Y9.9075
G01 X5.5993 Y9.9758
G01 X5.4028 Y10.0250
G01 X5.2024 Y10.0547
G01 X5.0000 Y10.0647
G01 X4.7976 Y10.0547
G01 X4.5972 Y10.0250
G01 X4.4007 Y9.9758
G01 X4.2099 Y9.9075
G01 X4.0267 Y9.8209
G01 X3.8529 Y9.7167
G01 X3.6902 Y9.5960
G01 X3.5401 Y9.4599
G01 X3.4040 Y9.3098
G01 X3.2833 Y9.1471
G01 X3.1791 Y8.9733
G01 X3.0925 Y8.7901
G01 X3.0242 Y8.5993
G01 X2.9750 Y8.4028
G01 X2.9463 Y8.2104
G00 Z1.5000
G00 X3.0351 Y8.1972
G01 F60.00
G01 Z-0.0600
G01 F120.00
G01 X3.0344 Y8.1899
G01 X3.0252 Y8.0000
G01 X3.0347 Y7.8064
G01 X3.0631 Y7.6147
G01 X3.1102 Y7.4267
G01 X3.1755 Y7.2443
G01 X3.2583 Y7.0691
G01 X3.3580 Y6.9028
G01 X3.4734 Y6.7472
G01 X3.6036 Y6.6036
G01 X3.7472 Y6.4734
G01 X3.9028 Y6.3580
G01 X4.0691 Y6.2583
G01 X4.2443 Y6.1755
G01 X4.4267 Y6.1102
G01 X4.6147 Y6.0631
G01 X4.8064 Y6.0347
G01 X5.0000 Y6.0252
G01 X5.1936 Y6.0347
G01 X5.3853 Y6.0631
G01 X5.5733 Y6.1102
G01 X5.7557 Y6.1755
G01 X5.9309 Y6.2583
G01 X6.0972 Y6.3580
G01 X6.2528 Y6.4734
G01 X6.3964 Y6.6036
G01 X6.5266 Y6.7472
G01 X6.6420 Y6.9028
G01 X6.7417 Y7.0691
G01 X6.8245 Y7.2443
G01 X6.8898 Y7.4267
G01 X6.9369 Y7.6147
G01 X6.9653 Y7.8064
G01 X6.9748 Y8.0000
G01 X6.9653 Y8.1936
G01 X6.9369 Y8.3853
G01 X6.8898 Y8.5733
G01 X6.8245 Y8.7557
G01 X6.7417 Y8.9309
G01 X6.6420 Y9.0972
G01 X6.5266 Y9.2528
G01 X6.3964 Y9.3964
G01 X6.2528 Y9.5266
G01 X6.0972 Y9.6420
G01 X5.9309 Y9.7417
G01 X5.7557 Y9.8245
G01 X5.5733 Y9.8898
G01 X5.3853 Y9.9369
G01 X5.1936 Y9.9653
G01 X5.0000 Y9.9748
G01 X4.8064 Y9.9653
G01 X4.6147 Y9.9369
G01 X4.4267 Y9.8898
G01 X4.2443 Y9.8245
G01 X4.0691 Y9.7417
G01 X3.9028 Y9.6420
G01 X3.7472 Y9.5266
G01 X3.6036 Y9.3964
G01 X3.4734 Y9.2528
G01 X3.3580 Y9.0972
G01 X3.2583 Y8.9309
G01 X3.1755 Y8.7557
G01 X3.1102 Y8.5733
G01 X3.0631 Y8.3853
G01 X3.0351 Y8.1972
G00 Z1.5000
G00 X1.4012 Y12.6800
G01 F60.00
G01 Z-0.0600
G01 F120.00
G01 X1.3503 Y12.8029
G01 X1.3243 Y12.9335
G01 X1.3243 Y23.0666
G01 X1.3503 Y23.1971
G01 X1.4012 Y23.3200
G01 X1.4752 Y23.4307
G01 X2.8293 Y24.7848
G01 X2.9400 Y24.8588
G01 X3.0629 Y24.9097
G01 X3.1935 Y24.9357
G01 X4.2955 Y24.9357
G01 X4.3061 Y24.9364
G01 X4.3534 Y24.9445
G01 X4.3602 Y24.9464
G01 X5.4127 Y25.3082
G01 X5.4170 Y25.3097
G01 X5.4900 Y25.3286
G01 X5.5201 Y25.3376
G01 X5.5435 Y25.3466
G01 X5.5549 Y25.3521
G01 X5.5639 Y25.3578
G01 X5.5695 Y25.3623
G01 X5.5889 Y25.3796
G01 X5.5962 Y25.3844
G01 X5.6022 Y25.3889
G01 X5.6089 Y25.3953
G01 X5.6152 Y25.4030
G01 X5.6269 Y25.4140
G01 X5.6317 Y25.4197
G01 X5.6348 Y25.4243
G01 X5.6401 Y25.4341
G01 X5.6439 Y25.4446
G01 X5.6631 Y25.5137
G01 X5.6648 Y25.5228
G01 X5.6654 Y25.5321
G01 X5.6645 Y25.5432
G01 X5.6620 Y25.5541
G01 X5.6408 Y25.6226
G01 X5.6374 Y25.6311
G01 X5.6319 Y25.6406
G01 X5.6263 Y25.6479
G01 X5.6199 Y25.6544
G01 X5.5652 Y25.7011
G01 X5.5591 Y25.7056
G01 X5.5542 Y25.7085
G01 X5.5406 Y25.7149
G01 X5.5221 Y25.7208
G01 X5.5125 Y25.7246
G01 X5.5053 Y25.7265
G01 X5.4660 Y25.7392
G01 X5.4533 Y25.7427
G01 X5.4073 Y25.7536
G01 X4.3568 Y26.1146
G01 X4.3482 Y26.1166
G01 X4.3079 Y26.1233
G01 X4.2991 Y26.1243
G01 X4.1335 Y26.1243
G01 X4.0029 Y26.1503
G01 X3.8800 Y26.2012
G01 X3.7693 Y26.2752
G01 X1.4752 Y28.5693
G01 X1.4012 Y28.6800
G01 X1.3503 Y28.8029
G01 X1.3243 Y28.9335
G01 X1.3243 Y50.1615
G01 X1.3503 Y50.2921
G01 X1.4012 Y50.4150
G01 X1.4752 Y50.5257
G01 X6.7535 Y55.8040
G01 X6.7594 Y55.8107
G01 X6.7816 Y55.8403
G01 X6.7865 Y55.8478
G01 X6.8000 Y55.8724
G01 X6.8033 Y55.8792
G01 X6.8053 Y55.8844
G01 X6.8225 Y55.9510
G01 X6.8238 Y55.9584
G01 X6.8243 Y55.9658
G01 X6.8243 Y57.5162
G01 X6.8336 Y57.6070
G01 X6.8835 Y57.7575
G01 X6.9664 Y57.8919
G01 X7.0781 Y58.0036
G01 X7.2125 Y58.0865
G01 X7.3629 Y58.1364
G01 X7.4538 Y58.1457
G01 X8.4462 Y58.1457
G01 X8.5370 Y58.1364
G01 X8.6875 Y58.0865
G01 X8.8219 Y58.0036
G01 X8.9336 Y57.8919
G01 X9.0165 Y57.7575
G01 X9.0664 Y57.6070
G01 X9.0757 Y57.5162
G01 X9.0757 Y54.5738
G01 X9.0664 Y54.4829
G01 X9.0165 Y54.3325
G01 X8.9336 Y54.1981
G01 X8.8219 Y54.0864
G01 X8.6875 Y54.0035
G01 X8.5370 Y53.9536
G01 X8.4462 Y53.9443
G01 X7.4538 Y53.9443
G01 X7.3630 Y53.9536
G01 X7.2125 Y54.0035
G01 X7.1459 Y54.0445
G01 X7.1397 Y54.0480
G01 X7.0991 Y54.0655
G01 X7.0790 Y54.0712
G01 X7.0702 Y54.0731
G01 X7.0596 Y54.0739
G01 X6.9880 Y54.0726
G01 X6.9791 Y54.0719
G01 X6.9704 Y54.0701
G01 X6.9558 Y54.0655
G01 X6.9459 Y54.0611
G01 X6.8877 Y54.0257
G01 X6.8834 Y54.0224
G01 X6.8781 Y54.0176
G01 X2.7465 Y49.8860
G01 X2.7406 Y49.8793
G01 X2.7163 Y49.8468
G01 X2.7126 Y49.8407
G01 X2.7000 Y49.8176
G01 X2.6967 Y49.8109
G01 X2.6931 Y49.8002
G01 X2.6775 Y49.7390
G01 X2.6760 Y49.7298
G01 X2.6757 Y49.7223
G01 X2.6757 Y29.3801
G01 X2.6762 Y29.3711
G01 X2.6814 Y29.3345
G01 X2.6832 Y29.3257
G01 X2.6911 Y29.2988
G01 X2.6936 Y29.2917
G01 X2.6959 Y29.2866
G01 X2.7308 Y29.2273
G01 X2.7363 Y29.2198
G01 X2.7413 Y29.2142
G01 X4.3534 Y27.6021
G01 X4.3601 Y27.5962
G01 X4.3689 Y27.5902
G01 X4.4350 Y27.5542
G01 X4.4434 Y27.5507
G01 X4.4522 Y27.5483
G01 X4.4611 Y27.5470
G01 X4.4684 Y27.5467
G01 X4.5405 Y27.5509
G01 X4.5497 Y27.5522
G01 X4.5569 Y27.5541
G01 X5.4071 Y27.8463
G01 X5.4479 Y27.8557
G01 X5.4599 Y27.8588
G01 X5.5028 Y27.8727
G01 X5.5093 Y27.8742
G01 X5.5226 Y27.8784
G01 X5.5304 Y27.8818
G01 X5.5435 Y27.8866
G01 X5.5533 Y27.8913
G01 X5.5595 Y27.8948
G01 X5.5681 Y27.9011
G01 X5.5909 Y27.9214
G01 X5.6026 Y27.9296
G01 X5.6094 Y27.9359
G01 X5.6157 Y27.9435
G01 X5.6230 Y27.9500
G01 X5.6281 Y27.9554
G01 X5.6348 Y27.9643
G01 X5.6394 Y27.9724
G01 X5.6416 Y27.9775
G01 X5.6439 Y27.9846
G01 X5.6631 Y28.0537
G01 X5.6650 Y28.0647
G01 X5.6654 Y28.0721
G01 X5.6650 Y28.0795
G01 X5.6639 Y28.0869
G01 X5.6620 Y28.0941
G01 X5.6402 Y28.1643
G01 X5.6357 Y28.1743
G01 X5.6319 Y28.1806
G01 X5.6287 Y28.1851
G01 X5.6251 Y28.1893
G01 X5.6199 Y28.1944
G01 X5.5667 Y28.2399
G01 X5.5591 Y28.2456
G01 X5.5509 Y28.2503
G01 X5.5390 Y28.2555
G01 X5.5221 Y28.2608
G01 X5.5125 Y28.2646
G01 X5.5053 Y28.2665
G01 X5.3379 Y28.3209
G01 X5.1837 Y28.3995
G01 X5.0436 Y28.5012
G01 X4.9212 Y28.6236
G01 X4.8195 Y28.7637
G01 X4.7409 Y28.9179
G01 X4.6874 Y29.0825
G01 X4.6603 Y29.2535
G01 X4.6603 Y29.4266
G01 X4.6874 Y29.5975
G01 X4.7409 Y29.7621
G01 X4.8195 Y29.9163
G01 X4.9212 Y30.0564
G01 X5.0436 Y30.1788
G01 X5.1837 Y30.2805
G01 X5.3379 Y30.3591
G01 X5.5053 Y30.4135
G01 X5.5116 Y30.4152
G01 X5.5183 Y30.4177
G01 X5.5255 Y30.4212
G01 X5.5350 Y30.4235
G01 X5.5436 Y30.4267
G01 X5.5549 Y30.4321
G01 X5.5625 Y30.4368
G01 X5.5681 Y30.4411
G01 X5.5825 Y30.4539
G01 X5.5916 Y30.4594
G01 X5.5976 Y30.4639
G01 X5.6056 Y30.4716
G01 X5.6124 Y30.4805
G01 X5.6230 Y30.4900
G01 X5.6294 Y30.4968
G01 X5.6358 Y30.5059
G01 X5.6401 Y30.5141
G01 X5.6439 Y30.5246
G01 X5.6631 Y30.5937
G01 X5.6648 Y30.6028
G01 X5.6654 Y30.6121
G01 X5.6648 Y30.6214
G01 X5.6626 Y30.6323
G01 X5.6412 Y30.7015
G01 X5.6386 Y30.7083
G01 X5.6363 Y30.7132
G01 X5.6307 Y30.7224
G01 X5.6237 Y30.7307
G01 X5.6185 Y30.7356
G01 X5.5958 Y30.7550
G01 X5.5884 Y30.7641
G01 X5.5803 Y30.7717
G01 X5.5743 Y30.7761
G01 X5.5648 Y30.7814
G01 X5.5559 Y30.7876
G01 X5.5491 Y30.7911
G01 X5.5390 Y30.7955
G01 X5.5221 Y30.8008
G01 X5.5125 Y30.8046
G01 X5.5053 Y30.8065
G01 X5.3379 Y30.8609
G01 X5.1837 Y30.9395
G01 X5.0436 Y31.0412
G01 X4.9212 Y31.1636
G01 X4.8195 Y31.3037
G01 X4.7409 Y31.4579
G01 X4.6874 Y31.6225
G01 X4.6603 Y31.7935
G01 X4.6603 Y31.9666
G01 X4.6874 Y32.1375
G01 X4.7409 Y32.3021
G01 X4.8195 Y32.4563
G01 X4.9212 Y32.5964
G01 X5.0436 Y32.7188
G01 X5.1837 Y32.8205
G01 X5.3379 Y32.8991
G01 X5.5025 Y32.9526
G01 X5.6734 Y32.9797
G01 X5.8466 Y32.9797
G01 X6.0175 Y32.9526
G01 X6.1821 Y32.8991
G01 X6.3363 Y32.8205
G01 X6.4764 Y32.7188
G01 X6.5988 Y32.5964
G01 X6.7005 Y32.4563
G01 X6.7791 Y32.3021
G01 X6.8326 Y32.1375
G01 X6.8597 Y31.9666
G01 X6.8597 Y31.7934
G01 X6.8326 Y31.6225
G01 X6.7791 Y31.4579
G01 X6.7005 Y31.3037
G01 X6.5988 Y31.1636
G01 X6.4764 Y31.0412
G01 X6.3363 Y30.9395
G01 X6.1821 Y30.8609
G01 X6.0147 Y30.8065
G01 X6.0079 Y30.8047
G01 X5.9801 Y30.7948
G01 X5.9683 Y30.7895
G01 X5.9620 Y30.7861
G01 X5.9546 Y30.7811
G01 X5.9463 Y30.7740
G01 X5.9362 Y30.7691
G01 X5.9283 Y30.7641
G01 X5.9225 Y30.7595
G01 X5.9172 Y30.7543
G01 X5.9114 Y30.7471
G01 X5.9047 Y30.7369
G01 X5.8957 Y30.7287
G01 X5.8906 Y30.7232
G01 X5.8842 Y30.7141
G01 X5.8799 Y30.7059
G01 X5.8772 Y30.6990
G01 X5.8746 Y30.6900
G01 X5.8696 Y30.6820
G01 X5.8670 Y30.6771
G01 X5.8641 Y30.6702
G01 X5.8619 Y30.6631
G01 X5.8608 Y30.6577
G01 X5.8598 Y30.6503
G01 X5.8596 Y30.6363
G01 X5.8565 Y30.6245
G01 X5.8552 Y30.6172
G01 X5.8546 Y30.6098
G01 X5.8548 Y30.6023
G01 X5.8565 Y30.5913
G01 X5.8596 Y30.5805
G01 X5.8597 Y30.5712
G01 X5.8602 Y30.5656
G01 X5.8615 Y30.5583
G01 X5.8629 Y30.5529
G01 X5.8655 Y30.5459
G01 X5.8678 Y30.5408
G01 X5.8761 Y30.5273
G01 X5.8798 Y30.5157
G01 X5.8826 Y30.5089
G01 X5.8871 Y30.5009
G01 X5.8925 Y30.4935
G01 X5.8988 Y30.4868
G01 X5.9063 Y30.4803
G01 X5.9114 Y30.4725
G01 X5.9149 Y30.4680
G01 X5.9200 Y30.4625
G01 X5.9257 Y30.4575
G01 X5.9318 Y30.4531
G01 X5.9630 Y30.4331
G01 X5.9693 Y30.4297
G01 X5.9800 Y30.4249
G01 X5.9981 Y30.4192
G01 X6.0075 Y30.4154
G01 X6.0147 Y30.4135
G01 X6.1821 Y30.3591
G01 X6.3363 Y30.2805
G01 X6.4764 Y30.1788
G01 X6.5988 Y30.0564
G01 X6.7005 Y29.9163
G01 X6.7791 Y29.7621
G01 X6.8326 Y29.5975
G01 X6.8597 Y29.4266
G01 X6.8597 Y29.2534
G01 X6.8326 Y29.0825
G01 X6.7791 Y28.9179
G01 X6.7250 Y28.8118
G01 X6.7005 Y28.7637
G01 X6.5988 Y28.6236
G01 X6.4764 Y28.5012
G01 X6.3363 Y28.3995
G01 X6.1821 Y28.3209
G01 X6.0147 Y28.2665
G01 X6.0079 Y28.2647
G01 X5.9801 Y28.2548
G01 X5.9683 Y28.2495
G01 X5.9620 Y28.2461
G01 X5.9546 Y28.2411
G01 X5.9463 Y28.2340
G01 X5.9362 Y28.2291
G01 X5.9268 Y28.2230
G01 X5.9198 Y28.2169
G01 X5.9148 Y28.2115
G01 X5.9103 Y28.2055
G01 X5.9047 Y28.1969
G01 X5.8957 Y28.1887
G01 X5.8906 Y28.1832
G01 X5.8842 Y28.1741
G01 X5.8799 Y28.1659
G01 X5.8772 Y28.1590
G01 X5.8746 Y28.1500
G01 X5.8696 Y28.1420
G01 X5.8670 Y28.1371
G01 X5.8641 Y28.1302
G01 X5.8619 Y28.1231
G01 X5.8608 Y28.1177
G01 X5.8598 Y28.1103
G01 X5.8596 Y28.0963
G01 X5.8565 Y28.0845
G01 X5.8552 Y28.0772
G01 X5.8546 Y28.0698
G01 X5.8547 Y28.0642
G01 X5.8561 Y28.0531
G01 X5.8596 Y28.0405
G01 X5.8600 Y28.0274
G01 X5.8608 Y28.0219
G01 X5.8624 Y28.0147
G01 X5.8648 Y28.0076
G01 X5.8678 Y28.0008
G01 X5.8761 Y27.9873
G01 X5.8798 Y27.9757
G01 X5.8826 Y27.9689
G01 X5.8871 Y27.9609
G01 X5.8925 Y27.9535
G01 X5.8988 Y27.9468
G01 X5.9063 Y27.9403
G01 X5.9114 Y27.9325
G01 X5.9174 Y27.9252
G01 X5.9214 Y27.9212
G01 X5.9272 Y27.9164
G01 X5.9630 Y27.8931
G01 X5.9693 Y27.8897
G01 X5.9800 Y27.8849
G01 X5.9981 Y27.8792
G01 X6.0075 Y27.8754
G01 X6.0147 Y27.8735
G01 X6.1821 Y27.8191
G01 X6.3363 Y27.7405
G01 X6.4764 Y27.6388
G01 X6.5988 Y27.5164
G01 X6.7005 Y27.3763
G01 X6.7791 Y27.2221
G01 X6.8326 Y27.0575
G01 X6.8597 Y26.8866
G01 X6.8597 Y26.7134
G01 X6.8326 Y26.5425
G01 X6.7791 Y26.3779
G01 X6.7005 Y26.2237
G01 X6.5988 Y26.0836
G01 X6.4764 Y25.9612
G01 X6.3363 Y25.8595
G01 X6.1821 Y25.7809
G01 X6.0147 Y25.7265
G01 X6.0079 Y25.7247
G01 X5.9801 Y25.7148
G01 X5.9683 Y25.7095
G01 X5.9620 Y25.7061
G01 X5.9546 Y25.7011
G01 X5.9463 Y25.6940
G01 X5.9362 Y25.6891
G01 X5.9268 Y25.6830
G01 X5.9212 Y25.6782
G01 X5.9148 Y25.6715
G01 X5.9103 Y25.6655
G01 X5.9047 Y25.6569
G01 X5.8957 Y25.6487
G01 X5.8906 Y25.6432
G01 X5.8842 Y25.6341
G01 X5.8799 Y25.6259
G01 X5.8772 Y25.6190
G01 X5.8746 Y25.6100
G01 X5.8696 Y25.6020
G01 X5.8670 Y25.5971
G01 X5.8641 Y25.5902
G01 X5.8619 Y25.5831
G01 X5.8608 Y25.5777
G01 X5.8598 Y25.5703
G01 X5.8596 Y25.5563
G01 X5.8557 Y25.5409
G01 X5.8548 Y25.5335
G01 X5.8547 Y25.5260
G01 X5.8550 Y25.5205
G01 X5.8561 Y25.5131
G01 X5.8596 Y25.5005
G01 X5.8600 Y25.4874
G01 X5.8608 Y25.4819
G01 X5.8624 Y25.4747
G01 X5.8648 Y25.4676
G01 X5.8678 Y25.4608
G01 X5.8761 Y25.4473
G01 X5.8798 Y25.4357
G01 X5.8826 Y25.4289
G01 X5.8871 Y25.4209
G01 X5.8925 Y25.4135
G01 X5.8988 Y25.4068
G01 X5.9063 Y25.4003
G01 X5.9114 Y25.3925
G01 X5.9174 Y25.3852
G01 X5.9228 Y25.3799
G01 X5.9272 Y25.3764
G01 X5.9630 Y25.3531
G01 X5.9693 Y25.3497
G01 X5.9800 Y25.3449
G01 X5.9981 Y25.3392
G01 X6.0075 Y25.3354
G01 X6.0147 Y25.3335
G01 X6.1821 Y25.2791
G01 X6.3363 Y25.2005
G01 X6.4764 Y25.0988
G01 X6.5988 Y24.9764
G01 X6.7005 Y24.8363
G01 X6.7791 Y24.6821
G01 X6.8326 Y24.5175
G01 X6.8597 Y24.3466
G01 X6.8597 Y24.1734
G01 X6.8326 Y24.0025
G01 X6.7791 Y23.8379
G01 X6.7005 Y23.6837
G01 X6.5988 Y23.5436
G01 X6.4764 Y23.4212
G01 X6.3363 Y23.3195
G01 X6.1821 Y23.2409
G01 X6.0174 Y23.1874
G01 X6.0101 Y23.1857
G01 X5.9980 Y23.1818
G01 X5.9747 Y23.1726
G01 X5.9635 Y23.1670
G01 X5.9561 Y23.1622
G01 X5.9505 Y23.1577
G01 X5.9283 Y23.1379
G01 X5.9196 Y23.1319
G01 X5.9125 Y23.1259
G01 X5.9086 Y23.1219
G01 X5.9042 Y23.1164
G01 X5.8970 Y23.1100
G01 X5.8919 Y23.1046
G01 X5.8872 Y23.0988
G01 X5.8832 Y23.0925
G01 X5.8791 Y23.0842
G01 X5.8766 Y23.0772
G01 X5.8574 Y23.0081
G01 X5.8552 Y22.9972
G01 X5.8547 Y22.9860
G01 X5.8555 Y22.9768
G01 X5.8580 Y22.9659
G01 X5.8792 Y22.8974
G01 X5.8819 Y22.8906
G01 X5.8861 Y22.8825
G01 X5.8925 Y22.8735
G01 X5.9001 Y22.8656
G01 X5.9578 Y22.8166
G01 X5.9641 Y22.8124
G01 X5.9692 Y22.8097
G01 X5.9781 Y22.8057
G01 X5.9838 Y22.8035
G01 X5.9981 Y22.7992
G01 X6.0075 Y22.7954
G01 X6.0147 Y22.7935
G01 X6.1821 Y22.7391
G01 X6.3363 Y22.6605
G01 X6.4764 Y22.5588
G01 X6.5988 Y22.4364
G01 X6.7005 Y22.2963
G01 X6.7791 Y22.1421
G01 X6.8326 Y21.9775
G01 X6.8597 Y21.8066
G01 X6.8597 Y21.7295
G01 X6.8604 Y21.7224
G01 X6.8654 Y21.6875
G01 X6.8672 Y21.6787
G01 X6.8726 Y21.6611
G01 X6.8754 Y21.6546
G01 X6.8779 Y21.6498
G01 X6.9185 Y21.5865
G01 X6.9230 Y21.5805
G01 X6.9294 Y21.5738
G01 X6.9381 Y21.5668
G01 X6.9461 Y21.5620
G01 X7.0147 Y21.5306
G01 X7.0234 Y21.5275
G01 X7.0306 Y21.5258
G01 X7.0380 Y21.5249
G01 X7.0454 Y21.5246
G01 X7.0547 Y21.5254
G01 X7.1238 Y21.5353
G01 X7.1308 Y21.5367
G01 X7.1377 Y21.5387
G01 X7.1513 Y21.5445
G01 X7.1597 Y21.5490
G01 X7.1990 Y21.5762
G01 X7.2051 Y21.5809
G01 X7.9460 Y22.3216
G01 X7.9505 Y22.3271
G01 X7.9747 Y22.3597
G01 X7.9900 Y22.3874
G01 X7.9933 Y22.3942
G01 X7.9969 Y22.4048
G01 X8.0125 Y22.4660
G01 X8.0138 Y22.4734
G01 X8.0143 Y22.4827
G01 X8.0143 Y38.4631
G01 X8.0136 Y38.4702
G01 X8.0076 Y38.5104
G01 X8.0000 Y38.5369
G01 X7.9977 Y38.5436
G01 X7.9931 Y38.5531
G01 X7.9634 Y38.6048
G01 X7.9573 Y38.6135
G01 X7.9483 Y38.6232
G01 X7.9394 Y38.6312
G01 X7.9230 Y38.6450
G01 X7.7613 Y38.7626
G01 X7.6026 Y38.9213
G01 X7.5708 Y38.9650
G01 X7.5600 Y38.9785
G01 X7.5536 Y38.9850
G01 X7.5241 Y39.0106
G01 X7.5194 Y39.0141
G01 X7.5049 Y39.0235
G01 X7.4955 Y39.0287
G01 X7.4889 Y39.0313
G01 X7.4796 Y39.0341
G01 X7.4408 Y39.0494
G01 X7.4354 Y39.0512
G01 X7.4280 Y39.0528
G01 X7.4138 Y39.0549
G01 X7.4040 Y39.0554
G01 X7.1038 Y39.3556
G01 X7.1430 Y39.4387
G01 X7.1774 Y39.5345
G01 X7.1795 Y39.5415
G01 X7.2034 Y39.6367
G01 X7.2048 Y39.6439
G01 X7.2197 Y39.7446
G01 X7.2248 Y39.8500
G01 X7.2197 Y39.9554
G01 X7.2048 Y40.0561
G01 X7.2034 Y40.0633
G01 X7.1795 Y40.1585
G01 X7.1774 Y40.1655
G01 X7.1430 Y40.2613
G01 X7.1038 Y40.3444
G01 X7.4040 Y40.6446
G01 X7.4375 Y40.6500
G01 X7.4526 Y40.6539
G01 X7.4610 Y40.6569
G01 X7.4674 Y40.6599
G01 X7.5290 Y40.6930
G01 X7.5353 Y40.6968
G01 X7.5412 Y40.7011
G01 X7.5491 Y40.7087
G01 X7.5649 Y40.7271
G01 X7.6026 Y40.7787
G01 X7.7613 Y40.9374
G01 X7.9222 Y41.0546
G01 X7.9551 Y41.0866
G01 X7.9732 Y41.1098
G01 X7.9780 Y41.1172
G01 X7.9812 Y41.1235
G01 X8.0049 Y41.1763
G01 X8.0080 Y41.1845
G01 X8.0098 Y41.1914
G01 X8.0115 Y41.2009
G01 X8.0143 Y41.2324
G01 X8.0143 Y42.2066
G01 X8.0403 Y42.3371
G01 X8.0912 Y42.4600
G01 X8.1652 Y42.5707
G01 X9.3205 Y43.7260
G01 X9.3242 Y43.7300
G01 X9.3287 Y43.7357
G01 X9.3574 Y43.7785
G01 X9.3602 Y43.7832
G01 X9.3633 Y43.7898
G01 X9.6839 Y44.5558
G01 X9.6865 Y44.5628
G01 X9.6883 Y44.5700
G01 X9.6979 Y44.6179
G01 X9.6993 Y44.6289
G01 X9.6994 Y44.8962
G01 X9.7086 Y44.9870
G01 X9.7585 Y45.1375
G01 X9.8414 Y45.2719
G01 X9.9531 Y45.3836
G01 X10.0875 Y45.4665
G01 X10.2379 Y45.5164
G01 X10.3288 Y45.5257
G01 X11.6712 Y45.5257
G01 X11.7620 Y45.5164
G01 X11.9125 Y45.4665
G01 X12.0469 Y45.3836
G01 X12.1586 Y45.2719
G01 X12.2415 Y45.1375
G01 X12.2914 Y44.9870
G01 X12.3007 Y44.8962
G01 X12.3007 Y44.0038
G01 X12.2914 Y43.9130
G01 X12.2415 Y43.7625
G01 X12.1586 Y43.6281
G01 X12.0469 Y43.5164
G01 X11.9125 Y43.4335
G01 X11.7620 Y43.3836
G01 X11.6712 Y43.3743
G01 X11.4292 Y43.3742
G01 X11.4220 Y43.3733
G01 X11.4166 Y43.3722
G01 X11.3588 Y43.3578
G01 X11.3484 Y43.3544
G01 X11.3418 Y43.3514
G01 X10.3366 Y42.8206
G01 X10.3021 Y42.7954
G01 X10.2936 Y42.7881
G01 X9.4365 Y41.9310
G01 X9.4306 Y41.9243
G01 X9.4073 Y41.8932
G01 X9.4035 Y41.8872
G01 X9.3891 Y41.8609
G01 X9.3847 Y41.8506
G01 X9.3675 Y41.7840
G01 X9.3662 Y41.7766
G01 X9.3657 Y41.7692
G01 X9.3657 Y41.2387
G01 X9.3664 Y41.2298
G01 X9.3724 Y41.1896
G01 X9.3800 Y41.1631
G01 X9.3830 Y41.1548
G01 X9.3869 Y41.1469
G01 X9.4175 Y41.0937
G01 X9.4239 Y41.0852
G01 X9.4317 Y41.0768
G01 X9.4556 Y41.0560
G01 X9.6187 Y40.9374
G01 X9.7774 Y40.7788
G01 X9.7930 Y40.7579
G01 X9.8240 Y40.7261
G01 X9.8420 Y40.7121
G01 X9.8480 Y40.7083
G01 X9.8527 Y40.7059
G01 X9.9228 Y40.6784
G01 X9.9334 Y40.6752
G01 X9.9426 Y40.6737
G01 X9.9519 Y40.6733
G01 X9.9629 Y40.6745
G01 X10.0385 Y40.6899
G01 X10.0453 Y40.6922
G01 X10.0503 Y40.6943
G01 X10.0611 Y40.7000
G01 X10.0660 Y40.7030
G01 X10.0736 Y40.7087
G01 X10.1202 Y40.7494
G01 X10.1264 Y40.7566
G01 X10.1426 Y40.7787
G01 X10.3013 Y40.9374
G01 X10.4828 Y41.0693
G01 X10.6827 Y41.1712
G01 X10.8962 Y41.2405
G01 X11.1178 Y41.2757
G01 X11.3422 Y41.2757
G01 X11.5638 Y41.2405
G01 X11.7773 Y41.1712
G01 X11.9772 Y41.0693
G01 X12.1516 Y40.9426
G01 X12.1573 Y40.9388
G01 X12.3174 Y40.7788
G01 X12.3295 Y40.7622
G01 X12.3342 Y40.7565
G01 X12.3614 Y40.7285
G01 X12.3681 Y40.7227
G01 X12.3834 Y40.7111
G01 X12.3896 Y40.7075
G01 X12.3960 Y40.7044
G01 X12.4662 Y40.6772
G01 X12.4734 Y40.6752
G01 X12.4789 Y40.6741
G01 X12.4900 Y40.6733
G01 X12.4956 Y40.6735
G01 X12.5029 Y40.6745
G01 X12.5767 Y40.6895
G01 X12.5836 Y40.6916
G01 X12.5903 Y40.6943
G01 X12.6011 Y40.7000
G01 X12.6060 Y40.7030
G01 X12.6136 Y40.7087
G01 X12.6602 Y40.7494
G01 X12.6664 Y40.7566
G01 X12.6826 Y40.7787
G01 X12.8413 Y40.9374
G01 X13.0228 Y41.0693
G01 X13.2227 Y41.1712
G01 X13.4362 Y41.2405
G01 X13.6578 Y41.2757
G01 X13.8822 Y41.2757
G01 X14.1038 Y41.2405
G01 X14.3173 Y41.1712
G01 X14.5172 Y41.0693
G01 X14.6916 Y40.9426
G01 X14.6973 Y40.9388
G01 X14.8574 Y40.7788
G01 X14.8695 Y40.7622
G01 X14.8742 Y40.7565
G01 X14.9014 Y40.7285
G01 X14.9081 Y40.7227
G01 X14.9234 Y40.7111
G01 X14.9296 Y40.7075
G01 X14.9360 Y40.7044
G01 X15.0062 Y40.6772
G01 X15.0134 Y40.6752
G01 X15.0189 Y40.6741
G01 X15.0300 Y40.6733
G01 X15.0356 Y40.6735
G01 X15.0429 Y40.6745
G01 X15.1167 Y40.6895
G01 X15.1236 Y40.6916
G01 X15.1303 Y40.6943
G01 X15.1411 Y40.7000
G01 X15.1460 Y40.7030
G01 X15.1536 Y40.7087
G01 X15.2002 Y40.7494
G01 X15.2064 Y40.7566
G01 X15.2226 Y40.7787
G01 X15.3812 Y40.9374
G01 X15.5628 Y41.0693
G01 X15.7627 Y41.1712
G01 X15.9762 Y41.2405
G01 X16.1978 Y41.2757
G01 X16.4222 Y41.2757
G01 X16.6438 Y41.2405
G01 X16.8573 Y41.1712
G01 X17.0572 Y41.0693
G01 X17.2316 Y40.9426
G01 X17.2373 Y40.9388
G01 X17.3974 Y40.7788
G01 X17.4095 Y40.7622
G01 X17.4142 Y40.7565
G01 X17.4414 Y40.7285
G01 X17.4481 Y40.7227
G01 X17.4634 Y40.7111
G01 X17.4696 Y40.7075
G01 X17.4760 Y40.7044
G01 X17.5462 Y40.6772
G01 X17.5534 Y40.6752
G01 X17.5589 Y40.6741
G01 X17.5700 Y40.6733
G01 X17.5756 Y40.6735
G01 X17.5829 Y40.6745
G01 X17.6567 Y40.6895
G01 X17.6636 Y40.6916
G01 X17.6703 Y40.6943
G01 X17.6811 Y40.7000
G01 X17.6860 Y40.7030
G01 X17.6936 Y40.7087
G01 X17.7402 Y40.7494
G01 X17.7464 Y40.7566
G01 X17.7626 Y40.7787
G01 X17.9213 Y40.9374
G01 X18.1028 Y41.0693
G01 X18.3027 Y41.1712
G01 X18.5162 Y41.2405
G01 X18.7378 Y41.2757
G01 X18.9622 Y41.2757
G01 X19.1838 Y41.2405
G01 X19.3973 Y41.1712
G01 X19.5972 Y41.0693
G01 X19.7716 Y40.9426
G01 X19.7773 Y40.9388
G01 X19.9374 Y40.7788
G01 X19.9495 Y40.7622
G01 X19.9542 Y40.7565
G01 X19.9814 Y40.7285
G01 X19.9881 Y40.7227
G01 X20.0034 Y40.7111
G01 X20.0096 Y40.7075
G01 X20.0160 Y40.7044
G01 X20.0862 Y40.6772
G01 X20.0970 Y40.6744
G01 X20.1044 Y40.6735
G01 X20.1100 Y40.6733
G01 X20.1156 Y40.6735
G01 X20.1229 Y40.6745
G01 X20.1967 Y40.6895
G01 X20.2036 Y40.6916
G01 X20.2103 Y40.6943
G01 X20.2211 Y40.7000
G01 X20.2260 Y40.7030
G01 X20.2336 Y40.7087
G01 X20.2802 Y40.7494
G01 X20.2864 Y40.7566
G01 X20.3026 Y40.7787
G01 X20.4613 Y40.9374
G01 X20.6428 Y41.0693
G01 X20.8427 Y41.1712
G01 X21.0562 Y41.2405
G01 X21.2778 Y41.2757
G01 X21.5022 Y41.2757
G01 X21.7238 Y41.2405
G01 X21.9373 Y41.1712
G01 X22.1372 Y41.0693
G01 X22.3116 Y40.9426
G01 X22.3173 Y40.9388
G01 X22.4774 Y40.7787
G01 X22.5098 Y40.7345
G01 X22.5380 Y40.7052
G01 X22.5460 Y40.6981
G01 X22.5631 Y40.6850
G01 X22.5728 Y40.6789
G01 X22.6356 Y40.6520
G01 X22.6446 Y40.6488
G01 X22.6521 Y40.6472
G01 X22.6662 Y40.6451
G01 X22.6760 Y40.6446
G01 X22.9762 Y40.3444
G01 X22.9370 Y40.2613
G01 X22.9026 Y40.1655
G01 X22.9005 Y40.1585
G01 X22.8766 Y40.0633
G01 X22.8752 Y40.0561
G01 X22.8603 Y39.9554
G01 X22.8552 Y39.8500
G01 X22.8603 Y39.7446
G01 X22.8752 Y39.6439
G01 X22.8766 Y39.6367
G01 X22.9005 Y39.5415
G01 X22.9026 Y39.5345
G01 X22.9370 Y39.4387
G01 X22.9762 Y39.3556
G01 X22.6747 Y39.0541
G01 X22.6636 Y39.0533
G01 X22.6565 Y39.0524
G01 X22.6336 Y39.0476
G01 X22.6245 Y39.0448
G01 X22.6175 Y39.0417
G01 X22.5598 Y39.0129
G01 X22.5532 Y39.0090
G01 X22.5486 Y39.0056
G01 X22.5352 Y38.9939
G01 X22.5119 Y38.9684
G01 X22.4774 Y38.9213
G01 X22.3187 Y38.7626
G01 X22.1372 Y38.6307
G01 X21.9374 Y38.5288
G01 X21.7238 Y38.4595
G01 X21.5022 Y38.4243
G01 X21.2778 Y38.4243
G01 X21.0562 Y38.4595
G01 X20.8427 Y38.5288
G01 X20.6428 Y38.6307
G01 X20.4613 Y38.7626
G01 X20.3026 Y38.9213
G01 X20.2869 Y38.9423
G01 X20.2586 Y38.9714
G01 X20.2519 Y38.9773
G01 X20.2366 Y38.9889
G01 X20.2305 Y38.9925
G01 X20.2240 Y38.9956
G01 X20.1538 Y39.0229
G01 X20.1466 Y39.0248
G01 X20.1411 Y39.0259
G01 X20.1300 Y39.0267
G01 X20.1226 Y39.0263
G01 X20.1171 Y39.0255
G01 X20.0415 Y39.0101
G01 X20.0347 Y39.0078
G01 X20.0282 Y39.0049
G01 X20.0172 Y38.9990
G01 X20.0109 Y38.9948
G01 X19.9598 Y38.9506
G01 X19.9536 Y38.9434
G01 X19.9374 Y38.9213
G01 X19.7787 Y38.7626
G01 X19.5972 Y38.6307
G01 X19.3974 Y38.5288
G01 X19.1838 Y38.4595
G01 X18.9622 Y38.4243
G01 X18.7378 Y38.4243
G01 X18.5162 Y38.4595
G01 X18.3027 Y38.5288
G01 X18.1028 Y38.6307
G01 X17.9213 Y38.7626
G01 X17.7626 Y38.9213
G01 X17.7469 Y38.9423
G01 X17.7199 Y38.9702
G01 X17.7133 Y38.9762
G01 X17.6980 Y38.9879
G01 X17.6905 Y38.9925
G01 X17.6840 Y38.9956
G01 X17.6120 Y39.0234
G01 X17.6048 Y39.0252
G01 X17.5956 Y39.0265
G01 X17.5863 Y39.0266
G01 X17.5771 Y39.0255
G01 X17.5050 Y39.0109
G01 X17.4981 Y39.0090
G01 X17.4898 Y39.0057
G01 X17.4772 Y38.9990
G01 X17.4694 Y38.9937
G01 X17.4240 Y38.9545
G01 X17.4198 Y38.9506
G01 X17.4147 Y38.9449
G01 X17.3974 Y38.9213
G01 X17.2387 Y38.7626
G01 X17.0806 Y38.6477
G01 X17.0739 Y38.6418
G01 X17.0473 Y38.6160
G01 X17.0426 Y38.6107
G01 X17.0279 Y38.5916
G01 X17.0212 Y38.5813
G01 X16.9945 Y38.5221
G01 X16.9915 Y38.5138
G01 X16.9899 Y38.5069
G01 X16.9885 Y38.4991
G01 X16.9874 Y38.4890
G01 X16.9857 Y38.4658
G01 X16.9857 Y25.0701
G01 X16.9862 Y25.0612
G01 X16.9917 Y25.0227
G01 X16.9932 Y25.0157
G01 X17.0017 Y24.9870
G01 X17.0059 Y24.9766
G01 X17.0408 Y24.9173
G01 X17.0463 Y24.9098
G01 X17.0513 Y24.9042
G01 X19.4743 Y22.4812
G01 X19.4824 Y22.4742
G01 X19.4898 Y22.4693
G01 X19.5527 Y22.4349
G01 X19.5592 Y22.4318
G01 X19.5661 Y22.4292
G01 X19.5731 Y22.4274
G01 X19.5821 Y22.4261
G01 X19.5893 Y22.4258
G01 X19.6615 Y22.4299
G01 X19.6688 Y22.4309
G01 X19.6778 Y22.4332
G01 X20.6471 Y22.7663
G01 X20.6968 Y22.7779
G01 X20.7453 Y22.7935
G01 X20.7521 Y22.7953
G01 X20.7817 Y22.8059
G01 X20.7933 Y22.8113
G01 X20.7995 Y22.8148
G01 X20.8068 Y22.8200
G01 X20.8137 Y22.8260
G01 X20.8254 Y22.8318
G01 X20.8316 Y22.8359
G01 X20.8360 Y22.8393
G01 X20.8415 Y22.8444
G01 X20.8464 Y22.8500
G01 X20.8553 Y22.8631
G01 X20.8656 Y22.8726
G01 X20.8705 Y22.8782
G01 X20.8738 Y22.8827
G01 X20.8768 Y22.8875
G01 X20.8801 Y22.8941
G01 X20.8828 Y22.9010
G01 X20.8854 Y22.9100
G01 X20.8922 Y22.9212
G01 X20.8945 Y22.9263
G01 X20.8971 Y22.9333
G01 X20.8989 Y22.9405
G01 X20.9000 Y22.9478
G01 X20.9004 Y22.9637
G01 X20.9039 Y22.9773
G01 X20.9053 Y22.9884
G01 X20.9053 Y22.9958
G01 X20.9048 Y23.0014
G01 X20.9030 Y23.0105
G01 X20.9004 Y23.0195
G01 X20.9000 Y23.0325
G01 X20.8992 Y23.0381
G01 X20.8976 Y23.0453
G01 X20.8952 Y23.0524
G01 X20.8922 Y23.0591
G01 X20.8839 Y23.0727
G01 X20.8802 Y23.0843
G01 X20.8774 Y23.0911
G01 X20.8729 Y23.0991
G01 X20.8675 Y23.1065
G01 X20.8612 Y23.1132
G01 X20.8537 Y23.1197
G01 X20.8486 Y23.1275
G01 X20.8426 Y23.1348
G01 X20.8386 Y23.1388
G01 X20.8329 Y23.1436
G01 X20.7955 Y23.1678
G01 X20.7891 Y23.1711
G01 X20.7790 Y23.1755
G01 X20.7621 Y23.1808
G01 X20.7525 Y23.1846
G01 X20.7453 Y23.1865
G01 X20.5779 Y23.2409
G01 X20.4237 Y23.3195
G01 X20.2836 Y23.4212
G01 X20.1612 Y23.5436
G01 X20.0595 Y23.6837
G01 X19.9809 Y23.8379
G01 X19.9274 Y24.0025
G01 X19.9003 Y24.1735
G01 X19.9003 Y24.3466
G01 X19.9274 Y24.5175
G01 X19.9809 Y24.6821
G01 X20.0073 Y24.7339
G01 X20.0595 Y24.8363
G01 X20.1612 Y24.9764
G01 X20.2836 Y25.0988
G01 X20.4237 Y25.2005
G01 X20.5779 Y25.2791
G01 X20.7453 Y25.3335
G01 X20.7533 Y25.3358
G01 X20.7600 Y25.3384
G01 X20.7655 Y25.3412
G01 X20.7750 Y25.3435
G01 X20.7836 Y25.3467
G01 X20.7949 Y25.3521
G01 X20.8039 Y25.3578
G01 X20.8225 Y25.3739
G01 X20.8331 Y25.3804
G01 X20.8417 Y25.3876
G01 X20.8480 Y25.3944
G01 X20.8524 Y25.4005
G01 X20.8630 Y25.4100
G01 X20.8682 Y25.4154
G01 X20.8728 Y25.4212
G01 X20.8768 Y25.4275
G01 X20.8809 Y25.4358
G01 X20.8839 Y25.4446
G01 X20.9031 Y25.5137
G01 X20.9046 Y25.5210
G01 X20.9054 Y25.5302
G01 X20.9048 Y25.5414
G01 X20.9026 Y25.5523
G01 X20.8812 Y25.6215
G01 X20.8786 Y25.6283
G01 X20.8755 Y25.6348
G01 X20.8707 Y25.6424
G01 X20.8637 Y25.6507
G01 X20.8585 Y25.6556
G01 X20.8358 Y25.6750
G01 X20.8271 Y25.6854
G01 X20.8231 Y25.6893
G01 X20.8174 Y25.6940
G01 X20.8112 Y25.6981
G01 X20.8048 Y25.7014
G01 X20.7991 Y25.7056
G01 X20.7942 Y25.7085
G01 X20.7838 Y25.7135
G01 X20.7774 Y25.7161
G01 X20.7621 Y25.7208
G01 X20.7525 Y25.7246
G01 X20.7453 Y25.7265
G01 X20.5779 Y25.7809
G01 X20.4237 Y25.8595
G01 X20.2836 Y25.9612
G01 X20.1612 Y26.0836
G01 X20.0595 Y26.2237
G01 X19.9809 Y26.3779
G01 X19.9274 Y26.5425
G01 X19.9003 Y26.7135
G01 X19.9003 Y26.8866
G01 X19.9274 Y27.0575
G01 X19.9809 Y27.2221
G01 X20.0160 Y27.2910
G01 X20.0595 Y27.3763
G01 X20.1612 Y27.5164
G01 X20.2836 Y27.6388
G01 X20.4237 Y27.7405
G01 X20.5779 Y27.8191
G01 X20.7453 Y27.8735
G01 X20.7533 Y27.8758
G01 X20.7600 Y27.8784
G01 X20.7655 Y27.8812
G01 X20.7750 Y27.8835
G01 X20.7836 Y27.8867
G01 X20.7949 Y27.8921
G01 X20.8039 Y27.8978
G01 X20.8225 Y27.9139
G01 X20.8331 Y27.9204
G01 X20.8417 Y27.9276
G01 X20.8480 Y27.9344
G01 X20.8524 Y27.9405
G01 X20.8630 Y27.9500
G01 X20.8682 Y27.9554
G01 X20.8728 Y27.9612
G01 X20.8768 Y27.9675
G01 X20.8809 Y27.9758
G01 X20.8839 Y27.9846
G01 X20.9031 Y28.0537
G01 X20.9046 Y28.0610
G01 X20.9054 Y28.0702
G01 X20.9048 Y28.0814
G01 X20.9026 Y28.0923
G01 X20.8812 Y28.1615
G01 X20.8786 Y28.1683
G01 X20.8755 Y28.1748
G01 X20.8707 Y28.1824
G01 X20.8637 Y28.1907
G01 X20.8585 Y28.1956
G01 X20.8358 Y28.2150
G01 X20.8271 Y28.2254
G01 X20.8231 Y28.2293
G01 X20.8174 Y28.2340
G01 X20.8112 Y28.2381
G01 X20.8048 Y28.2414
G01 X20.7991 Y28.2456
G01 X20.7942 Y28.2485
G01 X20.7838 Y28.2535
G01 X20.7774 Y28.2561
G01 X20.7621 Y28.2608
G01 X20.7525 Y28.2646
G01 X20.7453 Y28.2665
G01 X20.5779 Y28.3209
G01 X20.4237 Y28.3995
G01 X20.2836 Y28.5012
G01 X20.1612 Y28.6236
G01 X20.0595 Y28.7637
G01 X19.9809 Y28.9179
G01 X19.9274 Y29.0825
G01 X19.9003 Y29.2535
G01 X19.9003 Y29.4266
G01 X19.9274 Y29.5975
G01 X19.9809 Y29.7621
G01 X20.0595 Y29.9163
G01 X20.1612 Y30.0564
G01 X20.2836 Y30.1788
G01 X20.4237 Y30.2805
G01 X20.5779 Y30.3591
G01 X20.7453 Y30.4135
G01 X20.7516 Y30.4152
G01 X20.7583 Y30.4177
G01 X20.7655 Y30.4212
G01 X20.7750 Y30.4235
G01 X20.7836 Y30.4267
G01 X20.7949 Y30.4321
G01 X20.8025 Y30.4368
G01 X20.8081 Y30.4411
G01 X20.8225 Y30.4539
G01 X20.8316 Y30.4594
G01 X20.8376 Y30.4639
G01 X20.8456 Y30.4716
G01 X20.8524 Y30.4805
G01 X20.8630 Y30.4900
G01 X20.8682 Y30.4954
G01 X20.8738 Y30.5028
G01 X20.8794 Y30.5124
G01 X20.8834 Y30.5228
G01 X20.9026 Y30.5919
G01 X20.9046 Y30.6010
G01 X20.9053 Y30.6084
G01 X20.9053 Y30.6140
G01 X20.9048 Y30.6214
G01 X20.9026 Y30.6323
G01 X20.8812 Y30.7015
G01 X20.8786 Y30.7083
G01 X20.8755 Y30.7148
G01 X20.8696 Y30.7238
G01 X20.8625 Y30.7320
G01 X20.8358 Y30.7550
G01 X20.8296 Y30.7627
G01 X20.8258 Y30.7668
G01 X20.8203 Y30.7717
G01 X20.8158 Y30.7751
G01 X20.8112 Y30.7781
G01 X20.8048 Y30.7814
G01 X20.7991 Y30.7856
G01 X20.7942 Y30.7885
G01 X20.7838 Y30.7935
G01 X20.7774 Y30.7961
G01 X20.7621 Y30.8008
G01 X20.7525 Y30.8046
G01 X20.7453 Y30.8065
G01 X20.5779 Y30.8609
G01 X20.4237 Y30.9395
G01 X20.2836 Y31.0412
G01 X20.1612 Y31.1636
G01 X20.0595 Y31.3037
G01 X19.9809 Y31.4579
G01 X19.9274 Y31.6225
G01 X19.9003 Y31.7935
G01 X19.9003 Y31.9666
G01 X19.9274 Y32.1375
G01 X19.9809 Y32.3021
G01 X20.0595 Y32.4563
G01 X20.1612 Y32.5964
G01 X20.2836 Y32.7188
G01 X20.4237 Y32.8205
G01 X20.4708 Y32.8446
G01 X20.4883 Y32.8550
G01 X20.5089 Y32.8690
G01 X21.5060 Y33.3560
G01 X21.5151 Y33.3616
G01 X21.5525 Y33.3885
G01 X21.5578 Y33.3933
G01 X23.6893 Y35.5248
G01 X23.8000 Y35.5988
G01 X23.9229 Y35.6497
G01 X24.0535 Y35.6757
G01 X26.6077 Y35.6757
G01 X26.6166 Y35.6762
G01 X26.6568 Y35.6820
G01 X26.6787 Y35.6881
G01 X26.6871 Y35.6911
G01 X26.6966 Y35.6960
G01 X26.7584 Y35.7357
G01 X26.7672 Y35.7428
G01 X26.7741 Y35.7500
G01 X26.7787 Y35.7559
G01 X26.7836 Y35.7639
G01 X26.8128 Y35.8221
G01 X26.8168 Y35.8326
G01 X26.8202 Y35.8475
G01 X26.8239 Y35.8798
G01 X26.8243 Y35.8878
G01 X26.8243 Y36.4712
G01 X26.8336 Y36.5620
G01 X26.8835 Y36.7125
G01 X26.9664 Y36.8469
G01 X27.0781 Y36.9586
G01 X27.2125 Y37.0415
G01 X27.3629 Y37.0914
G01 X27.4538 Y37.1007
G01 X28.4462 Y37.1007
G01 X28.5370 Y37.0914
G01 X28.6875 Y37.0415
G01 X28.8219 Y36.9586
G01 X28.9336 Y36.8469
G01 X28.9488 Y36.8224
G01 X28.9530 Y36.8168
G01 X28.9583 Y36.8111
G01 X28.9612 Y36.8061
G01 X28.9654 Y36.8002
G01 X28.9701 Y36.7948
G01 X28.9804 Y36.7845
G01 X28.9929 Y36.7732
G01 X29.0015 Y36.7668
G01 X29.0232 Y36.7535
G01 X29.0295 Y36.7502
G01 X29.0378 Y36.7470
G01 X29.0468 Y36.7445
G01 X29.0723 Y36.7323
G01 X29.0791 Y36.7294
G01 X29.0880 Y36.7268
G01 X29.0972 Y36.7253
G01 X29.1065 Y36.7250
G01 X29.1175 Y36.7260
G01 X29.1271 Y36.7252
G01 X29.1363 Y36.7256
G01 X29.1455 Y36.7272
G01 X29.1583 Y36.7311
G01 X29.1851 Y36.7344
G01 X29.1924 Y36.7359
G01 X29.2012 Y36.7387
G01 X29.2096 Y36.7427
G01 X29.2160 Y36.7465
G01 X29.2229 Y36.7518
G01 X29.2311 Y36.7557
G01 X29.2389 Y36.7607
G01 X29.2433 Y36.7642
G01 X29.2487 Y36.7693
G01 X29.2605 Y36.7832
G01 X29.2808 Y36.8005
G01 X29.2866 Y36.8072
G01 X29.2916 Y36.8144
G01 X29.2961 Y36.8224
G01 X29.2993 Y36.8301
G01 X29.3044 Y36.8379
G01 X29.3092 Y36.8480
G01 X29.3120 Y36.8568
G01 X29.3139 Y36.8678
G01 X29.3190 Y36.8812
G01 X29.3214 Y36.8900
G01 X29.3227 Y36.8998
G01 X29.3243 Y36.9240
G01 X29.3243 Y52.0721
G01 X29.3236 Y52.0792
G01 X29.3180 Y52.1176
G01 X29.3126 Y52.1371
G01 X29.3094 Y52.1454
G01 X29.3043 Y52.1548
G01 X29.2997 Y52.1656
G01 X29.2960 Y52.1720
G01 X29.2917 Y52.1780
G01 X29.2827 Y52.1884
G01 X29.2633 Y52.2181
G01 X29.2585 Y52.2239
G01 X29.2546 Y52.2278
G01 X29.2459 Y52.2348
G01 X29.2412 Y52.2378
G01 X29.2352 Y52.2409
G01 X29.2291 Y52.2455
G01 X29.2211 Y52.2503
G01 X29.2109 Y52.2546
G01 X29.1954 Y52.2591
G01 X29.1711 Y52.2702
G01 X29.1642 Y52.2730
G01 X29.1534 Y52.2758
G01 X29.1442 Y52.2769
G01 X29.1321 Y52.2766
G01 X29.1255 Y52.2774
G01 X29.1181 Y52.2776
G01 X29.1070 Y52.2765
G01 X29.0997 Y52.2749
G01 X29.0814 Y52.2693
G01 X29.0567 Y52.2657
G01 X29.0463 Y52.2629
G01 X29.0397 Y52.2603
G01 X29.0334 Y52.2572
G01 X29.0252 Y52.2520
G01 X29.0155 Y52.2473
G01 X29.0077 Y52.2421
G01 X28.9755 Y52.2140
G01 X28.9690 Y52.2071
G01 X28.9523 Y52.1843
G01 X28.9332 Y52.1534
G01 X28.8216 Y52.0418
G01 X28.6873 Y51.9589
G01 X28.5369 Y51.9091
G01 X28.4462 Y51.8999
G01 X28.2749 Y51.8999
G01 X28.2749 Y52.2502
G01 X28.4018 Y52.2502
G01 X28.4318 Y52.2517
G01 X28.4616 Y52.2561
G01 X28.4943 Y52.2641
G01 X28.5243 Y52.2749
G01 X28.5531 Y52.2885
G01 X28.5789 Y52.3039
G01 X28.6061 Y52.3239
G01 X28.6297 Y52.3453
G01 X28.6511 Y52.3689
G01 X28.6680 Y52.3915
G01 X28.6721 Y52.3976
G01 X28.6847 Y52.4187
G01 X28.6881 Y52.4251
G01 X28.7001 Y52.4507
G01 X28.7097 Y52.4772
G01 X28.7118 Y52.4842
G01 X28.7186 Y52.5116
G01 X28.7231 Y52.5413
G01 X28.7248 Y52.5750
G01 X28.7248 Y55.4250
G01 X28.7233 Y55.4568
G01 X28.7192 Y55.4848
G01 X28.7178 Y55.4920
G01 X28.7109 Y55.5193
G01 X28.7014 Y55.5459
G01 X28.6986 Y55.5527
G01 X28.6865 Y55.5781
G01 X28.6701 Y55.6055
G01 X28.6534 Y55.6282
G01 X28.6487 Y55.6339
G01 X28.6297 Y55.6547
G01 X28.6089 Y55.6737
G01 X28.6032 Y55.6784
G01 X28.5820 Y55.6941
G01 X28.5531 Y55.7115
G01 X28.5243 Y55.7251
G01 X28.4943 Y55.7359
G01 X28.4616 Y55.7439
G01 X28.4318 Y55.7483
G01 X28.4018 Y55.7498
G01 X28.2748 Y55.7498
G01 X28.2748 Y56.1002
G01 X28.4462 Y56.1002
G01 X28.5369 Y56.0909
G01 X28.6873 Y56.0411
G01 X28.8216 Y55.9582
G01 X28.9332 Y55.8466
G01 X28.9488 Y55.8215
G01 X28.9530 Y55.8159
G01 X28.9583 Y55.8102
G01 X28.9622 Y55.8036
G01 X28.9665 Y55.7979
G01 X28.9818 Y55.7823
G01 X28.9957 Y55.7700
G01 X29.0015 Y55.7659
G01 X29.0217 Y55.7535
G01 X29.0295 Y55.7493
G01 X29.0378 Y55.7461
G01 X29.0469 Y55.7435
G01 X29.0774 Y55.7291
G01 X29.0844 Y55.7268
G01 X29.0899 Y55.7255
G01 X29.0954 Y55.7246
G01 X29.1028 Y55.7240
G01 X29.1102 Y55.7242
G01 X29.1175 Y55.7250
G01 X29.1252 Y55.7243
G01 X29.1345 Y55.7245
G01 X29.1455 Y55.7263
G01 X29.1583 Y55.7301
G01 X29.1832 Y55.7332
G01 X29.1906 Y55.7345
G01 X29.1995 Y55.7371
G01 X29.2080 Y55.7408
G01 X29.2160 Y55.7456
G01 X29.2229 Y55.7509
G01 X29.2311 Y55.7548
G01 X29.2374 Y55.7587
G01 X29.2433 Y55.7632
G01 X29.2487 Y55.7683
G01 X29.2606 Y55.7823
G01 X29.2808 Y55.7996
G01 X29.2867 Y55.8063
G01 X29.2917 Y55.8135
G01 X29.2961 Y55.8215
G01 X29.2993 Y55.8291
G01 X29.3044 Y55.8370
G01 X29.3092 Y55.8470
G01 X29.3120 Y55.8559
G01 X29.3139 Y55.8669
G01 X29.3190 Y55.8803
G01 X29.3214 Y55.8890
G01 X29.3227 Y55.8989
G01 X29.3243 Y55.9231
G01 X29.3243 Y67.6235
G01 X29.3236 Y67.6306
G01 X29.3176 Y67.6708
G01 X29.3089 Y67.7012
G01 X29.3064 Y67.7083
G01 X29.3014 Y67.7183
G01 X29.2701 Y67.7711
G01 X29.2649 Y67.7788
G01 X29.2600 Y67.7844
G01 X27.7910 Y69.2535
G01 X27.7843 Y69.2594
G01 X27.7518 Y69.2837
G01 X27.7457 Y69.2874
G01 X27.7209 Y69.3009
G01 X27.7141 Y69.3040
G01 X27.7070 Y69.3064
G01 X27.6458 Y69.3220
G01 X27.6366 Y69.3238
G01 X27.6273 Y69.3243
G01 X15.3765 Y69.3243
G01 X15.3694 Y69.3236
G01 X15.3292 Y69.3176
G01 X15.2988 Y69.3089
G01 X15.2917 Y69.3064
G01 X15.2817 Y69.3014
G01 X15.2289 Y69.2701
G01 X15.2227 Y69.2660
G01 X15.2169 Y69.2613
G01 X14.5165 Y68.5610
G01 X14.5106 Y68.5543
G01 X14.4853 Y68.5203
G01 X14.4700 Y68.4926
G01 X14.4667 Y68.4859
G01 X14.4631 Y68.4752
G01 X14.4480 Y68.4158
G01 X14.4465 Y68.4085
G01 X14.4457 Y68.4010
G01 X14.4457 Y67.5387
G01 X14.4464 Y67.5298
G01 X14.4520 Y67.4914
G01 X14.4537 Y67.4844
G01 X14.4605 Y67.4614
G01 X14.4630 Y67.4548
G01 X14.4660 Y67.4484
G01 X14.4966 Y67.3952
G01 X14.5027 Y67.3865
G01 X14.5117 Y67.3768
G01 X14.5356 Y67.3560
G01 X14.6987 Y67.2374
G01 X14.8574 Y67.0788
G01 X14.8730 Y67.0579
G01 X14.9001 Y67.0298
G01 X14.9053 Y67.0250
G01 X14.9220 Y67.0121
G01 X14.9280 Y67.0083
G01 X14.9344 Y67.0051
G01 X15.0045 Y66.9778
G01 X15.0134 Y66.9752
G01 X15.0226 Y66.9737
G01 X15.0337 Y66.9734
G01 X15.0429 Y66.9745
G01 X15.1167 Y66.9895
G01 X15.1236 Y66.9916
G01 X15.1303 Y66.9943
G01 X15.1411 Y67.0000
G01 X15.1491 Y67.0052
G01 X15.2002 Y67.0494
G01 X15.2064 Y67.0566
G01 X15.2226 Y67.0787
G01 X15.3812 Y67.2374
G01 X15.5628 Y67.3693
G01 X15.7627 Y67.4712
G01 X15.9762 Y67.5405
G01 X16.1978 Y67.5757
G01 X16.4222 Y67.5757
G01 X16.6438 Y67.5405
G01 X16.8573 Y67.4712
G01 X17.0572 Y67.3693
G01 X17.2316 Y67.2426
G01 X17.2373 Y67.2388
G01 X17.3974 Y67.0788
G01 X17.4095 Y67.0622
G01 X17.4142 Y67.0565
G01 X17.4414 Y67.0286
G01 X17.4481 Y67.0227
G01 X17.4634 Y67.0111
G01 X17.4696 Y67.0075
G01 X17.4760 Y67.0044
G01 X17.5462 Y66.9772
G01 X17.5570 Y66.9744
G01 X17.5644 Y66.9735
G01 X17.5700 Y66.9733
G01 X17.5756 Y66.9735
G01 X17.5829 Y66.9745
G01 X17.6585 Y66.9899
G01 X17.6653 Y66.9922
G01 X17.6719 Y66.9951
G01 X17.6828 Y67.0010
G01 X17.6891 Y67.0052
G01 X17.7402 Y67.0494
G01 X17.7464 Y67.0566
G01 X17.7626 Y67.0787
G01 X17.9212 Y67.2374
G01 X18.1028 Y67.3693
G01 X18.3027 Y67.4712
G01 X18.5162 Y67.5405
G01 X18.7378 Y67.5757
G01 X18.9622 Y67.5757
G01 X19.1838 Y67.5405
G01 X19.3973 Y67.4712
G01 X19.5972 Y67.3693
G01 X19.7716 Y67.2426
G01 X19.7773 Y67.2388
G01 X19.9374 Y67.0788
G01 X19.9495 Y67.0622
G01 X19.9542 Y67.0565
G01 X19.9814 Y67.0286
G01 X19.9881 Y67.0227
G01 X20.0034 Y67.0111
G01 X20.0096 Y67.0075
G01 X20.0160 Y67.0044
G01 X20.0862 Y66.9772
G01 X20.0934 Y66.9752
G01 X20.0989 Y66.9741
G01 X20.1100 Y66.9733
G01 X20.1156 Y66.9735
G01 X20.1229 Y66.9745
G01 X20.1985 Y66.9899
G01 X20.2053 Y66.9922
G01 X20.2119 Y66.9951
G01 X20.2228 Y67.0010
G01 X20.2291 Y67.0052
G01 X20.2802 Y67.0494
G01 X20.2864 Y67.0566
G01 X20.3026 Y67.0787
G01 X20.4612 Y67.2374
G01 X20.6428 Y67.3693
G01 X20.8427 Y67.4712
G01 X21.0562 Y67.5405
G01 X21.2778 Y67.5757
G01 X21.5022 Y67.5757
G01 X21.7238 Y67.5405
G01 X21.9373 Y67.4712
G01 X22.1372 Y67.3693
G01 X22.3116 Y67.2426
G01 X22.3173 Y67.2388
G01 X22.4774 Y67.0788
G01 X22.4895 Y67.0622
G01 X22.4942 Y67.0565
G01 X22.5214 Y67.0286
G01 X22.5281 Y67.0227
G01 X22.5434 Y67.0111
G01 X22.5496 Y67.0075
G01 X22.5560 Y67.0044
G01 X22.6262 Y66.9772
G01 X22.6370 Y66.9744
G01 X22.6481 Y66.9733
G01 X22.6556 Y66.9735
G01 X22.6629 Y66.9745
G01 X22.7367 Y66.9895
G01 X22.7436 Y66.9916
G01 X22.7503 Y66.9943
G01 X22.7611 Y67.0000
G01 X22.7660 Y67.0030
G01 X22.7736 Y67.0087
G01 X22.8202 Y67.0494
G01 X22.8264 Y67.0566
G01 X22.8426 Y67.0787
G01 X23.0012 Y67.2374
G01 X23.1828 Y67.3693
G01 X23.3827 Y67.4712
G01 X23.5962 Y67.5405
G01 X23.8178 Y67.5757
G01 X24.0422 Y67.5757
G01 X24.2638 Y67.5405
G01 X24.4773 Y67.4712
G01 X24.6772 Y67.3693
G01 X24.8516 Y67.2426
G01 X24.8573 Y67.2388
G01 X25.0188 Y67.0773
G01 X25.0226 Y67.0716
G01 X25.1493 Y66.8972
G01 X25.2512 Y66.6973
G01 X25.3205 Y66.4838
G01 X25.3557 Y66.2622
G01 X25.3557 Y66.0378
G01 X25.3205 Y65.8162
G01 X25.2512 Y65.6027
G01 X25.1493 Y65.4028
G01 X25.0174 Y65.2213
G01 X24.8587 Y65.0626
G01 X24.6772 Y64.9307
G01 X24.4774 Y64.8288
G01 X24.2638 Y64.7595
G01 X24.0422 Y64.7243
G01 X23.8178 Y64.7243
G01 X23.5962 Y64.7595
G01 X23.3827 Y64.8288
G01 X23.1828 Y64.9307
G01 X23.0013 Y65.0626
G01 X22.8426 Y65.2213
G01 X22.8269 Y65.2423
G01 X22.7986 Y65.2714
G01 X22.7919 Y65.2773
G01 X22.7766 Y65.2889
G01 X22.7705 Y65.2925
G01 X22.7640 Y65.2956
G01 X22.6938 Y65.3229
G01 X22.6830 Y65.3256
G01 X22.6719 Y65.3267
G01 X22.6644 Y65.3265
G01 X22.6571 Y65.3255
G01 X22.5833 Y65.3105
G01 X22.5764 Y65.3084
G01 X22.5698 Y65.3057
G01 X22.5589 Y65.3000
G01 X22.5509 Y65.2948
G01 X22.4998 Y65.2506
G01 X22.4936 Y65.2434
G01 X22.4774 Y65.2213
G01 X22.3187 Y65.0626
G01 X22.1372 Y64.9307
G01 X21.9374 Y64.8288
G01 X21.7238 Y64.7595
G01 X21.5022 Y64.7243
G01 X21.2778 Y64.7243
G01 X21.0562 Y64.7595
G01 X20.8427 Y64.8288
G01 X20.6428 Y64.9307
G01 X20.4613 Y65.0626
G01 X20.3026 Y65.2213
G01 X20.2869 Y65.2423
G01 X20.2586 Y65.2714
G01 X20.2519 Y65.2773
G01 X20.2366 Y65.2889
G01 X20.2305 Y65.2925
G01 X20.2240 Y65.2956
G01 X20.1538 Y65.3229
G01 X20.1430 Y65.3256
G01 X20.1337 Y65.3266
G01 X20.1244 Y65.3265
G01 X20.1171 Y65.3255
G01 X20.0433 Y65.3105
G01 X20.0364 Y65.3084
G01 X20.0298 Y65.3057
G01 X20.0189 Y65.3000
G01 X20.0109 Y65.2948
G01 X19.9598 Y65.2506
G01 X19.9536 Y65.2434
G01 X19.9374 Y65.2213
G01 X19.7787 Y65.0626
G01 X19.5972 Y64.9307
G01 X19.3974 Y64.8288
G01 X19.1838 Y64.7595
G01 X18.9622 Y64.7243
G01 X18.7378 Y64.7243
G01 X18.5162 Y64.7595
G01 X18.3027 Y64.8288
G01 X18.1028 Y64.9307
G01 X17.9213 Y65.0626
G01 X17.7626 Y65.2213
G01 X17.7469 Y65.2423
G01 X17.7186 Y65.2714
G01 X17.7119 Y65.2773
G01 X17.6966 Y65.2889
G01 X17.6905 Y65.2925
G01 X17.6840 Y65.2956
G01 X17.6155 Y65.3222
G01 X17.6066 Y65.3248
G01 X17.5974 Y65.3263
G01 X17.5863 Y65.3266
G01 X17.5771 Y65.3255
G01 X17.5033 Y65.3105
G01 X17.4964 Y65.3084
G01 X17.4898 Y65.3057
G01 X17.4789 Y65.3000
G01 X17.4709 Y65.2948
G01 X17.4198 Y65.2506
G01 X17.4136 Y65.2434
G01 X17.3974 Y65.2213
G01 X17.2387 Y65.0626
G01 X17.0806 Y64.9477
G01 X17.0739 Y64.9418
G01 X17.0449 Y64.9134
G01 X17.0268 Y64.8902
G01 X17.0212 Y64.8813
G01 X16.9938 Y64.8205
G01 X16.9911 Y64.8121
G01 X16.9888 Y64.8008
G01 X16.9857 Y64.7676
G01 X16.9857 Y58.2754
G01 X16.9864 Y58.2648
G01 X16.9888 Y58.2541
G01 X16.9597 Y58.1079
G01 X16.9088 Y57.9850
G01 X16.8348 Y57.8743
G01 X15.2465 Y56.2860
G01 X15.2395 Y56.2779
G01 X15.2173 Y56.2482
G01 X15.2135 Y56.2422
G01 X15.1991 Y56.2159
G01 X15.1960 Y56.2091
G01 X15.1942 Y56.2038
G01 X15.1775 Y56.1390
G01 X15.1762 Y56.1316
G01 X15.1757 Y56.1242
G01 X15.1757 Y54.5738
G01 X15.1664 Y54.4829
G01 X15.1165 Y54.3325
G01 X15.0336 Y54.1981
G01 X14.9219 Y54.0864
G01 X14.7875 Y54.0035
G01 X14.6370 Y53.9536
G01 X14.5462 Y53.9443
G01 X13.5538 Y53.9443
G01 X13.4630 Y53.9536
G01 X13.3125 Y54.0035
G01 X13.1781 Y54.0864
G01 X13.0664 Y54.1981
G01 X12.9835 Y54.3325
G01 X12.9336 Y54.4830
G01 X12.9243 Y54.5738
G01 X12.9243 Y57.5162
G01 X12.9336 Y57.6070
G01 X12.9835 Y57.7575
G01 X13.0664 Y57.8919
G01 X13.1781 Y58.0036
G01 X13.3125 Y58.0865
G01 X13.4629 Y58.1364
G01 X13.5538 Y58.1457
G01 X14.5462 Y58.1457
G01 X14.6370 Y58.1364
G01 X14.7875 Y58.0865
G01 X14.8541 Y58.0455
G01 X14.8603 Y58.0420
G01 X14.8992 Y58.0251
G01 X14.9210 Y58.0188
G01 X14.9297 Y58.0169
G01 X14.9404 Y58.0161
G01 X15.0138 Y58.0175
G01 X15.0208 Y58.0181
G01 X15.0261 Y58.0190
G01 X15.0425 Y58.0239
G01 X15.0476 Y58.0258
G01 X15.0541 Y58.0289
G01 X15.1093 Y58.0623
G01 X15.1152 Y58.0664
G01 X15.1206 Y58.0712
G01 X15.5647 Y58.5153
G01 X15.5705 Y58.5221
G01 X15.5947 Y58.5547
G01 X15.6109 Y58.5841
G01 X15.6146 Y58.5926
G01 X15.6169 Y58.5998
G01 X15.6325 Y58.6610
G01 X15.6338 Y58.6684
G01 X15.6343 Y58.6777
G01 X15.6343 Y64.7595
G01 X15.6336 Y64.7702
G01 X15.6286 Y64.8051
G01 X15.6272 Y64.8121
G01 X15.6189 Y64.8403
G01 X15.6163 Y64.8468
G01 X15.6131 Y64.8531
G01 X15.5815 Y64.9078
G01 X15.5738 Y64.9175
G01 X15.5683 Y64.9232
G01 X15.5607 Y64.9300
G01 X15.5430 Y64.9450
G01 X15.3813 Y65.0626
G01 X15.2226 Y65.2213
G01 X15.2069 Y65.2423
G01 X15.1786 Y65.2714
G01 X15.1719 Y65.2773
G01 X15.1566 Y65.2889
G01 X15.1505 Y65.2925
G01 X15.1440 Y65.2956
G01 X15.0738 Y65.3229
G01 X15.0630 Y65.3256
G01 X15.0519 Y65.3267
G01 X15.0444 Y65.3265
G01 X15.0371 Y65.3255
G01 X14.9633 Y65.3105
G01 X14.9564 Y65.3084
G01 X14.9498 Y65.3057
G01 X14.9389 Y65.3000
G01 X14.9309 Y65.2948
G01 X14.8798 Y65.2506
G01 X14.8736 Y65.2434
G01 X14.8574 Y65.2213
G01 X14.6987 Y65.0626
G01 X14.5172 Y64.9307
G01 X14.3174 Y64.8288
G01 X14.1038 Y64.7595
G01 X13.8822 Y64.7243
G01 X13.6578 Y64.7243
G01 X13.4362 Y64.7595
G01 X13.2227 Y64.8288
G01 X13.0228 Y64.9307
G01 X12.8413 Y65.0626
G01 X12.6826 Y65.2213
G01 X12.6669 Y65.2423
G01 X12.6386 Y65.2714
G01 X12.6319 Y65.2773
G01 X12.6166 Y65.2889
G01 X12.6105 Y65.2925
G01 X12.6040 Y65.2956
G01 X12.5355 Y65.3222
G01 X12.5266 Y65.3248
G01 X12.5174 Y65.3263
G01 X12.5063 Y65.3266
G01 X12.4971 Y65.3255
G01 X12.4233 Y65.3105
G01 X12.4164 Y65.3084
G01 X12.4098 Y65.3057
G01 X12.3989 Y65.3000
G01 X12.3909 Y65.2948
G01 X12.3398 Y65.2506
G01 X12.3336 Y65.2434
G01 X12.3174 Y65.2213
G01 X12.1587 Y65.0626
G01 X12.0006 Y64.9477
G01 X11.9952 Y64.9431
G01 X11.9686 Y64.9172
G01 X11.9626 Y64.9107
G01 X11.9468 Y64.8902
G01 X11.9412 Y64.8813
G01 X11.9138 Y64.8205
G01 X11.9106 Y64.8104
G01 X11.9085 Y64.7991
G01 X11.9060 Y64.7728
G01 X11.9057 Y64.7658
G01 X11.9057 Y48.9987
G01 X11.9060 Y48.9933
G01 X11.9071 Y48.9861
G01 X11.9191 Y48.9318
G01 X11.9210 Y48.9248
G01 X11.9236 Y48.9180
G01 X12.2411 Y48.2389
G01 X12.2842 Y48.1086
G01 X12.2872 Y48.1011
G01 X12.2907 Y48.0943
G01 X12.3007 Y47.9962
G01 X12.3007 Y47.1038
G01 X12.2914 Y47.0130
G01 X12.2415 Y46.8625
G01 X12.1586 Y46.7281
G01 X12.0469 Y46.6164
G01 X11.9125 Y46.5335
G01 X11.7620 Y46.4836
G01 X11.6712 Y46.4743
G01 X10.3288 Y46.4744
G01 X10.2380 Y46.4836
G01 X10.0875 Y46.5335
G01 X9.9531 Y46.6164
G01 X9.8414 Y46.7281
G01 X9.7585 Y46.8625
G01 X9.7086 Y47.0130
G01 X9.6993 Y47.1038
G01 X9.6994 Y47.9962
G01 X9.7086 Y48.0870
G01 X9.7585 Y48.2375
G01 X9.8414 Y48.3719
G01 X9.9531 Y48.4836
G01 X10.0875 Y48.5665
G01 X10.2380 Y48.6164
G01 X10.2538 Y48.6184
G01 X10.2638 Y48.6206
G01 X10.2722 Y48.6234
G01 X10.2787 Y48.6264
G01 X10.3018 Y48.6388
G01 X10.3261 Y48.6487
G01 X10.3342 Y48.6528
G01 X10.3431 Y48.6590
G01 X10.3595 Y48.6737
G01 X10.3656 Y48.6808
G01 X10.3712 Y48.6892
G01 X10.3817 Y48.7011
G01 X10.3873 Y48.7085
G01 X10.5267 Y48.9353
G01 X10.5300 Y48.9421
G01 X10.5326 Y48.9491
G01 X10.5515 Y49.0159
G01 X10.5535 Y49.0251
G01 X10.5543 Y49.0344
G01 X10.5543 Y64.7631
G01 X10.5536 Y64.7702
G01 X10.5486 Y64.8051
G01 X10.5472 Y64.8121
G01 X10.5389 Y64.8403
G01 X10.5363 Y64.8468
G01 X10.5327 Y64.8539
G01 X10.5290 Y64.8655
G01 X10.5258 Y64.8723
G01 X10.5220 Y64.8788
G01 X10.5005 Y64.9092
G01 X10.4962 Y64.9148
G01 X10.4883 Y64.9232
G01 X10.4644 Y64.9440
G01 X10.3013 Y65.0626
G01 X10.1426 Y65.2213
G01 X10.1108 Y65.2650
G01 X10.1000 Y65.2785
G01 X10.0936 Y65.2850
G01 X10.0641 Y65.3106
G01 X10.0594 Y65.3141
G01 X10.0449 Y65.3235
G01 X10.0355 Y65.3287
G01 X10.0289 Y65.3313
G01 X10.0196 Y65.3341
G01 X9.9808 Y65.3494
G01 X9.9754 Y65.3512
G01 X9.9680 Y65.3528
G01 X9.9538 Y65.3549
G01 X9.9440 Y65.3554
G01 X9.6438 Y65.6556
G01 X9.6830 Y65.7387
G01 X9.7174 Y65.8345
G01 X9.7195 Y65.8415
G01 X9.7434 Y65.9367
G01 X9.7448 Y65.9439
G01 X9.7597 Y66.0446
G01 X9.7648 Y66.1500
G01 X9.7597 Y66.2554
G01 X9.7448 Y66.3561
G01 X9.7434 Y66.3633
G01 X9.7195 Y66.4585
G01 X9.7174 Y66.4655
G01 X9.6830 Y66.5613
G01 X9.6438 Y66.6444
G01 X9.9440 Y66.9446
G01 X9.9777 Y66.9501
G01 X9.9926 Y66.9539
G01 X10.0010 Y66.9569
G01 X10.0075 Y66.9599
G01 X10.0706 Y66.9939
G01 X10.0797 Y67.0000
G01 X10.0866 Y67.0061
G01 X10.1062 Y67.0287
G01 X10.1426 Y67.0787
G01 X10.2366 Y67.1729
G01 X10.2423 Y67.1796
G01 X10.2653 Y67.2103
G01 X10.2690 Y67.2163
G01 X10.2805 Y67.2373
G01 X10.2848 Y67.2471
G01 X10.2868 Y67.2539
G01 X10.2931 Y67.2825
G01 X10.3016 Y67.3105
G01 X10.3038 Y67.3211
G01 X10.3043 Y67.3316
G01 X10.3043 Y71.3212
G01 X10.3399 Y71.5000
G01 X10.4097 Y71.6685
G01 X10.5110 Y71.8201
G01 X14.3484 Y75.6575
G01 X14.5000 Y75.7588
G01 X14.6685 Y75.8286
G01 X14.8473 Y75.8642
G01 X33.5934 Y75.8642
G01 X33.6011 Y75.8648
G01 X33.6068 Y75.8657
G01 X33.6641 Y75.8792
G01 X33.6715 Y75.8814
G01 X33.6786 Y75.8843
G01 X34.2145 Y76.1522
G01 X34.2192 Y76.1548
G01 X34.2251 Y76.1587
G01 X34.2341 Y76.1663
G01 X34.2450 Y76.1719
G01 X34.2512 Y76.1760
G01 X34.2555 Y76.1796
G01 X34.2596 Y76.1834
G01 X34.2645 Y76.1889
G01 X34.2750 Y76.2043
G01 X34.2871 Y76.2159
G01 X34.2919 Y76.2216
G01 X34.2951 Y76.2263
G01 X34.2980 Y76.2311
G01 X34.3012 Y76.2378
G01 X34.3032 Y76.2431
G01 X34.3055 Y76.2513
G01 X34.3098 Y76.2581
G01 X34.3130 Y76.2646
G01 X34.3149 Y76.2696
G01 X34.3170 Y76.2764
G01 X34.3184 Y76.2835
G01 X34.3235 Y76.3180
G01 X34.3243 Y76.3252
G01 X34.3244 Y76.4824
G01 X34.3294 Y76.5286
G01 X34.3726 Y76.6446
G01 X34.4460 Y76.7426
G01 X34.5440 Y76.8159
G01 X34.6599 Y76.8592
G01 X34.7062 Y76.8641
G01 X40.7939 Y76.8642
G01 X40.8402 Y76.8592
G01 X40.9561 Y76.8159
G01 X41.0541 Y76.7426
G01 X41.1275 Y76.6446
G01 X41.1707 Y76.5286
G01 X41.1757 Y76.4824
G01 X41.1757 Y70.8546
G01 X41.1707 Y70.8084
G01 X41.1275 Y70.6924
G01 X41.0541 Y70.5944
G01 X40.9561 Y70.5211
G01 X40.8402 Y70.4778
G01 X40.7939 Y70.4728
G01 X35.6343 Y70.4729
G01 X35.6255 Y70.4723
G01 X35.5853 Y70.4665
G01 X35.5783 Y70.4648
G01 X35.5478 Y70.4556
G01 X35.5376 Y70.4509
G01 X35.4816 Y70.4177
G01 X35.4755 Y70.4134
G01 X35.4685 Y70.4072
G01 X32.7465 Y67.6852
G01 X32.7406 Y67.6786
G01 X32.7163 Y67.6460
G01 X32.7126 Y67.6399
G01 X32.6975 Y67.6118
G01 X32.6936 Y67.6013
G01 X32.6771 Y67.5364
G01 X32.6760 Y67.5290
G01 X32.6757 Y67.5215
G01 X32.6758 Y55.9262
G01 X32.6767 Y55.9192
G01 X32.6779 Y55.9133
G01 X32.6779 Y55.9039
G01 X32.6794 Y55.8932
G01 X32.6837 Y55.8754
G01 X32.6874 Y55.8629
G01 X32.6906 Y55.8546
G01 X32.7029 Y55.8302
G01 X32.7066 Y55.8241
G01 X32.7120 Y55.8170
G01 X32.7183 Y55.8101
G01 X32.7367 Y55.7818
G01 X32.7415 Y55.7761
G01 X32.7454 Y55.7722
G01 X32.7511 Y55.7674
G01 X32.7556 Y55.7642
G01 X32.7621 Y55.7604
G01 X32.7687 Y55.7573
G01 X32.7749 Y55.7526
G01 X32.7830 Y55.7479
G01 X32.7932 Y55.7436
G01 X32.8061 Y55.7402
G01 X32.8306 Y55.7290
G01 X32.8376 Y55.7264
G01 X32.8466 Y55.7242
G01 X32.8559 Y55.7231
G01 X32.8633 Y55.7231
G01 X32.8720 Y55.7240
G01 X32.8792 Y55.7231
G01 X32.8866 Y55.7229
G01 X32.8959 Y55.7238
G01 X32.9050 Y55.7258
G01 X32.9205 Y55.7309
G01 X32.9434 Y55.7343
G01 X32.9486 Y55.7355
G01 X32.9554 Y55.7377
G01 X32.9666 Y55.7428
G01 X32.9728 Y55.7466
G01 X32.9781 Y55.7505
G01 X32.9866 Y55.7545
G01 X32.9960 Y55.7606
G01 X33.0030 Y55.7666
G01 X33.0103 Y55.7748
G01 X33.0242 Y55.7858
G01 X33.0321 Y55.7942
G01 X33.0477 Y55.8157
G01 X33.0668 Y55.8466
G01 X33.1784 Y55.9582
G01 X33.3127 Y56.0411
G01 X33.4631 Y56.0909
G01 X33.5538 Y56.1002
G01 X33.7252 Y56.1002
G01 X33.7252 Y55.7498
G01 X33.5982 Y55.7498
G01 X33.5682 Y55.7483
G01 X33.5384 Y55.7439
G01 X33.5057 Y55.7359
G01 X33.4757 Y55.7251
G01 X33.4469 Y55.7115
G01 X33.4211 Y55.6961
G01 X33.3939 Y55.6761
G01 X33.3703 Y55.6547
G01 X33.3489 Y55.6311
G01 X33.3320 Y55.6085
G01 X33.3279 Y55.6024
G01 X33.3153 Y55.5813
G01 X33.3119 Y55.5749
G01 X33.2999 Y55.5493
G01 X33.2903 Y55.5228
G01 X33.2882 Y55.5158
G01 X33.2814 Y55.4884
G01 X33.2769 Y55.4587
G01 X33.2752 Y55.4250
G01 X33.2752 Y52.5750
G01 X33.2767 Y52.5432
G01 X33.2808 Y52.5152
G01 X33.2822 Y52.5080
G01 X33.2891 Y52.4807
G01 X33.2986 Y52.4541
G01 X33.3014 Y52.4473
G01 X33.3135 Y52.4219
G01 X33.3299 Y52.3945
G01 X33.3466 Y52.3718
G01 X33.3513 Y52.3661
G01 X33.3703 Y52.3453
G01 X33.3911 Y52.3263
G01 X33.3968 Y52.3216
G01 X33.4180 Y52.3059
G01 X33.4469 Y52.2885
G01 X33.4757 Y52.2749
G01 X33.5057 Y52.2641
G01 X33.5384 Y52.2561
G01 X33.5682 Y52.2517
G01 X33.5982 Y52.2502
G01 X33.7252 Y52.2502
G01 X33.7252 Y51.8999
G01 X33.5538 Y51.8999
G01 X33.4631 Y51.9091
G01 X33.3127 Y51.9589
G01 X33.1784 Y52.0418
G01 X33.0668 Y52.1534
G01 X33.0512 Y52.1785
G01 X33.0470 Y52.1841
G01 X33.0417 Y52.1898
G01 X33.0378 Y52.1964
G01 X33.0335 Y52.2021
G01 X33.0183 Y52.2177
G01 X33.0043 Y52.2300
G01 X32.9985 Y52.2341
G01 X32.9783 Y52.2465
G01 X32.9705 Y52.2507
G01 X32.9622 Y52.2539
G01 X32.9532 Y52.2565
G01 X32.9226 Y52.2709
G01 X32.9155 Y52.2732
G01 X32.9101 Y52.2745
G01 X32.9028 Y52.2756
G01 X32.8972 Y52.2760
G01 X32.8898 Y52.2758
G01 X32.8825 Y52.2750
G01 X32.8748 Y52.2757
G01 X32.8655 Y52.2755
G01 X32.8545 Y52.2737
G01 X32.8417 Y52.2699
G01 X32.8168 Y52.2668
G01 X32.8094 Y52.2655
G01 X32.8005 Y52.2629
G01 X32.7920 Y52.2592
G01 X32.7840 Y52.2544
G01 X32.7771 Y52.2491
G01 X32.7689 Y52.2452
G01 X32.7626 Y52.2413
G01 X32.7567 Y52.2368
G01 X32.7513 Y52.2317
G01 X32.7394 Y52.2177
G01 X32.7230 Y52.2039
G01 X32.7188 Y52.2000
G01 X32.7137 Y52.1942
G01 X32.7083 Y52.1865
G01 X32.7039 Y52.1786
G01 X32.7007 Y52.1709
G01 X32.6956 Y52.1630
G01 X32.6908 Y52.1530
G01 X32.6880 Y52.1441
G01 X32.6861 Y52.1333
G01 X32.6810 Y52.1200
G01 X32.6787 Y52.1112
G01 X32.6773 Y52.1015
G01 X32.6757 Y52.0769
G01 X32.6757 Y36.9288
G01 X32.6764 Y36.9218
G01 X32.6820 Y36.8833
G01 X32.6874 Y36.8638
G01 X32.6906 Y36.8555
G01 X32.6957 Y36.8462
G01 X32.7002 Y36.8354
G01 X32.7040 Y36.8290
G01 X32.7083 Y36.8229
G01 X32.7173 Y36.8126
G01 X32.7356 Y36.7843
G01 X32.7402 Y36.7785
G01 X32.7441 Y36.7744
G01 X32.7496 Y36.7695
G01 X32.7541 Y36.7662
G01 X32.7588 Y36.7632
G01 X32.7648 Y36.7600
G01 X32.7708 Y36.7554
G01 X32.7788 Y36.7507
G01 X32.7891 Y36.7464
G01 X32.8045 Y36.7419
G01 X32.8341 Y36.7286
G01 X32.8430 Y36.7259
G01 X32.8522 Y36.7244
G01 X32.8596 Y36.7240
G01 X32.8679 Y36.7244
G01 X32.8763 Y36.7235
G01 X32.8838 Y36.7234
G01 X32.8893 Y36.7239
G01 X32.8966 Y36.7252
G01 X32.9185 Y36.7316
G01 X32.9416 Y36.7349
G01 X32.9520 Y36.7375
G01 X32.9587 Y36.7399
G01 X32.9666 Y36.7438
G01 X32.9748 Y36.7490
G01 X32.9811 Y36.7518
G01 X32.9860 Y36.7546
G01 X32.9938 Y36.7600
G01 X33.0244 Y36.7870
G01 X33.0310 Y36.7938
G01 X33.0477 Y36.8166
G01 X33.0664 Y36.8469
G01 X33.1781 Y36.9586
G01 X33.3125 Y37.0415
G01 X33.4629 Y37.0914
G01 X33.5538 Y37.1007
G01 X34.5462 Y37.1007
G01 X34.6370 Y37.0914
G01 X34.7875 Y37.0415
G01 X34.9219 Y36.9586
G01 X35.0336 Y36.8469
G01 X35.1165 Y36.7125
G01 X35.1664 Y36.5620
G01 X35.1757 Y36.4712
G01 X35.1757 Y35.8923
G01 X35.1764 Y35.8817
G01 X35.1824 Y35.8415
G01 X35.1892 Y35.8179
G01 X35.1918 Y35.8113
G01 X35.1951 Y35.8050
G01 X35.2357 Y35.7416
G01 X35.2402 Y35.7357
G01 X35.2452 Y35.7302
G01 X35.2544 Y35.7224
G01 X35.2622 Y35.7173
G01 X35.3204 Y35.6881
G01 X35.3272 Y35.6850
G01 X35.3325 Y35.6832
G01 X35.3495 Y35.6795
G01 X35.3798 Y35.6761
G01 X35.3878 Y35.6757
G01 X41.0666 Y35.6757
G01 X41.1971 Y35.6497
G01 X41.3200 Y35.5988
G01 X41.4328 Y35.5234
G01 X41.4385 Y35.5170
G01 X42.7228 Y34.2327
G01 X42.7294 Y34.2268
G01 X42.7591 Y34.2046
G01 X42.7665 Y34.1997
G01 X42.7812 Y34.1918
G01 X42.7877 Y34.1890
G01 X42.7962 Y34.1863
G01 X42.8717 Y34.1701
G01 X42.8791 Y34.1694
G01 X42.8866 Y34.1695
G01 X42.8940 Y34.1703
G01 X42.9012 Y34.1719
G01 X42.9083 Y34.1741
G01 X42.9755 Y34.1992
G01 X42.9839 Y34.2032
G01 X42.9917 Y34.2082
G01 X42.9989 Y34.2141
G01 X43.0064 Y34.2223
G01 X43.0494 Y34.2797
G01 X43.0534 Y34.2856
G01 X43.0560 Y34.2903
G01 X43.0590 Y34.2968
G01 X43.0630 Y34.3074
G01 X43.0651 Y34.3148
G01 X43.0740 Y34.3637
G01 X43.0748 Y34.3751
G01 X43.0748 Y79.3577
G01 X43.0743 Y79.3666
G01 X43.0685 Y79.4068
G01 X43.0619 Y79.4304
G01 X43.0579 Y79.4403
G01 X43.0535 Y79.4481
G01 X43.0137 Y79.5099
G01 X43.0090 Y79.5159
G01 X43.0037 Y79.5213
G01 X42.9976 Y79.5265
G01 X42.9915 Y79.5308
G01 X42.9850 Y79.5345
G01 X42.9301 Y79.5620
G01 X42.9197 Y79.5662
G01 X42.9125 Y79.5682
G01 X42.8990 Y79.5708
G01 X42.8707 Y79.5739
G01 X42.8627 Y79.5743
G01 X5.0040 Y79.5743
G01 X4.6126 Y79.5575
G01 X4.5901 Y79.5555
G01 X4.2169 Y79.5064
G01 X4.1946 Y79.5025
G01 X3.8187 Y79.4189
G01 X3.8052 Y79.4151
G01 X3.4463 Y79.3020
G01 X3.4250 Y79.2942
G01 X3.0693 Y79.1467
G01 X3.0567 Y79.1406
G01 X2.7229 Y78.9668
G01 X2.7032 Y78.9555
G01 X2.3786 Y78.7484
G01 X2.3672 Y78.7402
G01 X2.0686 Y78.5111
G01 X2.0512 Y78.4965
G01 X1.7738 Y78.2423
G01 X1.7637 Y78.2325
G01 X1.4978 Y77.9423
G01 X1.4889 Y77.9314
G01 X1.2598 Y77.6328
G01 X1.2467 Y77.6142
G01 X1.0445 Y77.2968
G01 X1.0373 Y77.2847
G01 X0.8556 Y76.9356
G01 X0.8498 Y76.9227
G01 X0.7058 Y76.5751
G01 X0.6980 Y76.5537
G01 X0.5849 Y76.1948
G01 X0.5811 Y76.1813
G01 X0.4958 Y75.7969
G01 X0.4936 Y75.7830
G01 X0.4445 Y75.4100
G01 X0.4425 Y75.3873
G01 X0.4257 Y74.9967
G01 X0.4257 Y5.0041
G01 X0.4431 Y4.6040
G01 X0.4445 Y4.5900
G01 X0.4949 Y4.2084
G01 X0.4975 Y4.1946
G01 X0.5790 Y3.8272
G01 X0.5824 Y3.8135
G01 X0.6980 Y3.4463
G01 X0.7027 Y3.4330
G01 X0.8498 Y3.0773
G01 X0.8556 Y3.0644
G01 X1.0332 Y2.7229
G01 X1.0400 Y2.7106
G01 X1.2467 Y2.3858
G01 X1.2547 Y2.3742
G01 X1.4889 Y2.0686
G01 X1.5035 Y2.0512
G01 X1.7577 Y1.7738
G01 X1.7675 Y1.7637
G01 X2.0512 Y1.5035
G01 X2.0686 Y1.4889
G01 X2.3672 Y1.2598
G01 X2.3858 Y1.2467
G01 X2.7106 Y1.0400
G01 X2.7229 Y1.0332
G01 X3.0567 Y0.8594
G01 X3.0773 Y0.8498
G01 X3.4330 Y0.7027
G01 X3.4463 Y0.6980
G01 X3.8135 Y0.5824
G01 X3.8272 Y0.5790
G01 X4.2031 Y0.4958
G01 X4.2170 Y0.4936
G01 X4.5970 Y0.4437
G01 X4.6127 Y0.4425
G01 X5.0041 Y0.4257
G01 X42.8582 Y0.4257
G01 X42.8671 Y0.4262
G01 X42.9073 Y0.4320
G01 X42.9309 Y0.4386
G01 X42.9408 Y0.4426
G01 X42.9486 Y0.4470
G01 X43.0117 Y0.4877
G01 X43.0172 Y0.4923
G01 X43.0222 Y0.4973
G01 X43.0270 Y0.5029
G01 X43.0313 Y0.5090
G01 X43.0350 Y0.5155
G01 X43.0625 Y0.5704
G01 X43.0667 Y0.5808
G01 X43.0687 Y0.5880
G01 X43.0713 Y0.6015
G01 X43.0744 Y0.6298
G01 X43.0748 Y0.6378
G01 X43.0748 Y21.8694
G01 X43.0743 Y21.8783
G01 X43.0691 Y21.9150
G01 X43.0673 Y21.9237
G01 X43.0594 Y21.9507
G01 X43.0576 Y21.9560
G01 X43.0546 Y21.9629
G01 X43.0197 Y22.0222
G01 X43.0154 Y22.0283
G01 X43.0092 Y22.0353
G01 X39.4752 Y25.5693
G01 X39.4012 Y25.6800
G01 X39.3503 Y25.8029
G01 X39.3243 Y25.9335
G01 X39.3243 Y26.3247
G01 X39.3238 Y26.3321
G01 X39.3229 Y26.3375
G01 X39.3092 Y26.3977
G01 X39.3052 Y26.4080
G01 X38.9838 Y27.0865
G01 X38.9547 Y27.1673
G01 X38.9476 Y27.1959
G01 X38.9336 Y27.2380
G01 X38.9243 Y27.3288
G01 X38.9244 Y28.6712
G01 X38.9336 Y28.7620
G01 X38.9835 Y28.9125
G01 X39.0664 Y29.0469
G01 X39.1781 Y29.1586
G01 X39.3125 Y29.2415
G01 X39.4629 Y29.2914
G01 X39.5538 Y29.3007
G01 X40.4462 Y29.3007
G01 X40.5370 Y29.2914
G01 X40.6875 Y29.2415
G01 X40.8219 Y29.1586
G01 X40.9336 Y29.0469
G01 X41.0165 Y28.9125
G01 X41.0664 Y28.7620
G01 X41.0757 Y28.6712
G01 X41.0757 Y27.3288
G01 X41.0664 Y27.2380
G01 X41.0155 Y27.0846
G01 X41.0123 Y27.0784
G01 X40.7074 Y26.4347
G01 X40.7041 Y26.4265
G01 X40.7014 Y26.4161
G01 X40.6900 Y26.3435
G01 X40.6893 Y26.3342
G01 X40.6898 Y26.3250
G01 X40.6919 Y26.3140
G01 X40.6949 Y26.3052
G01 X40.7238 Y26.2396
G01 X40.7272 Y26.2328
G01 X40.7323 Y26.2249
G01 X40.7359 Y26.2205
G01 X40.7465 Y26.2090
G01 X42.7267 Y24.2291
G01 X42.7620 Y24.2025
G01 X42.7780 Y24.1934
G01 X42.7861 Y24.1896
G01 X42.7962 Y24.1863
G01 X42.8662 Y24.1711
G01 X42.8736 Y24.1699
G01 X42.8810 Y24.1694
G01 X42.8884 Y24.1696
G01 X42.8940 Y24.1703
G01 X42.9048 Y24.1729
G01 X42.9772 Y24.1999
G01 X42.9871 Y24.2051
G01 X42.9947 Y24.2104
G01 X43.0015 Y24.2167
G01 X43.0075 Y24.2238
G01 X43.0505 Y24.2812
G01 X43.0543 Y24.2872
G01 X43.0576 Y24.2935
G01 X43.0630 Y24.3074
G01 X43.0655 Y24.3166
G01 X43.0740 Y24.3637
G01 X43.0748 Y24.3732
G01 X43.0748 Y25.8694
G01 X43.0741 Y25.8801
G01 X43.0691 Y25.9150
G01 X43.0677 Y25.9220
G01 X43.0588 Y25.9525
G01 X43.0546 Y25.9629
G01 X43.0197 Y26.0222
G01 X43.0165 Y26.0268
G01 X43.0118 Y26.0326
G01 X42.4752 Y26.5693
G01 X42.4012 Y26.6800
G01 X42.3503 Y26.8029
G01 X42.3243 Y26.9335
G01 X42.3243 Y32.6199
G01 X42.3236 Y32.6306
G01 X42.3176 Y32.6708
G01 X42.3083 Y32.7030
G01 X42.3057 Y32.7100
G01 X42.3033 Y32.7151
G01 X42.2692 Y32.7727
G01 X42.2649 Y32.7788
G01 X42.2587 Y32.7858
G01 X40.7910 Y34.2535
G01 X40.7829 Y34.2605
G01 X40.7503 Y34.2847
G01 X40.7209 Y34.3009
G01 X40.7141 Y34.3040
G01 X40.7070 Y34.3064
G01 X40.6440 Y34.3225
G01 X40.6348 Y34.3240
G01 X40.6273 Y34.3243
G01 X35.3923 Y34.3243
G01 X35.3817 Y34.3236
G01 X35.3415 Y34.3176
G01 X35.3213 Y34.3119
G01 X35.3129 Y34.3089
G01 X35.3081 Y34.3066
G01 X35.3019 Y34.3030
G01 X35.2432 Y34.2653
G01 X35.2373 Y34.2611
G01 X35.2318 Y34.2563
G01 X35.2259 Y34.2500
G01 X35.2213 Y34.2441
G01 X35.2173 Y34.2378
G01 X35.1872 Y34.1779
G01 X35.1844 Y34.1710
G01 X35.1823 Y34.1638
G01 X35.1792 Y34.1485
G01 X35.1761 Y34.1202
G01 X35.1757 Y34.1122
G01 X35.1757 Y33.5288
G01 X35.1664 Y33.4380
G01 X35.1165 Y33.2875
G01 X35.0336 Y33.1531
G01 X34.9219 Y33.0414
G01 X34.7875 Y32.9585
G01 X34.6370 Y32.9086
G01 X34.5462 Y32.8993
G01 X33.5538 Y32.8993
G01 X33.4630 Y32.9086
G01 X33.3125 Y32.9585
G01 X33.1781 Y33.0414
G01 X33.0664 Y33.1531
G01 X33.0502 Y33.1790
G01 X33.0458 Y33.1845
G01 X33.0417 Y33.1889
G01 X33.0357 Y33.1984
G01 X33.0286 Y33.2065
G01 X33.0183 Y33.2168
G01 X33.0043 Y33.2291
G01 X32.9985 Y33.2332
G01 X32.9737 Y33.2482
G01 X32.9639 Y33.2524
G01 X32.9532 Y33.2555
G01 X32.9277 Y33.2677
G01 X32.9209 Y33.2706
G01 X32.9101 Y33.2736
G01 X32.9009 Y33.2748
G01 X32.8916 Y33.2750
G01 X32.8825 Y33.2740
G01 X32.8711 Y33.2748
G01 X32.8618 Y33.2741
G01 X32.8527 Y33.2723
G01 X32.8417 Y33.2689
G01 X32.8113 Y33.2649
G01 X32.8041 Y33.2631
G01 X32.7971 Y33.2606
G01 X32.7872 Y33.2555
G01 X32.7825 Y33.2524
G01 X32.7771 Y33.2482
G01 X32.7705 Y33.2452
G01 X32.7657 Y33.2424
G01 X32.7567 Y33.2358
G01 X32.7500 Y33.2294
G01 X32.7395 Y33.2168
G01 X32.7192 Y33.1995
G01 X32.7145 Y33.1942
G01 X32.7102 Y33.1885
G01 X32.7048 Y33.1793
G01 X32.7007 Y33.1699
G01 X32.6975 Y33.1653
G01 X32.6938 Y33.1588
G01 X32.6895 Y33.1485
G01 X32.6876 Y33.1414
G01 X32.6861 Y33.1323
G01 X32.6810 Y33.1191
G01 X32.6787 Y33.1103
G01 X32.6775 Y33.1024
G01 X32.6757 Y33.0798
G01 X32.6757 Y30.9306
G01 X32.6764 Y30.9218
G01 X32.6820 Y30.8833
G01 X32.6869 Y30.8655
G01 X32.6899 Y30.8571
G01 X32.6922 Y30.8523
G01 X32.6957 Y30.8462
G01 X32.7002 Y30.8354
G01 X32.7040 Y30.8290
G01 X32.7083 Y30.8229
G01 X32.7173 Y30.8126
G01 X32.7356 Y30.7843
G01 X32.7402 Y30.7785
G01 X32.7441 Y30.7744
G01 X32.7482 Y30.7707
G01 X32.7541 Y30.7662
G01 X32.7588 Y30.7632
G01 X32.7648 Y30.7600
G01 X32.7708 Y30.7554
G01 X32.7788 Y30.7507
G01 X32.7891 Y30.7464
G01 X32.8045 Y30.7419
G01 X32.8341 Y30.7286
G01 X32.8430 Y30.7259
G01 X32.8522 Y30.7244
G01 X32.8596 Y30.7240
G01 X32.8679 Y30.7244
G01 X32.8763 Y30.7235
G01 X32.8838 Y30.7234
G01 X32.8912 Y30.7242
G01 X32.8966 Y30.7252
G01 X32.9185 Y30.7316
G01 X32.9416 Y30.7349
G01 X32.9520 Y30.7375
G01 X32.9587 Y30.7399
G01 X32.9666 Y30.7438
G01 X32.9748 Y30.7490
G01 X32.9811 Y30.7518
G01 X32.9860 Y30.7546
G01 X32.9938 Y30.7600
G01 X33.0244 Y30.7870
G01 X33.0310 Y30.7938
G01 X33.0477 Y30.8166
G01 X33.0664 Y30.8469
G01 X33.1781 Y30.9586
G01 X33.3125 Y31.0415
G01 X33.4629 Y31.0914
G01 X33.5538 Y31.1007
G01 X34.5462 Y31.1007
G01 X34.6370 Y31.0914
G01 X34.7875 Y31.0415
G01 X34.9219 Y30.9586
G01 X35.0336 Y30.8469
G01 X35.1165 Y30.7125
G01 X35.1664 Y30.5620
G01 X35.1757 Y30.4712
G01 X35.1757 Y30.0469
G01 X35.1760 Y30.0398
G01 X35.1770 Y30.0327
G01 X35.1787 Y30.0258
G01 X35.1989 Y29.9570
G01 X35.2016 Y29.9500
G01 X35.2058 Y29.9417
G01 X35.2111 Y29.9339
G01 X35.2173 Y29.9269
G01 X35.2558 Y29.8884
G01 X35.2612 Y29.8838
G01 X35.2670 Y29.8796
G01 X35.5382 Y29.7054
G01 X35.5445 Y29.7021
G01 X35.5528 Y29.6989
G01 X35.6250 Y29.6778
G01 X35.6338 Y29.6762
G01 X35.6426 Y29.6757
G01 X36.0666 Y29.6757
G01 X36.1971 Y29.6497
G01 X36.3200 Y29.5988
G01 X36.4307 Y29.5248
G01 X36.5248 Y29.4307
G01 X36.5463 Y29.3990
G01 X36.5729 Y29.3692
G01 X36.5792 Y29.3629
G01 X36.5996 Y29.3460
G01 X36.6088 Y29.3400
G01 X36.6680 Y29.3113
G01 X36.6748 Y29.3086
G01 X36.6801 Y29.3070
G01 X36.6959 Y29.3039
G01 X36.7231 Y29.3010
G01 X36.7308 Y29.3007
G01 X37.3462 Y29.3007
G01 X37.4370 Y29.2914
G01 X37.5875 Y29.2415
G01 X37.7219 Y29.1586
G01 X37.8336 Y29.0469
G01 X37.9165 Y28.9125
G01 X37.9664 Y28.7620
G01 X37.9757 Y28.6712
G01 X37.9757 Y27.3288
G01 X37.9664 Y27.2380
G01 X37.9510 Y27.1914
G01 X37.9452 Y27.1687
G01 X37.9223 Y27.1049
G01 X37.9162 Y27.0865
G01 X37.5940 Y26.4063
G01 X37.5920 Y26.4012
G01 X37.5898 Y26.3942
G01 X37.5775 Y26.3393
G01 X37.5762 Y26.3321
G01 X37.5757 Y26.3229
G01 X37.5757 Y24.0301
G01 X37.5762 Y24.0212
G01 X37.5820 Y23.9810
G01 X37.5837 Y23.9740
G01 X37.5923 Y23.9452
G01 X37.5943 Y23.9400
G01 X37.5976 Y23.9333
G01 X37.6299 Y23.8789
G01 X37.6351 Y23.8712
G01 X37.6413 Y23.8642
G01 X39.2936 Y22.2119
G01 X39.3006 Y22.2057
G01 X39.3319 Y22.1826
G01 X39.3414 Y22.1766
G01 X40.3467 Y21.6463
G01 X40.3570 Y21.6426
G01 X40.4166 Y21.6278
G01 X40.4238 Y21.6264
G01 X40.4292 Y21.6258
G01 X40.6712 Y21.6257
G01 X40.7620 Y21.6164
G01 X40.9125 Y21.5665
G01 X41.0469 Y21.4836
G01 X41.1586 Y21.3719
G01 X41.2415 Y21.2375
G01 X41.2914 Y21.0870
G01 X41.3007 Y20.9962
G01 X41.3007 Y20.1038
G01 X41.2914 Y20.0130
G01 X41.2415 Y19.8625
G01 X41.1586 Y19.7281
G01 X41.0469 Y19.6164
G01 X40.9125 Y19.5335
G01 X40.7620 Y19.4836
G01 X40.6712 Y19.4743
G01 X39.3288 Y19.4744
G01 X39.2380 Y19.4836
G01 X39.0875 Y19.5335
G01 X38.9531 Y19.6164
G01 X38.8414 Y19.7281
G01 X38.7585 Y19.8625
G01 X38.7086 Y20.0130
G01 X38.6993 Y20.1038
G01 X38.6993 Y20.3711
G01 X38.6985 Y20.3784
G01 X38.6984 Y20.3869
G01 X38.6970 Y20.3962
G01 X38.6864 Y20.4375
G01 X38.6839 Y20.4442
G01 X38.3633 Y21.2102
G01 X38.3610 Y21.2152
G01 X38.3574 Y21.2215
G01 X38.3287 Y21.2643
G01 X38.3254 Y21.2686
G01 X38.3205 Y21.2740
G01 X36.3752 Y23.2193
G01 X36.3012 Y23.3300
G01 X36.2503 Y23.4529
G01 X36.2243 Y23.5835
G01 X36.2243 Y26.3229
G01 X36.2235 Y26.3339
G01 X36.2102 Y26.3942
G01 X36.2086 Y26.3995
G01 X36.2060 Y26.4064
G01 X35.8838 Y27.0866
G01 X35.8689 Y27.1228
G01 X35.8661 Y27.1363
G01 X35.8612 Y27.1548
G01 X35.8336 Y27.2380
G01 X35.8243 Y27.3288
G01 X35.8243 Y28.0219
G01 X35.8237 Y28.0298
G01 X35.8188 Y28.0659
G01 X35.8094 Y28.1012
G01 X35.8067 Y28.1078
G01 X35.8034 Y28.1141
G01 X35.7868 Y28.1414
G01 X35.7714 Y28.1694
G01 X35.7655 Y28.1783
G01 X35.7595 Y28.1849
G01 X35.7181 Y28.2263
G01 X35.7128 Y28.2310
G01 X35.7055 Y28.2361
G01 X35.6394 Y28.2722
G01 X35.6309 Y28.2759
G01 X35.6202 Y28.2790
G01 X35.6110 Y28.2802
G01 X35.6017 Y28.2804
G01 X35.5265 Y28.2749
G01 X35.5175 Y28.2733
G01 X35.5070 Y28.2699
G01 X35.4730 Y28.2528
G01 X35.2640 Y28.1184
G01 X35.2571 Y28.1128
G01 X35.2509 Y28.1064
G01 X35.2039 Y28.0522
G01 X35.2005 Y28.0477
G01 X35.1965 Y28.0414
G01 X35.1918 Y28.0313
G01 X35.1890 Y28.0223
G01 X35.1770 Y27.9673
G01 X35.1757 Y27.9567
G01 X35.1757 Y27.5288
G01 X35.1664 Y27.4380
G01 X35.1165 Y27.2875
G01 X35.0336 Y27.1531
G01 X34.9219 Y27.0414
G01 X34.7875 Y26.9585
G01 X34.6370 Y26.9086
G01 X34.5462 Y26.8993
G01 X33.5538 Y26.8993
G01 X33.4630 Y26.9086
G01 X33.3125 Y26.9585
G01 X33.1781 Y27.0414
G01 X33.0664 Y27.1531
G01 X33.0512 Y27.1776
G01 X33.0470 Y27.1832
G01 X33.0417 Y27.1889
G01 X33.0388 Y27.1939
G01 X33.0346 Y27.1998
G01 X33.0299 Y27.2052
G01 X33.0196 Y27.2154
G01 X33.0071 Y27.2268
G01 X32.9985 Y27.2332
G01 X32.9768 Y27.2465
G01 X32.9705 Y27.2498
G01 X32.9622 Y27.2530
G01 X32.9532 Y27.2555
G01 X32.9277 Y27.2677
G01 X32.9209 Y27.2706
G01 X32.9101 Y27.2736
G01 X32.9009 Y27.2748
G01 X32.8916 Y27.2750
G01 X32.8825 Y27.2740
G01 X32.8729 Y27.2748
G01 X32.8637 Y27.2744
G01 X32.8545 Y27.2728
G01 X32.8417 Y27.2689
G01 X32.8149 Y27.2656
G01 X32.8076 Y27.2641
G01 X32.7988 Y27.2613
G01 X32.7904 Y27.2574
G01 X32.7840 Y27.2535
G01 X32.7771 Y27.2482
G01 X32.7689 Y27.2443
G01 X32.7611 Y27.2393
G01 X32.7553 Y27.2346
G01 X32.7513 Y27.2307
G01 X32.7395 Y27.2168
G01 X32.7192 Y27.1995
G01 X32.7145 Y27.1942
G01 X32.7094 Y27.1872
G01 X32.7048 Y27.1793
G01 X32.7007 Y27.1699
G01 X32.6956 Y27.1621
G01 X32.6915 Y27.1537
G01 X32.6880 Y27.1432
G01 X32.6861 Y27.1323
G01 X32.6800 Y27.1156
G01 X32.6783 Y27.1085
G01 X32.6775 Y27.1024
G01 X32.6757 Y27.0760
G01 X32.6757 Y22.0352
G01 X32.6760 Y22.0278
G01 X32.6780 Y22.0167
G01 X32.6966 Y21.9503
G01 X32.6990 Y21.9432
G01 X32.7029 Y21.9348
G01 X32.9151 Y21.5876
G01 X32.9230 Y21.5782
G01 X32.9637 Y21.5373
G01 X32.9703 Y21.5315
G01 X32.9775 Y21.5264
G01 X33.0469 Y21.4836
G01 X33.1586 Y21.3719
G01 X33.2415 Y21.2375
G01 X33.2914 Y21.0870
G01 X33.3007 Y20.9962
G01 X33.3007 Y20.1038
G01 X33.2914 Y20.0130
G01 X33.2415 Y19.8625
G01 X33.1586 Y19.7281
G01 X33.0469 Y19.6164
G01 X32.9125 Y19.5335
G01 X32.7620 Y19.4836
G01 X32.6712 Y19.4743
G01 X31.3288 Y19.4744
G01 X31.2380 Y19.4836
G01 X31.0875 Y19.5335
G01 X30.9531 Y19.6164
G01 X30.8414 Y19.7281
G01 X30.7585 Y19.8625
G01 X30.7086 Y20.0130
G01 X30.6993 Y20.1038
G01 X30.6994 Y20.9962
G01 X30.7086 Y21.0870
G01 X30.7585 Y21.2375
G01 X30.8414 Y21.3719
G01 X30.9531 Y21.4836
G01 X31.0225 Y21.5264
G01 X31.0297 Y21.5315
G01 X31.0363 Y21.5373
G01 X31.0770 Y21.5782
G01 X31.0839 Y21.5862
G01 X31.0878 Y21.5920
G01 X31.2971 Y21.9348
G01 X31.3010 Y21.9432
G01 X31.3034 Y21.9503
G01 X31.3220 Y22.0167
G01 X31.3240 Y22.0278
G01 X31.3243 Y22.0352
G01 X31.3243 Y22.8709
G01 X31.3236 Y22.8816
G01 X31.3183 Y22.9183
G01 X31.3168 Y22.9252
G01 X31.3120 Y22.9412
G01 X31.3094 Y22.9478
G01 X31.3070 Y22.9526
G01 X31.2655 Y23.0175
G01 X31.2598 Y23.0249
G01 X31.2546 Y23.0302
G01 X31.2474 Y23.0361
G01 X31.2396 Y23.0411
G01 X31.1694 Y23.0734
G01 X31.1606 Y23.0765
G01 X31.1515 Y23.0785
G01 X31.1423 Y23.0793
G01 X31.1312 Y23.0789
G01 X31.0567 Y23.0681
G01 X31.0497 Y23.0664
G01 X31.0430 Y23.0641
G01 X31.0310 Y23.0587
G01 X31.0260 Y23.0560
G01 X30.9834 Y23.0267
G01 X30.9747 Y23.0192
G01 X26.6107 Y18.6552
G01 X26.5000 Y18.5812
G01 X26.3771 Y18.5303
G01 X26.2466 Y18.5043
G01 X22.4645 Y18.5043
G01 X22.4539 Y18.5036
G01 X22.4084 Y18.4959
G01 X22.3998 Y18.4936
G01 X21.3473 Y18.1318
G01 X21.3430 Y18.1303
G01 X21.2726 Y18.1122
G01 X21.2573 Y18.1074
G01 X21.2520 Y18.1062
G01 X21.2393 Y18.1024
G01 X21.2289 Y18.0979
G01 X21.2212 Y18.0955
G01 X21.2146 Y18.0930
G01 X21.2035 Y18.0876
G01 X21.1959 Y18.0830
G01 X21.1903 Y18.0786
G01 X21.1704 Y18.0609
G01 X21.1613 Y18.0550
G01 X21.1541 Y18.0492
G01 X21.1489 Y18.0439
G01 X21.1431 Y18.0366
G01 X21.1315 Y18.0257
G01 X21.1267 Y18.0200
G01 X21.1236 Y18.0154
G01 X21.1190 Y18.0073
G01 X21.1150 Y17.9969
G01 X21.0953 Y17.9260
G01 X21.0936 Y17.9169
G01 X21.0930 Y17.9076
G01 X21.0936 Y17.8984
G01 X21.0954 Y17.8892
G01 X21.1176 Y17.8172
G01 X21.1210 Y17.8087
G01 X21.1265 Y17.7991
G01 X21.1333 Y17.7905
G01 X21.1399 Y17.7841
G01 X21.1932 Y17.7386
G01 X21.2009 Y17.7331
G01 X21.2076 Y17.7295
G01 X21.2162 Y17.7255
G01 X21.2225 Y17.7231
G01 X21.2392 Y17.7181
G01 X21.2474 Y17.7149
G01 X21.2546 Y17.7130
G01 X21.4219 Y17.6586
G01 X21.5129 Y17.6123
G01 X21.2468 Y17.3462
G01 X21.2156 Y17.3571
G01 X21.1443 Y17.3748
G01 X21.0734 Y17.3852
G01 X21.0000 Y17.3888
G01 X20.9266 Y17.3852
G01 X20.8557 Y17.3748
G01 X20.7844 Y17.3571
G01 X20.7532 Y17.3462
G01 X20.4871 Y17.6123
G01 X20.5781 Y17.6586
G01 X20.7454 Y17.7130
G01 X20.7526 Y17.7149
G01 X20.7595 Y17.7175
G01 X20.7661 Y17.7207
G01 X20.7763 Y17.7232
G01 X20.7835 Y17.7257
G01 X20.7949 Y17.7310
G01 X20.8026 Y17.7355
G01 X20.8084 Y17.7397
G01 X20.8164 Y17.7468
G01 X20.8231 Y17.7504
G01 X20.8293 Y17.7545
G01 X20.8377 Y17.7618
G01 X20.8438 Y17.7688
G01 X20.8481 Y17.7750
G01 X20.8646 Y17.7898
G01 X20.8697 Y17.7951
G01 X20.8754 Y17.8025
G01 X20.8801 Y17.8105
G01 X20.8832 Y17.8173
G01 X20.8855 Y17.8243
G01 X20.9042 Y17.8916
G01 X20.9059 Y17.8989
G01 X20.9068 Y17.9063
G01 X20.9069 Y17.9137
G01 X20.9064 Y17.9211
G01 X20.9051 Y17.9284
G01 X20.8830 Y18.0006
G01 X20.8798 Y18.0091
G01 X20.8764 Y18.0157
G01 X20.8725 Y18.0219
G01 X20.8679 Y18.0276
G01 X20.8628 Y18.0329
G01 X20.8341 Y18.0576
G01 X20.8256 Y18.0674
G01 X20.8188 Y18.0737
G01 X20.8112 Y18.0790
G01 X20.8043 Y18.0828
G01 X20.7941 Y18.0892
G01 X20.7838 Y18.0940
G01 X20.7775 Y18.0964
G01 X20.7606 Y18.1014
G01 X20.7525 Y18.1046
G01 X20.7453 Y18.1065
G01 X20.5779 Y18.1609
G01 X20.4237 Y18.2395
G01 X20.2836 Y18.3412
G01 X20.1612 Y18.4636
G01 X20.0595 Y18.6037
G01 X19.9809 Y18.7579
G01 X19.9274 Y18.9225
G01 X19.9003 Y19.0935
G01 X19.9003 Y19.2666
G01 X19.9274 Y19.4375
G01 X19.9809 Y19.6021
G01 X20.0595 Y19.7563
G01 X20.1612 Y19.8964
G01 X20.2836 Y20.0188
G01 X20.4237 Y20.1205
G01 X20.5779 Y20.1991
G01 X20.7453 Y20.2535
G01 X20.7516 Y20.2552
G01 X20.7583 Y20.2577
G01 X20.7655 Y20.2612
G01 X20.7750 Y20.2635
G01 X20.7836 Y20.2667
G01 X20.7949 Y20.2721
G01 X20.8025 Y20.2768
G01 X20.8081 Y20.2811
G01 X20.8225 Y20.2939
G01 X20.8316 Y20.2994
G01 X20.8403 Y20.3063
G01 X20.8468 Y20.3130
G01 X20.8524 Y20.3205
G01 X20.8630 Y20.3300
G01 X20.8694 Y20.3368
G01 X20.8748 Y20.3443
G01 X20.8794 Y20.3524
G01 X20.8822 Y20.3593
G01 X20.8839 Y20.3646
G01 X20.9026 Y20.4319
G01 X20.9048 Y20.4428
G01 X20.9054 Y20.4502
G01 X20.9052 Y20.4577
G01 X20.9042 Y20.4651
G01 X20.9026 Y20.4723
G01 X20.8806 Y20.5432
G01 X20.8763 Y20.5532
G01 X20.8707 Y20.5624
G01 X20.8674 Y20.5667
G01 X20.8625 Y20.5720
G01 X20.8358 Y20.5950
G01 X20.8284 Y20.6041
G01 X20.8203 Y20.6117
G01 X20.8143 Y20.6161
G01 X20.8048 Y20.6214
G01 X20.7959 Y20.6276
G01 X20.7891 Y20.6311
G01 X20.7790 Y20.6355
G01 X20.7621 Y20.6408
G01 X20.7525 Y20.6446
G01 X20.7453 Y20.6465
G01 X20.7060 Y20.6592
G01 X20.6933 Y20.6627
G01 X20.6473 Y20.6736
G01 X19.5985 Y21.0341
G01 X19.5882 Y21.0366
G01 X19.5461 Y21.0436
G01 X19.5373 Y21.0443
G01 X19.2135 Y21.0443
G01 X19.0829 Y21.0703
G01 X18.9600 Y21.1212
G01 X18.8493 Y21.1952
G01 X15.7852 Y24.2593
G01 X15.7112 Y24.3700
G01 X15.6603 Y24.4929
G01 X15.6343 Y24.6235
G01 X15.6343 Y38.4631
G01 X15.6336 Y38.4702
G01 X15.6276 Y38.5104
G01 X15.6200 Y38.5369
G01 X15.6177 Y38.5436
G01 X15.6131 Y38.5531
G01 X15.5843 Y38.6033
G01 X15.5795 Y38.6107
G01 X15.5750 Y38.6162
G01 X15.5670 Y38.6244
G01 X15.5447 Y38.6438
G01 X15.3813 Y38.7626
G01 X15.2226 Y38.9213
G01 X15.2069 Y38.9423
G01 X15.1786 Y38.9714
G01 X15.1719 Y38.9773
G01 X15.1566 Y38.9889
G01 X15.1505 Y38.9925
G01 X15.1440 Y38.9956
G01 X15.0755 Y39.0222
G01 X15.0666 Y39.0248
G01 X15.0574 Y39.0263
G01 X15.0482 Y39.0267
G01 X15.0371 Y39.0255
G01 X14.9650 Y39.0109
G01 X14.9581 Y39.0090
G01 X14.9531 Y39.0071
G01 X14.9389 Y39.0000
G01 X14.9324 Y38.9960
G01 X14.9279 Y38.9925
G01 X14.8798 Y38.9506
G01 X14.8736 Y38.9434
G01 X14.8574 Y38.9213
G01 X14.6987 Y38.7626
G01 X14.5406 Y38.6477
G01 X14.5339 Y38.6418
G01 X14.5061 Y38.6147
G01 X14.5015 Y38.6093
G01 X14.4879 Y38.5916
G01 X14.4820 Y38.5828
G01 X14.4788 Y38.5765
G01 X14.4545 Y38.5221
G01 X14.4511 Y38.5121
G01 X14.4488 Y38.5008
G01 X14.4472 Y38.4872
G01 X14.4457 Y38.4680
G01 X14.4457 Y18.7404
G01 X14.4464 Y18.7298
G01 X14.4488 Y18.7191
G01 X14.4197 Y18.5729
G01 X14.3688 Y18.4500
G01 X14.2948 Y18.3393
G01 X9.5307 Y13.5752
G01 X9.4200 Y13.5013
G01 X9.2971 Y13.4503
G01 X9.1666 Y13.4243
G01 X7.2245 Y13.4243
G01 X7.2139 Y13.4236
G01 X7.1666 Y13.4155
G01 X7.1598 Y13.4136
G01 X6.1404 Y13.0632
G01 X6.1322 Y13.0598
G01 X6.1244 Y13.0554
G01 X6.0954 Y13.0350
G01 X6.0643 Y13.0141
G01 X6.0561 Y13.0066
G01 X6.0473 Y12.9961
G01 X6.0433 Y12.9899
G01 X6.0398 Y12.9833
G01 X6.0264 Y12.9503
G01 X6.0129 Y12.9194
G01 X6.0094 Y12.9088
G01 X6.0083 Y12.9034
G01 X6.0073 Y12.8954
G01 X6.0068 Y12.8861
G01 X6.0078 Y12.8750
G01 X6.0141 Y12.8418
G01 X6.0198 Y12.8066
G01 X6.0217 Y12.7994
G01 X6.0250 Y12.7908
G01 X6.0304 Y12.7803
G01 X6.0368 Y12.7712
G01 X6.0624 Y12.7438
G01 X6.0876 Y12.7160
G01 X6.0963 Y12.7087
G01 X6.1089 Y12.7012
G01 X6.1481 Y12.6847
G01 X6.1556 Y12.6825
G01 X6.1622 Y12.6811
G01 X6.1988 Y12.6761
G01 X6.2073 Y12.6757
G01 X20.5518 Y12.6757
G01 X20.5625 Y12.6764
G01 X20.6027 Y12.6824
G01 X20.6179 Y12.6867
G01 X20.6245 Y12.6894
G01 X20.6293 Y12.6918
G01 X20.6942 Y12.7333
G01 X20.7016 Y12.7390
G01 X20.7082 Y12.7455
G01 X20.7139 Y12.7529
G01 X20.7187 Y12.7608
G01 X20.7508 Y12.8311
G01 X20.7537 Y12.8400
G01 X20.7557 Y12.8509
G01 X20.7561 Y12.8602
G01 X20.7553 Y12.8695
G01 X20.7451 Y12.9404
G01 X20.7430 Y12.9494
G01 X20.7406 Y12.9563
G01 X20.7357 Y12.9661
G01 X20.7327 Y12.9708
G01 X20.7282 Y12.9766
G01 X20.6827 Y13.0298
G01 X20.6759 Y13.0365
G01 X20.6684 Y13.0422
G01 X20.6562 Y13.0497
G01 X20.6214 Y13.0665
G01 X20.6150 Y13.0688
G01 X20.5779 Y13.0809
G01 X20.4237 Y13.1595
G01 X20.2836 Y13.2612
G01 X20.1612 Y13.3836
G01 X20.0595 Y13.5237
G01 X19.9809 Y13.6779
G01 X19.9274 Y13.8425
G01 X19.9003 Y14.0135
G01 X19.9003 Y14.1866
G01 X19.9274 Y14.3575
G01 X19.9809 Y14.5221
G01 X20.0595 Y14.6763
G01 X20.1612 Y14.8164
G01 X20.2836 Y14.9388
G01 X20.4237 Y15.0405
G01 X20.5779 Y15.1191
G01 X20.7429 Y15.1727
G01 X20.7602 Y15.1775
G01 X20.7688 Y15.1810
G01 X20.7837 Y15.1863
G01 X20.7981 Y15.1932
G01 X20.8070 Y15.1991
G01 X20.8289 Y15.2185
G01 X20.8399 Y15.2257
G01 X20.8483 Y15.2329
G01 X20.8533 Y15.2385
G01 X20.8572 Y15.2436
G01 X20.8659 Y15.2516
G01 X20.8721 Y15.2585
G01 X20.8784 Y15.2677
G01 X20.8825 Y15.2761
G01 X20.8855 Y15.2848
G01 X20.9051 Y15.3558
G01 X20.9068 Y15.3668
G01 X20.9068 Y15.3779
G01 X20.9058 Y15.3853
G01 X20.9042 Y15.3925
G01 X20.8818 Y15.4646
G01 X20.8782 Y15.4730
G01 X20.8745 Y15.4793
G01 X20.8703 Y15.4853
G01 X20.8641 Y15.4922
G01 X20.8068 Y15.5414
G01 X20.7991 Y15.5469
G01 X20.7907 Y15.5513
G01 X20.7791 Y15.5563
G01 X20.7609 Y15.5619
G01 X20.7526 Y15.5651
G01 X20.7454 Y15.5670
G01 X20.5781 Y15.6214
G01 X20.4871 Y15.6677
G01 X20.7532 Y15.9338
G01 X20.7844 Y15.9229
G01 X20.8557 Y15.9052
G01 X20.9266 Y15.8948
G01 X21.0000 Y15.8912
G01 X21.0734 Y15.8948
G01 X21.1443 Y15.9052
G01 X21.2156 Y15.9229
G01 X21.2468 Y15.9338
G01 X21.5129 Y15.6677
G01 X21.4219 Y15.6214
G01 X21.2546 Y15.5670
G01 X21.2474 Y15.5651
G01 X21.2405 Y15.5625
G01 X21.2339 Y15.5593
G01 X21.2238 Y15.5569
G01 X21.2165 Y15.5543
G01 X21.2051 Y15.5490
G01 X21.1974 Y15.5445
G01 X21.1917 Y15.5403
G01 X21.1837 Y15.5333
G01 X21.1770 Y15.5297
G01 X21.1708 Y15.5256
G01 X21.1624 Y15.5182
G01 X21.1563 Y15.5113
G01 X21.1520 Y15.5051
G01 X21.1354 Y15.4902
G01 X21.1303 Y15.4849
G01 X21.1246 Y15.4775
G01 X21.1199 Y15.4695
G01 X21.1168 Y15.4627
G01 X21.1145 Y15.4557
G01 X21.0958 Y15.3884
G01 X21.0941 Y15.3811
G01 X21.0932 Y15.3737
G01 X21.0931 Y15.3663
G01 X21.0936 Y15.3589
G01 X21.0949 Y15.3516
G01 X21.1170 Y15.2794
G01 X21.1210 Y15.2692
G01 X21.1236 Y15.2643
G01 X21.1275 Y15.2581
G01 X21.1346 Y15.2497
G01 X21.1399 Y15.2446
G01 X21.1658 Y15.2225
G01 X21.1729 Y15.2141
G01 X21.1782 Y15.2089
G01 X21.1870 Y15.2021
G01 X21.2075 Y15.1900
G01 X21.2162 Y15.1860
G01 X21.2225 Y15.1837
G01 X21.2394 Y15.1785
G01 X21.2475 Y15.1754
G01 X21.2547 Y15.1735
G01 X21.4221 Y15.1191
G01 X21.5763 Y15.0405
G01 X21.7164 Y14.9388
G01 X21.8388 Y14.8164
G01 X21.9405 Y14.6763
G01 X22.0191 Y14.5221
G01 X22.0726 Y14.3575
G01 X22.0997 Y14.1866
G01 X22.0997 Y14.0134
G01 X22.0726 Y13.8425
G01 X22.0191 Y13.6779
G01 X21.9405 Y13.5237
G01 X21.8388 Y13.3836
G01 X21.7164 Y13.2612
G01 X21.5763 Y13.1595
G01 X21.4221 Y13.0809
G01 X21.3808 Y13.0673
G01 X21.3712 Y13.0626
G01 X21.3627 Y13.0570
G01 X21.3485 Y13.0515
G01 X21.3416 Y13.0482
G01 X21.3293 Y13.0402
G01 X21.3223 Y13.0348
G01 X21.3159 Y13.0285
G01 X21.3091 Y13.0204
G01 X21.3017 Y13.0146
G01 X21.2939 Y13.0066
G01 X21.2874 Y12.9976
G01 X21.2823 Y12.9875
G01 X21.2682 Y12.9703
G01 X21.2640 Y12.9642
G01 X21.2595 Y12.9560
G01 X21.2561 Y12.9474
G01 X21.2542 Y12.9402
G01 X21.2530 Y12.9329
G01 X21.2450 Y12.8635
G01 X21.2445 Y12.8561
G01 X21.2448 Y12.8486
G01 X21.2458 Y12.8413
G01 X21.2475 Y12.8340
G01 X21.2506 Y12.8253
G01 X21.2839 Y12.7576
G01 X21.2886 Y12.7497
G01 X21.2931 Y12.7439
G01 X21.2994 Y12.7373
G01 X21.3065 Y12.7315
G01 X21.3403 Y12.7105
G01 X21.3487 Y12.7033
G01 X21.3548 Y12.6990
G01 X21.3646 Y12.6937
G01 X21.3737 Y12.6903
G01 X21.3828 Y12.6862
G01 X21.3972 Y12.6821
G01 X21.4039 Y12.6809
G01 X21.4371 Y12.6763
G01 X21.4456 Y12.6757
G01 X23.9648 Y12.6757
G01 X23.9741 Y12.6762
G01 X23.9833 Y12.6780
G01 X24.0515 Y12.6971
G01 X24.0585 Y12.6997
G01 X24.0652 Y12.7029
G01 X24.3979 Y12.9060
G01 X24.4055 Y12.9113
G01 X24.4123 Y12.9174
G01 X24.4625 Y12.9714
G01 X24.4668 Y12.9773
G01 X24.4705 Y12.9837
G01 X24.7776 Y13.5715
G01 X24.7803 Y13.5777
G01 X24.7921 Y13.6088
G01 X24.7944 Y13.6176
G01 X24.8003 Y13.6471
G01 X24.8512 Y13.7700
G01 X24.9252 Y13.8807
G01 X24.9352 Y13.8907
G01 X24.9441 Y13.9004
G01 X24.9730 Y13.9355
G01 X25.0121 Y13.9746
G01 X25.0481 Y14.0070
G01 X25.0532 Y14.0110
G01 X25.0716 Y14.0271
G01 X29.0193 Y17.9748
G01 X29.1300 Y18.0488
G01 X29.2529 Y18.0997
G01 X29.3835 Y18.1257
G01 X30.3229 Y18.1257
G01 X30.3302 Y18.1260
G01 X30.3375 Y18.1271
G01 X30.3942 Y18.1398
G01 X30.4012 Y18.1420
G01 X30.4063 Y18.1440
G01 X31.0865 Y18.4662
G01 X31.1673 Y18.4953
G01 X31.1959 Y18.5024
G01 X31.2379 Y18.5164
G01 X31.3288 Y18.5257
G01 X32.6712 Y18.5257
G01 X32.7620 Y18.5164
G01 X32.9125 Y18.4665
G01 X33.0469 Y18.3836
G01 X33.1586 Y18.2719
G01 X33.2415 Y18.1375
G01 X33.2837 Y18.0103
G01 X33.2869 Y18.0022
G01 X33.2906 Y17.9952
G01 X33.2909 Y17.9933
G01 X33.3007 Y17.8962
G01 X33.3007 Y17.6289
G01 X33.3021 Y17.6179
G01 X33.3117 Y17.5700
G01 X33.3135 Y17.5628
G01 X33.3161 Y17.5558
G01 X33.6324 Y16.8002
G01 X33.6356 Y16.7939
G01 X33.6394 Y16.7879
G01 X33.6535 Y16.7702
G01 X33.6626 Y16.7535
G01 X33.6656 Y16.7487
G01 X33.6715 Y16.7413
G01 X33.6781 Y16.7346
G01 X33.6901 Y16.7254
G01 X33.6954 Y16.7203
G01 X33.7025 Y16.7148
G01 X33.7198 Y16.7041
G01 X33.7291 Y16.6991
G01 X33.7359 Y16.6960
G01 X33.7448 Y16.6931
G01 X33.8060 Y16.6775
G01 X33.8152 Y16.6760
G01 X33.8227 Y16.6757
G01 X34.6235 Y16.6757
G01 X34.6306 Y16.6764
G01 X34.6708 Y16.6824
G01 X34.7065 Y16.6929
G01 X34.7167 Y16.6976
G01 X34.7742 Y16.7318
G01 X34.7802 Y16.7363
G01 X34.7858 Y16.7413
G01 X34.9677 Y16.9232
G01 X34.9723 Y16.9286
G01 X34.9946 Y16.9583
G01 X34.9995 Y16.9657
G01 X35.0087 Y16.9825
G01 X35.0116 Y16.9890
G01 X35.0140 Y16.9957
G01 X35.0301 Y17.0692
G01 X35.0313 Y17.0762
G01 X35.0317 Y17.0815
G01 X35.0317 Y17.0887
G01 X35.0311 Y17.0972
G01 X35.0301 Y17.1043
G01 X35.0289 Y17.1095
G01 X35.0268 Y17.1162
G01 X35.0129 Y17.1533
G01 X35.0120 Y17.1601
G01 X35.0108 Y17.1655
G01 X35.0072 Y17.1759
G01 X35.0021 Y17.1857
G01 X34.9085 Y17.3375
G01 X34.8586 Y17.4880
G01 X34.8493 Y17.5788
G01 X34.8494 Y18.3462
G01 X34.8586 Y18.4370
G01 X34.9085 Y18.5875
G01 X34.9914 Y18.7219
G01 X35.1216 Y18.8519
G01 X35.1377 Y18.8696
G01 X35.1421 Y18.8752
G01 X35.1459 Y18.8812
G01 X35.1484 Y18.8860
G01 X35.1801 Y18.9524
G01 X35.1820 Y18.9576
G01 X35.1840 Y18.9648
G01 X35.1853 Y18.9721
G01 X35.1859 Y18.9795
G01 X35.1853 Y18.9906
G01 X35.1758 Y19.0652
G01 X35.1741 Y19.0721
G01 X35.1717 Y19.0788
G01 X35.1681 Y19.0871
G01 X35.1644 Y19.0936
G01 X35.1288 Y19.1425
G01 X35.1228 Y19.1496
G01 X35.1162 Y19.1558
G01 X35.1065 Y19.1637
G01 X34.9918 Y19.2784
G01 X34.9089 Y19.4127
G01 X34.8591 Y19.5631
G01 X34.8499 Y19.6538
G01 X34.8499 Y19.7127
G01 X35.2002 Y19.7127
G01 X35.2002 Y19.6963
G01 X35.2019 Y19.6663
G01 X35.2064 Y19.6366
G01 X35.2147 Y19.6039
G01 X35.2249 Y19.5757
G01 X35.2385 Y19.5469
G01 X35.2549 Y19.5195
G01 X35.2727 Y19.4954
G01 X35.2953 Y19.4703
G01 X35.3161 Y19.4513
G01 X35.3218 Y19.4466
G01 X35.3415 Y19.4320
G01 X35.3476 Y19.4279
G01 X35.3719 Y19.4135
G01 X35.4007 Y19.3999
G01 X35.4307 Y19.3891
G01 X35.4616 Y19.3814
G01 X35.4932 Y19.3767
G01 X35.5250 Y19.3752
G01 X36.4750 Y19.3752
G01 X36.5068 Y19.3767
G01 X36.5384 Y19.3814
G01 X36.5693 Y19.3891
G01 X36.5993 Y19.3999
G01 X36.6281 Y19.4135
G01 X36.6555 Y19.4299
G01 X36.6811 Y19.4489
G01 X36.7060 Y19.4716
G01 X36.7261 Y19.4939
G01 X36.7451 Y19.5195
G01 X36.7615 Y19.5469
G01 X36.7758 Y19.5774
G01 X36.7859 Y19.6057
G01 X36.7939 Y19.6384
G01 X36.7984 Y19.6700
G01 X36.7998 Y19.6982
G01 X36.7998 Y19.7127
G01 X37.1501 Y19.7127
G01 X37.1501 Y19.6538
G01 X37.1409 Y19.5631
G01 X37.0911 Y19.4127
G01 X37.0082 Y19.2784
G01 X36.8786 Y19.1490
G01 X36.8623 Y19.1310
G01 X36.8579 Y19.1254
G01 X36.8541 Y19.1193
G01 X36.8516 Y19.1146
G01 X36.8199 Y19.0482
G01 X36.8174 Y19.0412
G01 X36.8160 Y19.0358
G01 X36.8147 Y19.0285
G01 X36.8141 Y19.0211
G01 X36.8147 Y19.0100
G01 X36.8238 Y18.9373
G01 X36.8254 Y18.9303
G01 X36.8270 Y18.9251
G01 X36.8304 Y18.9169
G01 X36.8337 Y18.9102
G01 X36.8387 Y18.9024
G01 X36.8712 Y18.8581
G01 X36.8772 Y18.8510
G01 X36.8848 Y18.8439
G01 X36.8942 Y18.8363
G01 X37.0086 Y18.7219
G01 X37.0915 Y18.5875
G01 X37.1342 Y18.4587
G01 X37.1369 Y18.4522
G01 X37.1406 Y18.4452
G01 X37.1507 Y18.3462
G01 X37.1507 Y17.5788
G01 X37.1414 Y17.4880
G01 X37.0915 Y17.3375
G01 X37.0086 Y17.2031
G01 X36.8969 Y17.0914
G01 X36.7650 Y17.0098
G01 X36.7297 Y16.9803
G01 X36.7089 Y16.9575
G01 X36.7043 Y16.9518
G01 X36.7002 Y16.9458
G01 X36.6976 Y16.9410
G01 X36.6682 Y16.8822
G01 X36.6652 Y16.8756
G01 X36.6621 Y16.8651
G01 X36.6497 Y16.8029
G01 X36.5988 Y16.6800
G01 X36.5248 Y16.5693
G01 X35.4307 Y15.4752
G01 X35.3200 Y15.4012
G01 X35.1971 Y15.3503
G01 X35.0665 Y15.3243
G01 X33.3835 Y15.3243
G01 X33.2529 Y15.3503
G01 X33.1300 Y15.4012
G01 X33.0193 Y15.4752
G01 X32.7050 Y15.7894
G01 X32.6979 Y15.7954
G01 X32.6634 Y15.8206
G01 X31.6582 Y16.3514
G01 X31.6499 Y16.3551
G01 X31.6412 Y16.3578
G01 X31.5834 Y16.3722
G01 X31.5762 Y16.3736
G01 X31.5708 Y16.3742
G01 X31.3288 Y16.3744
G01 X31.2380 Y16.3836
G01 X31.0846 Y16.4345
G01 X31.0784 Y16.4377
G01 X30.4063 Y16.7560
G01 X30.4012 Y16.7580
G01 X30.3942 Y16.7602
G01 X30.3357 Y16.7732
G01 X30.3284 Y16.7741
G01 X30.3229 Y16.7743
G01 X29.8247 Y16.7742
G01 X29.7792 Y16.7676
G01 X29.7435 Y16.7571
G01 X29.7333 Y16.7524
G01 X29.6789 Y16.7201
G01 X29.6712 Y16.7149
G01 X29.6642 Y16.7087
G01 X26.3645 Y13.4090
G01 X26.3586 Y13.4023
G01 X26.3535 Y13.3950
G01 X26.3174 Y13.3289
G01 X26.3130 Y13.3187
G01 X26.3106 Y13.3097
G01 X26.3093 Y13.3005
G01 X26.3092 Y13.2912
G01 X26.3144 Y13.2178
G01 X26.3163 Y13.2068
G01 X26.3198 Y13.1963
G01 X26.3288 Y13.1763
G01 X26.4572 Y12.9306
G01 X26.4612 Y12.9216
G01 X26.4665 Y12.9125
G01 X26.4774 Y12.8797
G01 X26.4929 Y12.8406
G01 X26.5014 Y12.8074
G01 X26.5092 Y12.7837
G01 X26.5119 Y12.7772
G01 X26.5156 Y12.7702
G01 X26.5257 Y12.6712
G01 X26.5257 Y11.3288
G01 X26.5164 Y11.2380
G01 X26.4665 Y11.0875
G01 X26.3836 Y10.9531
G01 X26.2719 Y10.8414
G01 X26.1375 Y10.7585
G01 X25.9870 Y10.7086
G01 X25.8962 Y10.6993
G01 X25.0038 Y10.6994
G01 X24.9130 Y10.7086
G01 X24.7625 Y10.7585
G01 X24.6281 Y10.8414
G01 X24.5164 Y10.9531
G01 X24.4736 Y11.0225
G01 X24.4685 Y11.0297
G01 X24.4627 Y11.0363
G01 X24.4218 Y11.0770
G01 X24.4138 Y11.0839
G01 X24.4080 Y11.0879
G01 X24.0652 Y11.2971
G01 X24.0585 Y11.3003
G01 X24.0515 Y11.3029
G01 X23.9851 Y11.3216
G01 X23.9759 Y11.3235
G01 X23.9667 Y11.3243
G01 X2.9335 Y11.3243
G01 X2.8029 Y11.3503
G01 X2.6800 Y11.4012
G01 X2.5693 Y11.4752
G01 X1.4752 Y12.5693
G01 X1.4012 Y12.6800
G00 Z1.5000
G00 X1.4808 Y12.7225
G01 F60.00
G01 Z-0.0600
G01 F120.00
G01 X1.4367 Y12.8291
G01 X1.4142 Y12.9423
G01 X1.4142 Y23.0577
G01 X1.4367 Y23.1709
G01 X1.4808 Y23.2775
G01 X1.5450 Y23.3734
G01 X2.8865 Y24.7150
G01 X2.9825 Y24.7792
G01 X3.0891 Y24.8233
G01 X3.2023 Y24.8458
G01 X4.2955 Y24.8458
G01 X4.3072 Y24.8462
G01 X4.3188 Y24.8475
G01 X4.3630 Y24.8548
G01 X4.3782 Y24.8581
G01 X4.3894 Y24.8615
G01 X5.4415 Y25.2232
G01 X5.5108 Y25.2411
G01 X5.5460 Y25.2516
G01 X5.5759 Y25.2628
G01 X5.5937 Y25.2711
G01 X5.6074 Y25.2788
G01 X5.6202 Y25.2877
G01 X5.6263 Y25.2927
G01 X5.6436 Y25.3080
G01 X5.6568 Y25.3175
G01 X5.6660 Y25.3255
G01 X5.6747 Y25.3342
G01 X5.6811 Y25.3415
G01 X5.6874 Y25.3473
G01 X5.6958 Y25.3563
G01 X5.7035 Y25.3658
G01 X5.7127 Y25.3793
G01 X5.7186 Y25.3901
G01 X5.7238 Y25.4012
G01 X5.7267 Y25.4088
G01 X5.7304 Y25.4205
G01 X5.7512 Y25.4958
G01 X5.7540 Y25.5119
G01 X5.7548 Y25.5200
G01 X5.7552 Y25.5323
G01 X5.7547 Y25.5445
G01 X5.7533 Y25.5567
G01 X5.7510 Y25.5688
G01 X5.7478 Y25.5806
G01 X5.7246 Y25.6550
G01 X5.7201 Y25.6662
G01 X5.7166 Y25.6735
G01 X5.7107 Y25.6841
G01 X5.7063 Y25.6909
G01 X5.6966 Y25.7038
G01 X5.6886 Y25.7128
G01 X5.6828 Y25.7185
G01 X5.6218 Y25.7709
G01 X5.6118 Y25.7784
G01 X5.6013 Y25.7851
G01 X5.5902 Y25.7910
G01 X5.5776 Y25.7967
G01 X5.5672 Y25.8008
G01 X5.5532 Y25.8052
G01 X5.5398 Y25.8101
G01 X5.5300 Y25.8129
G01 X5.4935 Y25.8248
G01 X5.4773 Y25.8293
G01 X5.4323 Y25.8400
G01 X4.3819 Y26.2008
G01 X4.3706 Y26.2037
G01 X4.3630 Y26.2052
G01 X4.3188 Y26.2125
G01 X4.3033 Y26.2140
G01 X4.1423 Y26.2142
G01 X4.0291 Y26.2367
G01 X3.9225 Y26.2808
G01 X3.8266 Y26.3450
G01 X1.5450 Y28.6266
G01 X1.4808 Y28.7225
G01 X1.4367 Y28.8291
G01 X1.4142 Y28.9423
G01 X1.4142 Y50.1527
G01 X1.4367 Y50.2659
G01 X1.4808 Y50.3725
G01 X1.5450 Y50.4684
G01 X6.8170 Y55.7405
G01 X6.8250 Y55.7491
G01 X6.8300 Y55.7552
G01 X6.8536 Y55.7865
G01 X6.8603 Y55.7962
G01 X6.8643 Y55.8029
G01 X6.8789 Y55.8294
G01 X6.8844 Y55.8404
G01 X6.8904 Y55.8557
G01 X6.8939 Y55.8676
G01 X6.9100 Y55.9310
G01 X6.9129 Y55.9472
G01 X6.9140 Y55.9595
G01 X6.9142 Y57.5116
G01 X6.9220 Y57.5881
G01 X6.9654 Y57.7193
G01 X7.0373 Y57.8358
G01 X7.1342 Y57.9327
G01 X7.2507 Y58.0046
G01 X7.3819 Y58.0480
G01 X7.4584 Y58.0558
G01 X8.4416 Y58.0558
G01 X8.5181 Y58.0480
G01 X8.6493 Y58.0046
G01 X8.7658 Y57.9327
G01 X8.8627 Y57.8358
G01 X8.9346 Y57.7193
G01 X8.9780 Y57.5881
G01 X8.9858 Y57.5116
G01 X8.9858 Y54.5784
G01 X8.9780 Y54.5019
G01 X8.9346 Y54.3707
G01 X8.8627 Y54.2542
G01 X8.7658 Y54.1573
G01 X8.6493 Y54.0854
G01 X8.5181 Y54.0420
G01 X8.4416 Y54.0342
G01 X7.4584 Y54.0342
G01 X7.3819 Y54.0420
G01 X7.2507 Y54.0854
G01 X7.1931 Y54.1210
G01 X7.1829 Y54.1268
G01 X7.1723 Y54.1319
G01 X7.1326 Y54.1489
G01 X7.1215 Y54.1527
G01 X7.0951 Y54.1597
G01 X7.0796 Y54.1624
G01 X7.0640 Y54.1636
G01 X6.9785 Y54.1620
G01 X6.9629 Y54.1603
G01 X6.9552 Y54.1588
G01 X6.9438 Y54.1560
G01 X6.9285 Y54.1512
G01 X6.9211 Y54.1484
G01 X6.9102 Y54.1437
G01 X6.9031 Y54.1401
G01 X6.8457 Y54.1055
G01 X6.8326 Y54.0966
G01 X6.8233 Y54.0892
G01 X6.8146 Y54.0811
G01 X2.6803 Y49.9467
G01 X2.6750 Y49.9409
G01 X2.6676 Y49.9317
G01 X2.6465 Y49.9035
G01 X2.6397 Y49.8938
G01 X2.6338 Y49.8837
G01 X2.6211 Y49.8606
G01 X2.6140 Y49.8458
G01 X2.6096 Y49.8343
G01 X2.6072 Y49.8264
G01 X2.5900 Y49.7590
G01 X2.5871 Y49.7428
G01 X2.5863 Y49.7346
G01 X2.5858 Y49.7223
G01 X2.5858 Y29.3801
G01 X2.5860 Y29.3720
G01 X2.5870 Y29.3604
G01 X2.5925 Y29.3217
G01 X2.5938 Y29.3140
G01 X2.5965 Y29.3025
G01 X2.6049 Y29.2735
G01 X2.6089 Y29.2618
G01 X2.6154 Y29.2467
G01 X2.6213 Y29.2359
G01 X2.6570 Y29.1761
G01 X2.6668 Y29.1629
G01 X2.6778 Y29.1507
G01 X4.2927 Y27.5359
G01 X4.2985 Y27.5306
G01 X4.3076 Y27.5232
G01 X4.3206 Y27.5144
G01 X4.3958 Y27.4734
G01 X4.4105 Y27.4671
G01 X4.4258 Y27.4623
G01 X4.4336 Y27.4605
G01 X4.4454 Y27.4584
G01 X4.4613 Y27.4570
G01 X4.4773 Y27.4572
G01 X4.5480 Y27.4614
G01 X4.5642 Y27.4635
G01 X4.5801 Y27.4673
G01 X5.4318 Y27.7598
G01 X5.4679 Y27.7681
G01 X5.4833 Y27.7721
G01 X5.5261 Y27.7858
G01 X5.5339 Y27.7878
G01 X5.5497 Y27.7927
G01 X5.5759 Y27.8028
G01 X5.5937 Y27.8111
G01 X5.6074 Y27.8188
G01 X5.6139 Y27.8231
G01 X5.6233 Y27.8302
G01 X5.6459 Y27.8501
G01 X5.6596 Y27.8602
G01 X5.6717 Y27.8712
G01 X5.6812 Y27.8815
G01 X5.6902 Y27.8902
G01 X5.6984 Y27.8994
G01 X5.7059 Y27.9091
G01 X5.7127 Y27.9193
G01 X5.7204 Y27.9337
G01 X5.7253 Y27.9450
G01 X5.7281 Y27.9527
G01 X5.7512 Y28.0358
G01 X5.7540 Y28.0519
G01 X5.7548 Y28.0600
G01 X5.7552 Y28.0723
G01 X5.7543 Y28.0886
G01 X5.7519 Y28.1048
G01 X5.7478 Y28.1206
G01 X5.7260 Y28.1912
G01 X5.7201 Y28.2062
G01 X5.7147 Y28.2171
G01 X5.7086 Y28.2275
G01 X5.7016 Y28.2375
G01 X5.6940 Y28.2469
G01 X5.6828 Y28.2585
G01 X5.6218 Y28.3109
G01 X5.6118 Y28.3184
G01 X5.5976 Y28.3271
G01 X5.5811 Y28.3352
G01 X5.5672 Y28.3408
G01 X5.5532 Y28.3452
G01 X5.5398 Y28.3501
G01 X5.5300 Y28.3529
G01 X5.3724 Y28.4042
G01 X5.2307 Y28.4763
G01 X5.1021 Y28.5697
G01 X4.9897 Y28.6821
G01 X4.8963 Y28.8107
G01 X4.8242 Y28.9524
G01 X4.7750 Y29.1035
G01 X4.7502 Y29.2605
G01 X4.7502 Y29.4195
G01 X4.7750 Y29.5765
G01 X4.8241 Y29.7276
G01 X4.8963 Y29.8693
G01 X4.9897 Y29.9979
G01 X5.1021 Y30.1103
G01 X5.2307 Y30.2037
G01 X5.3724 Y30.2758
G01 X5.5301 Y30.3271
G01 X5.5425 Y30.3308
G01 X5.5557 Y30.3360
G01 X5.5688 Y30.3401
G01 X5.5801 Y30.3446
G01 X5.5972 Y30.3529
G01 X5.6107 Y30.3609
G01 X5.6233 Y30.3702
G01 X5.6356 Y30.3809
G01 X5.6454 Y30.3874
G01 X5.6551 Y30.3949
G01 X5.6671 Y30.4060
G01 X5.6727 Y30.4119
G01 X5.6793 Y30.4199
G01 X5.6903 Y30.4303
G01 X5.7010 Y30.4426
G01 X5.7083 Y30.4525
G01 X5.7147 Y30.4629
G01 X5.7204 Y30.4738
G01 X5.7253 Y30.4850
G01 X5.7304 Y30.5005
G01 X5.7492 Y30.5678
G01 X5.7528 Y30.5838
G01 X5.7544 Y30.5959
G01 X5.7552 Y30.6123
G01 X5.7543 Y30.6286
G01 X5.7519 Y30.6448
G01 X5.7478 Y30.6606
G01 X5.7331 Y30.7088
G01 X5.7255 Y30.7327
G01 X5.7195 Y30.7474
G01 X5.7122 Y30.7615
G01 X5.7036 Y30.7748
G01 X5.6963 Y30.7842
G01 X5.6911 Y30.7902
G01 X5.6798 Y30.8013
G01 X5.6608 Y30.8176
G01 X5.6491 Y30.8306
G01 X5.6369 Y30.8415
G01 X5.6237 Y30.8511
G01 X5.6013 Y30.8651
G01 X5.5902 Y30.8710
G01 X5.5707 Y30.8796
G01 X5.5532 Y30.8852
G01 X5.5398 Y30.8901
G01 X5.5300 Y30.8929
G01 X5.3724 Y30.9442
G01 X5.2307 Y31.0163
G01 X5.1021 Y31.1097
G01 X4.9897 Y31.2221
G01 X4.8963 Y31.3507
G01 X4.8242 Y31.4924
G01 X4.7750 Y31.6435
G01 X4.7502 Y31.8005
G01 X4.7502 Y31.9595
G01 X4.7750 Y32.1165
G01 X4.8241 Y32.2676
G01 X4.8963 Y32.4093
G01 X4.9897 Y32.5379
G01 X5.1021 Y32.6503
G01 X5.2307 Y32.7437
G01 X5.3724 Y32.8158
G01 X5.5235 Y32.8650
G01 X5.6805 Y32.8898
G01 X5.8395 Y32.8898
G01 X5.9965 Y32.8650
G01 X6.1476 Y32.8159
G01 X6.2893 Y32.7437
G01 X6.4179 Y32.6503
G01 X6.5303 Y32.5379
G01 X6.6237 Y32.4093
G01 X6.6959 Y32.2676
G01 X6.7450 Y32.1165
G01 X6.7698 Y31.9595
G01 X6.7698 Y31.8005
G01 X6.7450 Y31.6435
G01 X6.6959 Y31.4924
G01 X6.6237 Y31.3507
G01 X6.5303 Y31.2221
G01 X6.4179 Y31.1097
G01 X6.2893 Y31.0163
G01 X6.1476 Y30.9442
G01 X5.9899 Y30.8929
G01 X5.9802 Y30.8901
G01 X5.9520 Y30.8802
G01 X5.9401 Y30.8755
G01 X5.9263 Y30.8689
G01 X5.9160 Y30.8633
G01 X5.9061 Y30.8569
G01 X5.8967 Y30.8499
G01 X5.8824 Y30.8415
G01 X5.8691 Y30.8319
G01 X5.8569 Y30.8210
G01 X5.8458 Y30.8090
G01 X5.8358 Y30.7957
G01 X5.8298 Y30.7898
G01 X5.8216 Y30.7806
G01 X5.8118 Y30.7675
G01 X5.8073 Y30.7607
G01 X5.8014 Y30.7499
G01 X5.7962 Y30.7388
G01 X5.7919 Y30.7270
G01 X5.7878 Y30.7196
G01 X5.7826 Y30.7085
G01 X5.7797 Y30.7008
G01 X5.7759 Y30.6892
G01 X5.7731 Y30.6772
G01 X5.7716 Y30.6692
G01 X5.7703 Y30.6570
G01 X5.7699 Y30.6485
G01 X5.7672 Y30.6362
G01 X5.7656 Y30.6241
G01 X5.7649 Y30.6118
G01 X5.7650 Y30.5996
G01 X5.7667 Y30.5833
G01 X5.7700 Y30.5670
G01 X5.7716 Y30.5504
G01 X5.7739 Y30.5384
G01 X5.7759 Y30.5304
G01 X5.7783 Y30.5226
G01 X5.7827 Y30.5111
G01 X5.7878 Y30.5000
G01 X5.7940 Y30.4891
G01 X5.7968 Y30.4812
G01 X5.8016 Y30.4701
G01 X5.8053 Y30.4629
G01 X5.8115 Y30.4525
G01 X5.8160 Y30.4458
G01 X5.8234 Y30.4362
G01 X5.8314 Y30.4271
G01 X5.8382 Y30.4206
G01 X5.8434 Y30.4136
G01 X5.8515 Y30.4041
G01 X5.8573 Y30.3982
G01 X5.8665 Y30.3899
G01 X5.8798 Y30.3799
G01 X5.9163 Y30.3564
G01 X5.9265 Y30.3506
G01 X5.9430 Y30.3430
G01 X5.9513 Y30.3397
G01 X5.9669 Y30.3348
G01 X5.9802 Y30.3298
G01 X5.9900 Y30.3271
G01 X6.1476 Y30.2759
G01 X6.2893 Y30.2037
G01 X6.4179 Y30.1103
G01 X6.5303 Y29.9979
G01 X6.6237 Y29.8693
G01 X6.6959 Y29.7276
G01 X6.7450 Y29.5765
G01 X6.7698 Y29.4195
G01 X6.7698 Y29.2605
G01 X6.7450 Y29.1035
G01 X6.6959 Y28.9524
G01 X6.6450 Y28.8526
G01 X6.6237 Y28.8107
G01 X6.5303 Y28.6821
G01 X6.4179 Y28.5697
G01 X6.2893 Y28.4763
G01 X6.1476 Y28.4042
G01 X5.9899 Y28.3529
G01 X5.9802 Y28.3501
G01 X5.9520 Y28.3402
G01 X5.9401 Y28.3355
G01 X5.9228 Y28.3271
G01 X5.9126 Y28.3212
G01 X5.9061 Y28.3169
G01 X5.8967 Y28.3099
G01 X5.8893 Y28.3058
G01 X5.8790 Y28.2992
G01 X5.8691 Y28.2919
G01 X5.8599 Y28.2839
G01 X5.8512 Y28.2752
G01 X5.8432 Y28.2658
G01 X5.8358 Y28.2557
G01 X5.8270 Y28.2468
G01 X5.8190 Y28.2374
G01 X5.8141 Y28.2309
G01 X5.8073 Y28.2207
G01 X5.8014 Y28.2099
G01 X5.7979 Y28.2025
G01 X5.7919 Y28.1870
G01 X5.7860 Y28.1759
G01 X5.7811 Y28.1647
G01 X5.7771 Y28.1531
G01 X5.7739 Y28.1412
G01 X5.7711 Y28.1251
G01 X5.7699 Y28.1085
G01 X5.7672 Y28.0962
G01 X5.7656 Y28.0841
G01 X5.7649 Y28.0718
G01 X5.7650 Y28.0596
G01 X5.7667 Y28.0433
G01 X5.7700 Y28.0270
G01 X5.7716 Y28.0104
G01 X5.7739 Y27.9984
G01 X5.7759 Y27.9904
G01 X5.7783 Y27.9826
G01 X5.7827 Y27.9711
G01 X5.7878 Y27.9600
G01 X5.7940 Y27.9491
G01 X5.7968 Y27.9412
G01 X5.8016 Y27.9301
G01 X5.8053 Y27.9229
G01 X5.8115 Y27.9125
G01 X5.8160 Y27.9058
G01 X5.8234 Y27.8962
G01 X5.8314 Y27.8871
G01 X5.8382 Y27.8806
G01 X5.8434 Y27.8736
G01 X5.8515 Y27.8641
G01 X5.8603 Y27.8553
G01 X5.8698 Y27.8472
G01 X5.8798 Y27.8399
G01 X5.9163 Y27.8164
G01 X5.9265 Y27.8106
G01 X5.9430 Y27.8030
G01 X5.9513 Y27.7997
G01 X5.9669 Y27.7948
G01 X5.9802 Y27.7898
G01 X5.9900 Y27.7871
G01 X6.1476 Y27.7359
G01 X6.2893 Y27.6637
G01 X6.4179 Y27.5703
G01 X6.5303 Y27.4579
G01 X6.6237 Y27.3293
G01 X6.6959 Y27.1876
G01 X6.7450 Y27.0365
G01 X6.7698 Y26.8795
G01 X6.7698 Y26.7205
G01 X6.7450 Y26.5635
G01 X6.6959 Y26.4124
G01 X6.6237 Y26.2707
G01 X6.5303 Y26.1421
G01 X6.4179 Y26.0297
G01 X6.2893 Y25.9363
G01 X6.1476 Y25.8642
G01 X5.9899 Y25.8129
G01 X5.9802 Y25.8101
G01 X5.9520 Y25.8002
G01 X5.9401 Y25.7955
G01 X5.9228 Y25.7871
G01 X5.9126 Y25.7812
G01 X5.9061 Y25.7769
G01 X5.8967 Y25.7699
G01 X5.8893 Y25.7658
G01 X5.8790 Y25.7592
G01 X5.8691 Y25.7519
G01 X5.8599 Y25.7439
G01 X5.8512 Y25.7352
G01 X5.8432 Y25.7258
G01 X5.8358 Y25.7157
G01 X5.8270 Y25.7068
G01 X5.8190 Y25.6974
G01 X5.8141 Y25.6909
G01 X5.8073 Y25.6807
G01 X5.8014 Y25.6699
G01 X5.7979 Y25.6625
G01 X5.7919 Y25.6470
G01 X5.7860 Y25.6359
G01 X5.7811 Y25.6247
G01 X5.7771 Y25.6131
G01 X5.7739 Y25.6012
G01 X5.7711 Y25.5851
G01 X5.7699 Y25.5685
G01 X5.7680 Y25.5602
G01 X5.7660 Y25.5481
G01 X5.7650 Y25.5359
G01 X5.7649 Y25.5236
G01 X5.7661 Y25.5073
G01 X5.7681 Y25.4952
G01 X5.7700 Y25.4870
G01 X5.7716 Y25.4704
G01 X5.7739 Y25.4584
G01 X5.7759 Y25.4504
G01 X5.7783 Y25.4426
G01 X5.7827 Y25.4311
G01 X5.7878 Y25.4200
G01 X5.7940 Y25.4091
G01 X5.7968 Y25.4012
G01 X5.8016 Y25.3901
G01 X5.8053 Y25.3829
G01 X5.8115 Y25.3725
G01 X5.8184 Y25.3625
G01 X5.8234 Y25.3562
G01 X5.8314 Y25.3471
G01 X5.8382 Y25.3406
G01 X5.8434 Y25.3336
G01 X5.8515 Y25.3241
G01 X5.8603 Y25.3153
G01 X5.8698 Y25.3072
G01 X5.8798 Y25.2999
G01 X5.9163 Y25.2764
G01 X5.9265 Y25.2706
G01 X5.9430 Y25.2630
G01 X5.9513 Y25.2597
G01 X5.9669 Y25.2548
G01 X5.9802 Y25.2498
G01 X5.9900 Y25.2471
G01 X6.1476 Y25.1959
G01 X6.2893 Y25.1237
G01 X6.4179 Y25.0303
G01 X6.5303 Y24.9179
G01 X6.6237 Y24.7893
G01 X6.6959 Y24.6476
G01 X6.7450 Y24.4965
G01 X6.7698 Y24.3395
G01 X6.7698 Y24.1805
