(G-CODE GENERATED BY FLATCAM v8.994 - www.flatcam.org - Version Date: 2020/11/7)

(Name: active_sender-Edge_Cuts.gbr_cutout_cnc)
(Type: G-code from Geometry)
(Units: MM)

(Created on Wednesday, 24 June 2026 at 16:52)

(This preprocessor is the default preprocessor used by FlatCAM.)
(It is made to work with MACH3 compatible motion controllers.)

(TOOL DIAMETER: 1.7 mm)
(Feedrate_XY: 120.0 mm/min)
(Feedrate_Z: 40.0 mm/min)
(Feedrate rapids 1500.0 mm/min)

(Z_Cut: -2.5 mm)
(DepthPerCut: 0.5 mm <=>5 passes)
(Z_Move: 1.5 mm)
(Z Start: None mm)
(Z End: 15.0 mm)
(X,Y End: None mm)
(Steps per circle: 64)
(Preprocessor Geometry: default)

(X range:   -0.9750 ...   83.9750  mm)
(Y range:   -0.9750 ...   80.9750  mm)

(Spindle Speed: 12000.0 RPM)
G21
G90
G94

G01 F120.00

M5
G00 Z15.0000
G00 X0.0000 Y0.0000
T1
M6    
(MSG, Change to Tool Dia = 1.7000)
M0
G00 Z15.0000

M03 S12000.0
G4 P1.0
G01 F120.00
G00 X-0.9750 Y37.2500
G01 F40.00
G01 Z-0.5000
G01 F120.00
G01 X-0.9750 Y5.0000
G01 X-0.9747 Y4.9755
G01 X-0.9738 Y4.9522
G01 X-0.9498 Y4.4621
G01 X-0.9463 Y4.4156
G01 X-0.9404 Y4.3669
G01 X-0.8684 Y3.8815
G01 X-0.8604 Y3.8355
G01 X-0.8497 Y3.7876
G01 X-0.7305 Y3.3117
G01 X-0.7181 Y3.2667
G01 X-0.7027 Y3.2201
G01 X-0.5374 Y2.7581
G01 X-0.5206 Y2.7146
G01 X-0.5008 Y2.6697
G01 X-0.2910 Y2.2261
G01 X-0.2700 Y2.1845
G01 X-0.2459 Y2.1418
G01 X0.0064 Y1.7209
G01 X0.0327 Y1.6795
G01 X0.0595 Y1.6413
G01 X0.3518 Y1.2472
G01 X0.3821 Y1.2086
G01 X0.4125 Y1.1733
G01 X0.7420 Y0.8097
G01 X0.7742 Y0.7759
G01 X0.8097 Y0.7420
G01 X1.1733 Y0.4125
G01 X1.2086 Y0.3821
G01 X1.2472 Y0.3518
G01 X1.6413 Y0.0595
G01 X1.6795 Y0.0327
G01 X1.7209 Y0.0064
G01 X2.1418 Y-0.2459
G01 X2.1823 Y-0.2689
G01 X2.2261 Y-0.2910
G01 X2.6697 Y-0.5008
G01 X2.7123 Y-0.5197
G01 X2.7581 Y-0.5374
G01 X3.2201 Y-0.7027
G01 X3.2667 Y-0.7181
G01 X3.3117 Y-0.7305
G01 X3.7876 Y-0.8497
G01 X3.8355 Y-0.8604
G01 X3.8815 Y-0.8684
G01 X4.3669 Y-0.9404
G01 X4.4156 Y-0.9463
G01 X4.4621 Y-0.9498
G01 X4.9522 Y-0.9738
G01 X4.9767 Y-0.9747
G01 X5.0000 Y-0.9750
G01 X78.0000 Y-0.9750
G01 X78.0245 Y-0.9747
G01 X78.0478 Y-0.9738
G01 X78.5379 Y-0.9498
G01 X78.5869 Y-0.9461
G01 X78.6331 Y-0.9404
G01 X79.1185 Y-0.8684
G01 X79.1645 Y-0.8604
G01 X79.2124 Y-0.8497
G01 X79.6883 Y-0.7305
G01 X79.7333 Y-0.7181
G01 X79.7799 Y-0.7027
G01 X80.2419 Y-0.5374
G01 X80.2854 Y-0.5206
G01 X80.3303 Y-0.5008
G01 X80.7739 Y-0.2910
G01 X80.8155 Y-0.2700
G01 X80.8582 Y-0.2459
G01 X81.2791 Y0.0064
G01 X81.3185 Y0.0313
G01 X81.3587 Y0.0595
G01 X81.7528 Y0.3518
G01 X81.7895 Y0.3805
G01 X81.8267 Y0.4125
G01 X82.1903 Y0.7420
G01 X82.2241 Y0.7742
G01 X82.2580 Y0.8097
G01 X82.5875 Y1.1733
G01 X82.6179 Y1.2086
G01 X82.6482 Y1.2472
G01 X82.9405 Y1.6413
G01 X82.9673 Y1.6795
G01 X82.9936 Y1.7209
G01 X83.2459 Y2.1418
G01 X83.2689 Y2.1823
G01 X83.2910 Y2.2261
G01 X83.5008 Y2.6697
G01 X83.5197 Y2.7123
G01 X83.5374 Y2.7581
G01 X83.7027 Y3.2201
G01 X83.7173 Y3.2644
G01 X83.7305 Y3.3117
G01 X83.8497 Y3.7876
G01 X83.8599 Y3.8331
G01 X83.8684 Y3.8815
G01 X83.9404 Y4.3669
G01 X83.9463 Y4.4156
G01 X83.9498 Y4.4621
G01 X83.9738 Y4.9522
G01 X83.9747 Y4.9755
G01 X83.9750 Y5.0000
G01 X83.9750 Y37.2500
G00 X83.9750 Y37.2500
G01 F40.00
G01 Z-1.0000
G01 F120.00
G01 X83.9750 Y5.0000
G01 X83.9747 Y4.9755
G01 X83.9738 Y4.9522
G01 X83.9498 Y4.4621
G01 X83.9463 Y4.4156
G01 X83.9404 Y4.3669
G01 X83.8684 Y3.8815
G01 X83.8599 Y3.8331
G01 X83.8497 Y3.7876
G01 X83.7305 Y3.3117
G01 X83.7173 Y3.2644
G01 X83.7027 Y3.2201
G01 X83.5374 Y2.7581
G01 X83.5197 Y2.7123
G01 X83.5008 Y2.6697
G01 X83.2910 Y2.2261
G01 X83.2689 Y2.1823
G01 X83.2459 Y2.1418
G01 X82.9936 Y1.7209
G01 X82.9673 Y1.6795
G01 X82.9405 Y1.6413
G01 X82.6482 Y1.2472
G01 X82.6179 Y1.2086
G01 X82.5875 Y1.1733
G01 X82.2580 Y0.8097
G01 X82.2241 Y0.7742
G01 X82.1903 Y0.7420
G01 X81.8267 Y0.4125
G01 X81.7895 Y0.3805
G01 X81.7528 Y0.3518
G01 X81.3587 Y0.0595
G01 X81.3185 Y0.0313
G01 X81.2791 Y0.0064
G01 X80.8582 Y-0.2459
G01 X80.8155 Y-0.2700
G01 X80.7739 Y-0.2910
G01 X80.3303 Y-0.5008
G01 X80.2854 Y-0.5206
G01 X80.2419 Y-0.5374
G01 X79.7799 Y-0.7027
G01 X79.7333 Y-0.7181
G01 X79.6883 Y-0.7305
G01 X79.2124 Y-0.8497
G01 X79.1645 Y-0.8604
G01 X79.1185 Y-0.8684
G01 X78.6331 Y-0.9404
G01 X78.5869 Y-0.9461
G01 X78.5379 Y-0.9498
G01 X78.0478 Y-0.9738
G01 X78.0245 Y-0.9747
G01 X78.0000 Y-0.9750
G01 X5.0000 Y-0.9750
G01 X4.9767 Y-0.9747
G01 X4.9522 Y-0.9738
G01 X4.4621 Y-0.9498
G01 X4.4156 Y-0.9463
G01 X4.3669 Y-0.9404
G01 X3.8815 Y-0.8684
G01 X3.8355 Y-0.8604
G01 X3.7876 Y-0.8497
G01 X3.3117 Y-0.7305
G01 X3.2667 Y-0.7181
G01 X3.2201 Y-0.7027
G01 X2.7581 Y-0.5374
G01 X2.7123 Y-0.5197
G01 X2.6697 Y-0.5008
G01 X2.2261 Y-0.2910
G01 X2.1823 Y-0.2689
G01 X2.1418 Y-0.2459
G01 X1.7209 Y0.0064
G01 X1.6795 Y0.0327
G01 X1.6413 Y0.0595
G01 X1.2472 Y0.3518
G01 X1.2086 Y0.3821
G01 X1.1733 Y0.4125
G01 X0.8097 Y0.7420
G01 X0.7742 Y0.7759
G01 X0.7420 Y0.8097
G01 X0.4125 Y1.1733
G01 X0.3821 Y1.2086
G01 X0.3518 Y1.2472
G01 X0.0595 Y1.6413
G01 X0.0327 Y1.6795
G01 X0.0064 Y1.7209
G01 X-0.2459 Y2.1418
G01 X-0.2700 Y2.1845
G01 X-0.2910 Y2.2261
G01 X-0.5008 Y2.6697
G01 X-0.5206 Y2.7146
G01 X-0.5374 Y2.7581
G01 X-0.7027 Y3.2201
G01 X-0.7181 Y3.2667
G01 X-0.7305 Y3.3117
G01 X-0.8497 Y3.7876
G01 X-0.8604 Y3.8355
G01 X-0.8684 Y3.8815
G01 X-0.9404 Y4.3669
G01 X-0.9463 Y4.4156
G01 X-0.9498 Y4.4621
G01 X-0.9738 Y4.9522
G01 X-0.9747 Y4.9755
G01 X-0.9750 Y5.0000
G01 X-0.9750 Y37.2500
G00 X-0.9750 Y37.2500
G01 F40.00
G01 Z-1.5000
G01 F120.00
G01 X-0.9750 Y5.0000
G01 X-0.9747 Y4.9755
G01 X-0.9738 Y4.9522
G01 X-0.9498 Y4.4621
G01 X-0.9463 Y4.4156
G01 X-0.9404 Y4.3669
G01 X-0.8684 Y3.8815
G01 X-0.8604 Y3.8355
G01 X-0.8497 Y3.7876
G01 X-0.7305 Y3.3117
G01 X-0.7181 Y3.2667
G01 X-0.7027 Y3.2201
G01 X-0.5374 Y2.7581
G01 X-0.5206 Y2.7146
G01 X-0.5008 Y2.6697
G01 X-0.2910 Y2.2261
G01 X-0.2700 Y2.1845
G01 X-0.2459 Y2.1418
G01 X0.0064 Y1.7209
G01 X0.0327 Y1.6795
G01 X0.0595 Y1.6413
G01 X0.3518 Y1.2472
G01 X0.3821 Y1.2086
G01 X0.4125 Y1.1733
G01 X0.7420 Y0.8097
G01 X0.7742 Y0.7759
G01 X0.8097 Y0.7420
G01 X1.1733 Y0.4125
G01 X1.2086 Y0.3821
G01 X1.2472 Y0.3518
G01 X1.6413 Y0.0595
G01 X1.6795 Y0.0327
G01 X1.7209 Y0.0064
G01 X2.1418 Y-0.2459
G01 X2.1823 Y-0.2689
G01 X2.2261 Y-0.2910
G01 X2.6697 Y-0.5008
G01 X2.7123 Y-0.5197
G01 X2.7581 Y-0.5374
G01 X3.2201 Y-0.7027
G01 X3.2667 Y-0.7181
G01 X3.3117 Y-0.7305
G01 X3.7876 Y-0.8497
G01 X3.8355 Y-0.8604
G01 X3.8815 Y-0.8684
G01 X4.3669 Y-0.9404
G01 X4.4156 Y-0.9463
G01 X4.4621 Y-0.9498
G01 X4.9522 Y-0.9738
G01 X4.9767 Y-0.9747
G01 X5.0000 Y-0.9750
G01 X78.0000 Y-0.9750
G01 X78.0245 Y-0.9747
G01 X78.0478 Y-0.9738
G01 X78.5379 Y-0.9498
G01 X78.5869 Y-0.9461
G01 X78.6331 Y-0.9404
G01 X79.1185 Y-0.8684
G01 X79.1645 Y-0.8604
G01 X79.2124 Y-0.8497
G01 X79.6883 Y-0.7305
G01 X79.7333 Y-0.7181
G01 X79.7799 Y-0.7027
G01 X80.2419 Y-0.5374
G01 X80.2854 Y-0.5206
G01 X80.3303 Y-0.5008
G01 X80.7739 Y-0.2910
G01 X80.8155 Y-0.2700
G01 X80.8582 Y-0.2459
G01 X81.2791 Y0.0064
G01 X81.3185 Y0.0313
G01 X81.3587 Y0.0595
G01 X81.7528 Y0.3518
G01 X81.7895 Y0.3805
G01 X81.8267 Y0.4125
G01 X82.1903 Y0.7420
G01 X82.2241 Y0.7742
G01 X82.2580 Y0.8097
G01 X82.5875 Y1.1733
G01 X82.6179 Y1.2086
G01 X82.6482 Y1.2472
G01 X82.9405 Y1.6413
G01 X82.9673 Y1.6795
G01 X82.9936 Y1.7209
G01 X83.2459 Y2.1418
G01 X83.2689 Y2.1823
G01 X83.2910 Y2.2261
G01 X83.5008 Y2.6697
G01 X83.5197 Y2.7123
G01 X83.5374 Y2.7581
G01 X83.7027 Y3.2201
G01 X83.7173 Y3.2644
G01 X83.7305 Y3.3117
G01 X83.8497 Y3.7876
G01 X83.8599 Y3.8331
G01 X83.8684 Y3.8815
G01 X83.9404 Y4.3669
G01 X83.9463 Y4.4156
G01 X83.9498 Y4.4621
G01 X83.9738 Y4.9522
G01 X83.9747 Y4.9755
G01 X83.9750 Y5.0000
G01 X83.9750 Y37.2500
G00 X83.9750 Y37.2500
G01 F40.00
G01 Z-2.0000
G01 F120.00
G01 X83.9750 Y5.0000
G01 X83.9747 Y4.9755
G01 X83.9738 Y4.9522
G01 X83.9498 Y4.4621
G01 X83.9463 Y4.4156
G01 X83.9404 Y4.3669
G01 X83.8684 Y3.8815
G01 X83.8599 Y3.8331
G01 X83.8497 Y3.7876
G01 X83.7305 Y3.3117
G01 X83.7173 Y3.2644
G01 X83.7027 Y3.2201
G01 X83.5374 Y2.7581
G01 X83.5197 Y2.7123
G01 X83.5008 Y2.6697
G01 X83.2910 Y2.2261
G01 X83.2689 Y2.1823
G01 X83.2459 Y2.1418
G01 X82.9936 Y1.7209
G01 X82.9673 Y1.6795
G01 X82.9405 Y1.6413
G01 X82.6482 Y1.2472
G01 X82.6179 Y1.2086
G01 X82.5875 Y1.1733
G01 X82.2580 Y0.8097
G01 X82.2241 Y0.7742
G01 X82.1903 Y0.7420
G01 X81.8267 Y0.4125
G01 X81.7895 Y0.3805
G01 X81.7528 Y0.3518
G01 X81.3587 Y0.0595
G01 X81.3185 Y0.0313
G01 X81.2791 Y0.0064
G01 X80.8582 Y-0.2459
G01 X80.8155 Y-0.2700
G01 X80.7739 Y-0.2910
G01 X80.3303 Y-0.5008
G01 X80.2854 Y-0.5206
G01 X80.2419 Y-0.5374
G01 X79.7799 Y-0.7027
G01 X79.7333 Y-0.7181
G01 X79.6883 Y-0.7305
G01 X79.2124 Y-0.8497
G01 X79.1645 Y-0.8604
G01 X79.1185 Y-0.8684
G01 X78.6331 Y-0.9404
G01 X78.5869 Y-0.9461
G01 X78.5379 Y-0.9498
G01 X78.0478 Y-0.9738
G01 X78.0245 Y-0.9747
G01 X78.0000 Y-0.9750
G01 X5.0000 Y-0.9750
G01 X4.9767 Y-0.9747
G01 X4.9522 Y-0.9738
G01 X4.4621 Y-0.9498
G01 X4.4156 Y-0.9463
G01 X4.3669 Y-0.9404
G01 X3.8815 Y-0.8684
G01 X3.8355 Y-0.8604
G01 X3.7876 Y-0.8497
G01 X3.3117 Y-0.7305
G01 X3.2667 Y-0.7181
G01 X3.2201 Y-0.7027
G01 X2.7581 Y-0.5374
G01 X2.7123 Y-0.5197
G01 X2.6697 Y-0.5008
G01 X2.2261 Y-0.2910
G01 X2.1823 Y-0.2689
G01 X2.1418 Y-0.2459
G01 X1.7209 Y0.0064
G01 X1.6795 Y0.0327
G01 X1.6413 Y0.0595
G01 X1.2472 Y0.3518
G01 X1.2086 Y0.3821
G01 X1.1733 Y0.4125
G01 X0.8097 Y0.7420
G01 X0.7742 Y0.7759
G01 X0.7420 Y0.8097
G01 X0.4125 Y1.1733
G01 X0.3821 Y1.2086
G01 X0.3518 Y1.2472
G01 X0.0595 Y1.6413
G01 X0.0327 Y1.6795
G01 X0.0064 Y1.7209
G01 X-0.2459 Y2.1418
G01 X-0.2700 Y2.1845
G01 X-0.2910 Y2.2261
G01 X-0.5008 Y2.6697
G01 X-0.5206 Y2.7146
G01 X-0.5374 Y2.7581
G01 X-0.7027 Y3.2201
G01 X-0.7181 Y3.2667
G01 X-0.7305 Y3.3117
G01 X-0.8497 Y3.7876
G01 X-0.8604 Y3.8355
G01 X-0.8684 Y3.8815
G01 X-0.9404 Y4.3669
G01 X-0.9463 Y4.4156
G01 X-0.9498 Y4.4621
G01 X-0.9738 Y4.9522
G01 X-0.9747 Y4.9755
G01 X-0.9750 Y5.0000
G01 X-0.9750 Y37.2500
G00 X-0.9750 Y37.2500
G01 F40.00
G01 Z-2.5000
G01 F120.00
G01 X-0.9750 Y5.0000
G01 X-0.9747 Y4.9755
G01 X-0.9738 Y4.9522
G01 X-0.9498 Y4.4621
G01 X-0.9463 Y4.4156
G01 X-0.9404 Y4.3669
G01 X-0.8684 Y3.8815
G01 X-0.8604 Y3.8355
G01 X-0.8497 Y3.7876
G01 X-0.7305 Y3.3117
G01 X-0.7181 Y3.2667
G01 X-0.7027 Y3.2201
G01 X-0.5374 Y2.7581
G01 X-0.5206 Y2.7146
G01 X-0.5008 Y2.6697
G01 X-0.2910 Y2.2261
G01 X-0.2700 Y2.1845
G01 X-0.2459 Y2.1418
G01 X0.0064 Y1.7209
G01 X0.0327 Y1.6795
G01 X0.0595 Y1.6413
G01 X0.3518 Y1.2472
G01 X0.3821 Y1.2086
G01 X0.4125 Y1.1733
G01 X0.7420 Y0.8097
G01 X0.7742 Y0.7759
G01 X0.8097 Y0.7420
G01 X1.1733 Y0.4125
G01 X1.2086 Y0.3821
G01 X1.2472 Y0.3518
G01 X1.6413 Y0.0595
G01 X1.6795 Y0.0327
G01 X1.7209 Y0.0064
G01 X2.1418 Y-0.2459
G01 X2.1823 Y-0.2689
G01 X2.2261 Y-0.2910
G01 X2.6697 Y-0.5008
G01 X2.7123 Y-0.5197
G01 X2.7581 Y-0.5374
G01 X3.2201 Y-0.7027
G01 X3.2667 Y-0.7181
G01 X3.3117 Y-0.7305
G01 X3.7876 Y-0.8497
G01 X3.8355 Y-0.8604
G01 X3.8815 Y-0.8684
G01 X4.3669 Y-0.9404
G01 X4.4156 Y-0.9463
G01 X4.4621 Y-0.9498
G01 X4.9522 Y-0.9738
G01 X4.9767 Y-0.9747
G01 X5.0000 Y-0.9750
G01 X78.0000 Y-0.9750
G01 X78.0245 Y-0.9747
G01 X78.0478 Y-0.9738
G01 X78.5379 Y-0.9498
G01 X78.5869 Y-0.9461
G01 X78.6331 Y-0.9404
G01 X79.1185 Y-0.8684
G01 X79.1645 Y-0.8604
G01 X79.2124 Y-0.8497
G01 X79.6883 Y-0.7305
G01 X79.7333 Y-0.7181
G01 X79.7799 Y-0.7027
G01 X80.2419 Y-0.5374
G01 X80.2854 Y-0.5206
G01 X80.3303 Y-0.5008
G01 X80.7739 Y-0.2910
G01 X80.8155 Y-0.2700
G01 X80.8582 Y-0.2459
G01 X81.2791 Y0.0064
G01 X81.3185 Y0.0313
G01 X81.3587 Y0.0595
G01 X81.7528 Y0.3518
G01 X81.7895 Y0.3805
G01 X81.8267 Y0.4125
G01 X82.1903 Y0.7420
G01 X82.2241 Y0.7742
G01 X82.2580 Y0.8097
G01 X82.5875 Y1.1733
G01 X82.6179 Y1.2086
G01 X82.6482 Y1.2472
G01 X82.9405 Y1.6413
G01 X82.9673 Y1.6795
G01 X82.9936 Y1.7209
G01 X83.2459 Y2.1418
G01 X83.2689 Y2.1823
G01 X83.2910 Y2.2261
G01 X83.5008 Y2.6697
G01 X83.5197 Y2.7123
G01 X83.5374 Y2.7581
G01 X83.7027 Y3.2201
G01 X83.7173 Y3.2644
G01 X83.7305 Y3.3117
G01 X83.8497 Y3.7876
G01 X83.8599 Y3.8331
G01 X83.8684 Y3.8815
G01 X83.9404 Y4.3669
G01 X83.9463 Y4.4156
G01 X83.9498 Y4.4621
G01 X83.9738 Y4.9522
G01 X83.9747 Y4.9755
G01 X83.9750 Y5.0000
G01 X83.9750 Y37.2500
G00 Z1.5000
G00 X-0.9750 Y42.9500
G01 F40.00
G01 Z-0.5000
G01 F120.00
G01 X-0.9750 Y75.0000
G01 X-0.9738 Y75.0478
G01 X-0.9498 Y75.5379
G01 X-0.9463 Y75.5844
G01 X-0.9404 Y75.6331
G01 X-0.8684 Y76.1185
G01 X-0.8599 Y76.1669
G01 X-0.8497 Y76.2124
G01 X-0.7305 Y76.6883
G01 X-0.7173 Y76.7356
G01 X-0.7027 Y76.7799
G01 X-0.5374 Y77.2419
G01 X-0.5197 Y77.2877
G01 X-0.5008 Y77.3303
G01 X-0.2910 Y77.7739
G01 X-0.2689 Y77.8177
G01 X-0.2459 Y77.8582
G01 X0.0064 Y78.2791
G01 X0.0327 Y78.3205
G01 X0.0595 Y78.3587
G01 X0.3518 Y78.7528
G01 X0.3821 Y78.7914
G01 X0.4125 Y78.8267
G01 X0.7420 Y79.1903
G01 X0.7759 Y79.2258
G01 X0.8097 Y79.2580
G01 X1.1733 Y79.5875
G01 X1.2105 Y79.6195
G01 X1.2472 Y79.6482
G01 X1.6413 Y79.9405
G01 X1.6815 Y79.9687
G01 X1.7209 Y79.9936
G01 X2.1418 Y80.2459
G01 X2.1845 Y80.2700
G01 X2.2261 Y80.2910
G01 X2.6697 Y80.5008
G01 X2.7146 Y80.5206
G01 X2.7581 Y80.5374
G01 X3.2201 Y80.7027
G01 X3.2667 Y80.7181
G01 X3.3117 Y80.7305
G01 X3.7876 Y80.8497
G01 X3.8355 Y80.8604
G01 X3.8815 Y80.8684
G01 X4.3669 Y80.9404
G01 X4.4131 Y80.9461
G01 X4.4621 Y80.9498
G01 X4.9522 Y80.9738
G01 X4.9755 Y80.9747
G01 X5.0000 Y80.9750
G01 X78.0000 Y80.9750
G01 X78.0245 Y80.9747
G01 X78.0478 Y80.9738
G01 X78.5379 Y80.9498
G01 X78.5844 Y80.9463
G01 X78.6331 Y80.9404
G01 X79.1185 Y80.8684
G01 X79.1645 Y80.8604
G01 X79.2124 Y80.8497
G01 X79.6883 Y80.7305
G01 X79.7333 Y80.7181
G01 X79.7799 Y80.7027
G01 X80.2419 Y80.5374
G01 X80.2877 Y80.5197
G01 X80.3303 Y80.5008
G01 X80.7739 Y80.2910
G01 X80.8177 Y80.2689
G01 X80.8582 Y80.2459
G01 X81.2791 Y79.9936
G01 X81.3205 Y79.9673
G01 X81.3587 Y79.9405
G01 X81.7528 Y79.6482
G01 X81.7914 Y79.6179
G01 X81.8267 Y79.5875
G01 X82.1903 Y79.2580
G01 X82.2258 Y79.2241
G01 X82.2580 Y79.1903
G01 X82.5875 Y78.8267
G01 X82.6179 Y78.7914
G01 X82.6482 Y78.7528
G01 X82.9405 Y78.3587
G01 X82.9673 Y78.3205
G01 X82.9936 Y78.2791
G01 X83.2459 Y77.8582
G01 X83.2700 Y77.8155
G01 X83.2910 Y77.7739
G01 X83.5008 Y77.3303
G01 X83.5206 Y77.2854
G01 X83.5374 Y77.2419
G01 X83.7027 Y76.7799
G01 X83.7181 Y76.7333
G01 X83.7305 Y76.6883
G01 X83.8497 Y76.2124
G01 X83.8604 Y76.1645
G01 X83.8684 Y76.1185
G01 X83.9404 Y75.6331
G01 X83.9463 Y75.5844
G01 X83.9498 Y75.5379
G01 X83.9738 Y75.0478
G01 X83.9747 Y75.0245
G01 X83.9750 Y75.0000
G01 X83.9750 Y42.9500
G00 X83.9750 Y42.9500
G01 F40.00
G01 Z-1.0000
G01 F120.00
G01 X83.9750 Y75.0000
G01 X83.9747 Y75.0245
G01 X83.9738 Y75.0478
G01 X83.9498 Y75.5379
G01 X83.9463 Y75.5844
G01 X83.9404 Y75.6331
G01 X83.8684 Y76.1185
G01 X83.8604 Y76.1645
G01 X83.8497 Y76.2124
G01 X83.7305 Y76.6883
G01 X83.7181 Y76.7333
G01 X83.7027 Y76.7799
G01 X83.5374 Y77.2419
G01 X83.5206 Y77.2854
G01 X83.5008 Y77.3303
G01 X83.2910 Y77.7739
G01 X83.2700 Y77.8155
G01 X83.2459 Y77.8582
G01 X82.9936 Y78.2791
G01 X82.9673 Y78.3205
G01 X82.9405 Y78.3587
G01 X82.6482 Y78.7528
G01 X82.6179 Y78.7914
G01 X82.5875 Y78.8267
G01 X82.2580 Y79.1903
G01 X82.2258 Y79.2241
G01 X82.1903 Y79.2580
G01 X81.8267 Y79.5875
G01 X81.7914 Y79.6179
G01 X81.7528 Y79.6482
G01 X81.3587 Y79.9405
G01 X81.3205 Y79.9673
G01 X81.2791 Y79.9936
G01 X80.8582 Y80.2459
G01 X80.8177 Y80.2689
G01 X80.7739 Y80.2910
G01 X80.3303 Y80.5008
G01 X80.2877 Y80.5197
G01 X80.2419 Y80.5374
G01 X79.7799 Y80.7027
G01 X79.7333 Y80.7181
G01 X79.6883 Y80.7305
G01 X79.2124 Y80.8497
G01 X79.1645 Y80.8604
G01 X79.1185 Y80.8684
G01 X78.6331 Y80.9404
G01 X78.5844 Y80.9463
G01 X78.5379 Y80.9498
G01 X78.0478 Y80.9738
G01 X78.0245 Y80.9747
G01 X78.0000 Y80.9750
G01 X5.0000 Y80.9750
G01 X4.9755 Y80.9747
G01 X4.9522 Y80.9738
G01 X4.4621 Y80.9498
G01 X4.4131 Y80.9461
G01 X4.3669 Y80.9404
G01 X3.8815 Y80.8684
G01 X3.8355 Y80.8604
G01 X3.7876 Y80.8497
G01 X3.3117 Y80.7305
G01 X3.2667 Y80.7181
G01 X3.2201 Y80.7027
G01 X2.7581 Y80.5374
G01 X2.7146 Y80.5206
G01 X2.6697 Y80.5008
G01 X2.2261 Y80.2910
G01 X2.1845 Y80.2700
G01 X2.1418 Y80.2459
G01 X1.7209 Y79.9936
G01 X1.6815 Y79.9687
G01 X1.6413 Y79.9405
G01 X1.2472 Y79.6482
G01 X1.2105 Y79.6195
G01 X1.1733 Y79.5875
G01 X0.8097 Y79.2580
G01 X0.7759 Y79.2258
G01 X0.7420 Y79.1903
G01 X0.4125 Y78.8267
G01 X0.3821 Y78.7914
G01 X0.3518 Y78.7528
G01 X0.0595 Y78.3587
G01 X0.0327 Y78.3205
G01 X0.0064 Y78.2791
G01 X-0.2459 Y77.8582
G01 X-0.2689 Y77.8177
G01 X-0.2910 Y77.7739
G01 X-0.5008 Y77.3303
G01 X-0.5197 Y77.2877
G01 X-0.5374 Y77.2419
G01 X-0.7027 Y76.7799
G01 X-0.7173 Y76.7356
G01 X-0.7305 Y76.6883
G01 X-0.8497 Y76.2124
G01 X-0.8599 Y76.1669
G01 X-0.8684 Y76.1185
G01 X-0.9404 Y75.6331
G01 X-0.9463 Y75.5844
G01 X-0.9498 Y75.5379
G01 X-0.9738 Y75.0478
G01 X-0.9750 Y75.0000
G01 X-0.9750 Y42.9500
G00 X-0.9750 Y42.9500
G01 F40.00
G01 Z-1.5000
G01 F120.00
G01 X-0.9750 Y75.0000
G01 X-0.9738 Y75.0478
G01 X-0.9498 Y75.5379
G01 X-0.9463 Y75.5844
G01 X-0.9404 Y75.6331
G01 X-0.8684 Y76.1185
G01 X-0.8599 Y76.1669
G01 X-0.8497 Y76.2124
G01 X-0.7305 Y76.6883
G01 X-0.7173 Y76.7356
G01 X-0.7027 Y76.7799
G01 X-0.5374 Y77.2419
G01 X-0.5197 Y77.2877
G01 X-0.5008 Y77.3303
G01 X-0.2910 Y77.7739
G01 X-0.2689 Y77.8177
G01 X-0.2459 Y77.8582
G01 X0.0064 Y78.2791
G01 X0.0327 Y78.3205
G01 X0.0595 Y78.3587
G01 X0.3518 Y78.7528
G01 X0.3821 Y78.7914
G01 X0.4125 Y78.8267
G01 X0.7420 Y79.1903
G01 X0.7759 Y79.2258
G01 X0.8097 Y79.2580
G01 X1.1733 Y79.5875
G01 X1.2105 Y79.6195
G01 X1.2472 Y79.6482
G01 X1.6413 Y79.9405
G01 X1.6815 Y79.9687
G01 X1.7209 Y79.9936
G01 X2.1418 Y80.2459
G01 X2.1845 Y80.2700
G01 X2.2261 Y80.2910
G01 X2.6697 Y80.5008
G01 X2.7146 Y80.5206
G01 X2.7581 Y80.5374
G01 X3.2201 Y80.7027
G01 X3.2667 Y80.7181
G01 X3.3117 Y80.7305
G01 X3.7876 Y80.8497
G01 X3.8355 Y80.8604
G01 X3.8815 Y80.8684
G01 X4.3669 Y80.9404
G01 X4.4131 Y80.9461
G01 X4.4621 Y80.9498
G01 X4.9522 Y80.9738
G01 X4.9755 Y80.9747
G01 X5.0000 Y80.9750
G01 X78.0000 Y80.9750
G01 X78.0245 Y80.9747
G01 X78.0478 Y80.9738
G01 X78.5379 Y80.9498
G01 X78.5844 Y80.9463
G01 X78.6331 Y80.9404
G01 X79.1185 Y80.8684
G01 X79.1645 Y80.8604
G01 X79.2124 Y80.8497
G01 X79.6883 Y80.7305
G01 X79.7333 Y80.7181
G01 X79.7799 Y80.7027
G01 X80.2419 Y80.5374
G01 X80.2877 Y80.5197
G01 X80.3303 Y80.5008
G01 X80.7739 Y80.2910
G01 X80.8177 Y80.2689
G01 X80.8582 Y80.2459
G01 X81.2791 Y79.9936
G01 X81.3205 Y79.9673
G01 X81.3587 Y79.9405
G01 X81.7528 Y79.6482
G01 X81.7914 Y79.6179
G01 X81.8267 Y79.5875
G01 X82.1903 Y79.2580
G01 X82.2258 Y79.2241
G01 X82.2580 Y79.1903
G01 X82.5875 Y78.8267
G01 X82.6179 Y78.7914
G01 X82.6482 Y78.7528
G01 X82.9405 Y78.3587
G01 X82.9673 Y78.3205
G01 X82.9936 Y78.2791
G01 X83.2459 Y77.8582
G01 X83.2700 Y77.8155
G01 X83.2910 Y77.7739
G01 X83.5008 Y77.3303
G01 X83.5206 Y77.2854
G01 X83.5374 Y77.2419
G01 X83.7027 Y76.7799
G01 X83.7181 Y76.7333
G01 X83.7305 Y76.6883
G01 X83.8497 Y76.2124
G01 X83.8604 Y76.1645
G01 X83.8684 Y76.1185
G01 X83.9404 Y75.6331
G01 X83.9463 Y75.5844
G01 X83.9498 Y75.5379
G01 X83.9738 Y75.0478
G01 X83.9747 Y75.0245
G01 X83.9750 Y75.0000
G01 X83.9750 Y42.9500
G00 X83.9750 Y42.9500
G01 F40.00
G01 Z-2.0000
G01 F120.00
G01 X83.9750 Y75.0000
G01 X83.9747 Y75.0245
G01 X83.9738 Y75.0478
G01 X83.9498 Y75.5379
G01 X83.9463 Y75.5844
G01 X83.9404 Y75.6331
G01 X83.8684 Y76.1185
G01 X83.8604 Y76.1645
G01 X83.8497 Y76.2124
G01 X83.7305 Y76.6883
G01 X83.7181 Y76.7333
G01 X83.7027 Y76.7799
G01 X83.5374 Y77.2419
G01 X83.5206 Y77.2854
G01 X83.5008 Y77.3303
G01 X83.2910 Y77.7739
G01 X83.2700 Y77.8155
G01 X83.2459 Y77.8582
G01 X82.9936 Y78.2791
G01 X82.9673 Y78.3205
G01 X82.9405 Y78.3587
G01 X82.6482 Y78.7528
G01 X82.6179 Y78.7914
G01 X82.5875 Y78.8267
G01 X82.2580 Y79.1903
G01 X82.2258 Y79.2241
G01 X82.1903 Y79.2580
G01 X81.8267 Y79.5875
G01 X81.7914 Y79.6179
G01 X81.7528 Y79.6482
G01 X81.3587 Y79.9405
G01 X81.3205 Y79.9673
G01 X81.2791 Y79.9936
G01 X80.8582 Y80.2459
G01 X80.8177 Y80.2689
G01 X80.7739 Y80.2910
G01 X80.3303 Y80.5008
G01 X80.2877 Y80.5197
G01 X80.2419 Y80.5374
G01 X79.7799 Y80.7027
G01 X79.7333 Y80.7181
G01 X79.6883 Y80.7305
G01 X79.2124 Y80.8497
G01 X79.1645 Y80.8604
G01 X79.1185 Y80.8684
G01 X78.6331 Y80.9404
G01 X78.5844 Y80.9463
G01 X78.5379 Y80.9498
G01 X78.0478 Y80.9738
G01 X78.0245 Y80.9747
G01 X78.0000 Y80.9750
G01 X5.0000 Y80.9750
G01 X4.9755 Y80.9747
G01 X4.9522 Y80.9738
G01 X4.4621 Y80.9498
G01 X4.4131 Y80.9461
G01 X4.3669 Y80.9404
G01 X3.8815 Y80.8684
G01 X3.8355 Y80.8604
G01 X3.7876 Y80.8497
G01 X3.3117 Y80.7305
G01 X3.2667 Y80.7181
G01 X3.2201 Y80.7027
G01 X2.7581 Y80.5374
G01 X2.7146 Y80.5206
G01 X2.6697 Y80.5008
G01 X2.2261 Y80.2910
G01 X2.1845 Y80.2700
G01 X2.1418 Y80.2459
G01 X1.7209 Y79.9936
G01 X1.6815 Y79.9687
G01 X1.6413 Y79.9405
G01 X1.2472 Y79.6482
G01 X1.2105 Y79.6195
G01 X1.1733 Y79.5875
G01 X0.8097 Y79.2580
G01 X0.7759 Y79.2258
G01 X0.7420 Y79.1903
G01 X0.4125 Y78.8267
G01 X0.3821 Y78.7914
G01 X0.3518 Y78.7528
G01 X0.0595 Y78.3587
G01 X0.0327 Y78.3205
G01 X0.0064 Y78.2791
G01 X-0.2459 Y77.8582
G01 X-0.2689 Y77.8177
G01 X-0.2910 Y77.7739
G01 X-0.5008 Y77.3303
G01 X-0.5197 Y77.2877
G01 X-0.5374 Y77.2419
G01 X-0.7027 Y76.7799
G01 X-0.7173 Y76.7356
G01 X-0.7305 Y76.6883
G01 X-0.8497 Y76.2124
G01 X-0.8599 Y76.1669
G01 X-0.8684 Y76.1185
G01 X-0.9404 Y75.6331
G01 X-0.9463 Y75.5844
G01 X-0.9498 Y75.5379
G01 X-0.9738 Y75.0478
G01 X-0.9750 Y75.0000
G01 X-0.9750 Y42.9500
G00 X-0.9750 Y42.9500
G01 F40.00
G01 Z-2.5000
G01 F120.00
G01 X-0.9750 Y75.0000
G01 X-0.9738 Y75.0478
G01 X-0.9498 Y75.5379
G01 X-0.9463 Y75.5844
G01 X-0.9404 Y75.6331
G01 X-0.8684 Y76.1185
G01 X-0.8599 Y76.1669
G01 X-0.8497 Y76.2124
G01 X-0.7305 Y76.6883
G01 X-0.7173 Y76.7356
G01 X-0.7027 Y76.7799
G01 X-0.5374 Y77.2419
G01 X-0.5197 Y77.2877
G01 X-0.5008 Y77.3303
G01 X-0.2910 Y77.7739
G01 X-0.2689 Y77.8177
G01 X-0.2459 Y77.8582
G01 X0.0064 Y78.2791
G01 X0.0327 Y78.3205
G01 X0.0595 Y78.3587
G01 X0.3518 Y78.7528
G01 X0.3821 Y78.7914
G01 X0.4125 Y78.8267
G01 X0.7420 Y79.1903
G01 X0.7759 Y79.2258
G01 X0.8097 Y79.2580
G01 X1.1733 Y79.5875
G01 X1.2105 Y79.6195
G01 X1.2472 Y79.6482
G01 X1.6413 Y79.9405
G01 X1.6815 Y79.9687
G01 X1.7209 Y79.9936
G01 X2.1418 Y80.2459
G01 X2.1845 Y80.2700
G01 X2.2261 Y80.2910
G01 X2.6697 Y80.5008
G01 X2.7146 Y80.5206
G01 X2.7581 Y80.5374
G01 X3.2201 Y80.7027
G01 X3.2667 Y80.7181
G01 X3.3117 Y80.7305
G01 X3.7876 Y80.8497
G01 X3.8355 Y80.8604
G01 X3.8815 Y80.8684
G01 X4.3669 Y80.9404
G01 X4.4131 Y80.9461
G01 X4.4621 Y80.9498
G01 X4.9522 Y80.9738
G01 X4.9755 Y80.9747
G01 X5.0000 Y80.9750
G01 X78.0000 Y80.9750
G01 X78.0245 Y80.9747
G01 X78.0478 Y80.9738
G01 X78.5379 Y80.9498
G01 X78.5844 Y80.9463
G01 X78.6331 Y80.9404
G01 X79.1185 Y80.8684
G01 X79.1645 Y80.8604
G01 X79.2124 Y80.8497
G01 X79.6883 Y80.7305
G01 X79.7333 Y80.7181
G01 X79.7799 Y80.7027
G01 X80.2419 Y80.5374
G01 X80.2877 Y80.5197
G01 X80.3303 Y80.5008
G01 X80.7739 Y80.2910
G01 X80.8177 Y80.2689
G01 X80.8582 Y80.2459
G01 X81.2791 Y79.9936
G01 X81.3205 Y79.9673
G01 X81.3587 Y79.9405
G01 X81.7528 Y79.6482
G01 X81.7914 Y79.6179
G01 X81.8267 Y79.5875
G01 X82.1903 Y79.2580
G01 X82.2258 Y79.2241
G01 X82.2580 Y79.1903
G01 X82.5875 Y78.8267
G01 X82.6179 Y78.7914
G01 X82.6482 Y78.7528
G01 X82.9405 Y78.3587
G01 X82.9673 Y78.3205
G01 X82.9936 Y78.2791
G01 X83.2459 Y77.8582
G01 X83.2700 Y77.8155
G01 X83.2910 Y77.7739
G01 X83.5008 Y77.3303
G01 X83.5206 Y77.2854
G01 X83.5374 Y77.2419
G01 X83.7027 Y76.7799
G01 X83.7181 Y76.7333
G01 X83.7305 Y76.6883
G01 X83.8497 Y76.2124
G01 X83.8604 Y76.1645
G01 X83.8684 Y76.1185
G01 X83.9404 Y75.6331
G01 X83.9463 Y75.5844
G01 X83.9498 Y75.5379
G01 X83.9738 Y75.0478
G01 X83.9747 Y75.0245
G01 X83.9750 Y75.0000
G01 X83.9750 Y42.9500
G00 Z1.5000
M05
G00 Z1.5000
G00 Z15.00


